(Made in : Autodesk CAM Post Processor)
(G Code optimized for controller)
(OpenBuilds CNC : GRBL BlackBox)
(Post Processor : OpenbuildsFusion360PostGrbl.cps V1.0.27)
(Units = mm)

(Drawing name : Ilharga Esq v5)
(Program Name : 1001)
(Program Comments : Ilharga Esq)

(13 Operations in 5 files.)
(File List:)
( 1001 Ilharga.gcode)
( 1001 Ilharga.02of5.gcode)
( 1001 Ilharga.03of5.gcode)
( 1001 Ilharga.04of5.gcode)
( 1001 Ilharga.05of5.gcode)

(This is file: 3 of 5)

(This file contains the following operations: )
(10 : 2D Contour5)
( Work Coordinate System : G54)
( Tool 3: Chamfer Mill 3 Flutes, Diam = 5mm, Len = 12.00mm)
( Spindle : RPM = 15000, set router dial to 2.6)
( Machining time : 29 sec)
(11 : 2D Contour8)
( Work Coordinate System : G54)
( Tool 3: Chamfer Mill 3 Flutes, Diam = 5mm, Len = 12.00mm)
( Spindle : RPM = 15000, set router dial to 2.6)
( Machining time : 4 min 0 sec)

(Remaining operations located in additional files.)

G90 G94 G17
G21


(Operation 10 of 13 : 2D Contour5)
G54
G53 G0 Z-10
S15000 M3
G4 P1.8
G0 X325.779 Y549.982
Z15
Z5
G1 X325.779 Y549.982 Z1 F333
X325.779 Y549.982 Z-1.5
X325.817 Y549.985 Z-1.691 F1000
X325.925 Y549.997 Z-1.854
X326.086 Y550.013 Z-1.962
X326.277 Y550.033 Z-2
X326.774 Y550.084
G3 X327.22 Y550.633 I-0.051 J0.497
X319.262 Y549.811 I-3.979 J-0.411
X327.22 Y550.633 I3.979 J0.411
X326.671 Y551.079 I-0.497 J-0.051
G1 X326.174 Y551.028
X325.984 Y551.008 Z-1.962
X325.822 Y550.991 Z-1.854
X325.714 Y550.98 Z-1.691
X325.677 Y550.976 Z-1.5
G0 Z5
X430.011 Y501.219
G1 X430.011 Y501.219 Z1 F333
X430.011 Y501.219 Z-1.5
X430.049 Y501.219 Z-1.691 F1000
X430.158 Y501.219 Z-1.854
X430.32 Y501.219 Z-1.962
X430.511 Y501.219 Z-2
X431.011 Y501.219
G3 X431.511 Y501.719 I0 J0.5
X423.512 Y501.719 I-4 J0
X431.511 Y501.719 I4 J0
X431.011 Y502.219 I-0.5 J0
G1 X430.511 Y502.219
X430.32 Y502.219 Z-1.962
X430.158 Y502.219 Z-1.854
X430.049 Y502.219 Z-1.691
X430.011 Y502.219 Z-1.5
G0 Z5
X335.679 Y702.593
G1 X335.679 Y702.593 Z1 F333
X335.679 Y702.593 Z-1.5
X335.717 Y702.593 Z-1.691 F1000
X335.826 Y702.593 Z-1.854
X335.988 Y702.593 Z-1.962
X336.179 Y702.593 Z-2
X336.679 Y702.593
G3 X337.179 Y703.093 I0 J0.5
X329.179 Y703.093 I-4 J0
X337.179 Y703.093 I4 J0
X336.679 Y703.593 I-0.5 J0
G1 X336.179 Y703.593
X335.988 Y703.593 Z-1.962
X335.826 Y703.593 Z-1.854
X335.717 Y703.593 Z-1.691
X335.679 Y703.593 Z-1.5
G0 Z5
X81.035 Y676.278
G1 X81.035 Y676.278 Z1 F333
X81.035 Y676.278 Z-1.5
X81.073 Y676.278 Z-1.691 F1000
X81.182 Y676.278 Z-1.854
X81.344 Y676.278 Z-1.962
X81.535 Y676.278 Z-2
X82.035 Y676.278
G3 X82.535 Y676.778 I0 J0.5
X74.535 Y676.778 I-4 J0
X82.535 Y676.778 I4 J0
X82.035 Y677.278 I-0.5 J0
G1 X81.535 Y677.278
X81.344 Y677.278 Z-1.962
X81.182 Y677.278 Z-1.854
X81.073 Y677.278 Z-1.691
X81.035 Y677.278 Z-1.5
G0 Z5
X41.755 Y575.461
G1 X41.755 Y575.461 Z1 F333
X41.755 Y575.461 Z-1.5
X41.793 Y575.464 Z-1.691 F1000
X41.901 Y575.476 Z-1.854
X42.062 Y575.492 Z-1.962
X42.252 Y575.512 Z-2
X42.75 Y575.563
G3 X43.196 Y576.112 I-0.051 J0.497
X35.238 Y575.29 I-3.979 J-0.411
X43.196 Y576.112 I3.979 J0.411
X42.647 Y576.558 I-0.497 J-0.051
G1 X42.15 Y576.507
X41.959 Y576.487 Z-1.962
X41.798 Y576.47 Z-1.854
X41.69 Y576.459 Z-1.691
X41.652 Y576.455 Z-1.5
G0 Z5
X45.738 Y242.617
G1 X45.738 Y242.617 Z1 F333
X45.738 Y242.617 Z-1.5
X45.775 Y242.622 Z-1.691 F1000
X45.883 Y242.636 Z-1.854
X46.044 Y242.656 Z-1.962
X46.234 Y242.68 Z-2
X46.73 Y242.744
G3 X47.162 Y243.304 I-0.064 J0.496
X39.227 Y242.287 I-3.968 J-0.508
X47.162 Y243.304 I3.968 J0.508
X46.603 Y243.736 I-0.496 J-0.064
G1 X46.107 Y243.672
X45.917 Y243.648 Z-1.962
X45.756 Y243.627 Z-1.854
X45.648 Y243.614 Z-1.691
X45.611 Y243.609 Z-1.5
G0 Z5
X149.965 Y193.791
G1 X149.965 Y193.791 Z1 F333
X149.965 Y193.791 Z-1.5
X150.003 Y193.791 Z-1.691 F1000
X150.112 Y193.791 Z-1.854
X150.274 Y193.791 Z-1.962
X150.465 Y193.791 Z-2
X150.965 Y193.791
G3 X151.465 Y194.291 I0 J0.5
X143.465 Y194.291 I-4 J0
X151.465 Y194.291 I4 J0
X150.965 Y194.791 I-0.5 J0
G1 X150.465 Y194.791
X150.274 Y194.791 Z-1.962
X150.112 Y194.791 Z-1.854
X150.003 Y194.791 Z-1.691
X149.965 Y194.791 Z-1.5
G0 Z5
X140.026 Y40.92
G1 X140.026 Y40.92 Z1 F333
X140.026 Y40.92 Z-1.5
X140.064 Y40.92 Z-1.691 F1000
X140.173 Y40.92 Z-1.854
X140.335 Y40.92 Z-1.962
X140.526 Y40.92 Z-2
X141.026 Y40.92
G3 X141.526 Y41.42 I0 J0.5
X133.527 Y41.42 I-4 J0
X141.526 Y41.42 I4 J0
X141.026 Y41.92 I-0.5 J0
G1 X140.526 Y41.92
X140.335 Y41.92 Z-1.962
X140.173 Y41.92 Z-1.854
X140.064 Y41.92 Z-1.691
X140.026 Y41.92 Z-1.5
G0 Z5
X394.708 Y67.495
G1 X394.708 Y67.495 Z1 F333
X394.708 Y67.495 Z-1.5
X394.746 Y67.499 Z-1.691 F1000
X394.854 Y67.51 Z-1.854
X395.015 Y67.526 Z-1.962
X395.206 Y67.546 Z-2
X395.703 Y67.598
G3 X396.149 Y68.146 I-0.051 J0.497
X388.192 Y67.323 I-3.978 J-0.412
X396.149 Y68.146 I3.978 J0.412
X395.6 Y68.592 I-0.497 J-0.051
G1 X395.103 Y68.541
X394.913 Y68.521 Z-1.962
X394.751 Y68.504 Z-1.854
X394.643 Y68.493 Z-1.691
X394.605 Y68.489 Z-1.5
G0 Z5
X433.989 Y168.312
G1 X433.989 Y168.312 Z1 F333
X433.989 Y168.312 Z-1.5
X434.027 Y168.312 Z-1.691 F1000
X434.136 Y168.312 Z-1.854
X434.298 Y168.312 Z-1.962
X434.489 Y168.312 Z-2
X434.989 Y168.312
G3 X435.489 Y168.812 I0 J0.5
X427.489 Y168.812 I-4 J0
X435.489 Y168.812 I4 J0
X434.989 Y169.312 I-0.5 J0
G1 X434.489 Y169.312
X434.298 Y169.312 Z-1.962
X434.136 Y169.312 Z-1.854
X434.027 Y169.312 Z-1.691
X433.989 Y169.312 Z-1.5
G0 Z15


(Operation 11 of 13 : 2D Contour8)
G0 X129.123 Y442.033
Z15
Z5
G1 X129.123 Y442.033 Z1 F333
X129.123 Y442.033 Z-1
X129.156 Y442.015 Z-1.191 F1000
X129.251 Y441.962 Z-1.354
X129.393 Y441.884 Z-1.462
X129.561 Y441.792 Z-1.5
X129.999 Y441.551
G3 X130.678 Y441.747 I0.241 J0.438
G1 X158.659 Y492.551
G3 X158.462 Y493.23 I-0.438 J0.241
G1 X158.024 Y493.471
X157.856 Y493.564 Z-1.462
X157.714 Y493.642 Z-1.354
X157.619 Y493.694 Z-1.191
X157.586 Y493.713 Z-1
G0 Z5
X126.495 Y443.48
G1 X126.495 Y443.48 Z1 F333
X126.495 Y443.48 Z-1
X126.528 Y443.462 Z-1.191 F1000
X126.623 Y443.409 Z-1.354
X126.765 Y443.331 Z-1.462
X126.933 Y443.239 Z-1.5
X127.371 Y442.998
G3 X128.05 Y443.194 I0.241 J0.438
G1 X156.032 Y493.999
G3 X155.835 Y494.678 I-0.438 J0.241
G1 X155.397 Y494.919
X155.229 Y495.012 Z-1.462
X155.087 Y495.09 Z-1.354
X154.992 Y495.142 Z-1.191
X154.959 Y495.161 Z-1
G0 Z5
X123.867 Y444.928
G1 X123.867 Y444.928 Z1 F333
X123.867 Y444.928 Z-1
X123.9 Y444.91 Z-1.191 F1000
X123.995 Y444.858 Z-1.354
X124.137 Y444.779 Z-1.462
X124.305 Y444.687 Z-1.5
X124.743 Y444.446
G3 X125.422 Y444.642 I0.241 J0.438
G1 X151.956 Y492.818
X153.404 Y495.446
G3 X153.207 Y496.125 I-0.438 J0.241
G1 X152.769 Y496.366
X152.601 Y496.459 Z-1.462
X152.459 Y496.537 Z-1.354
X152.364 Y496.589 Z-1.191
X152.331 Y496.608 Z-1
G0 Z5
X121.239 Y446.375
G1 X121.239 Y446.375 Z1 F333
X121.239 Y446.375 Z-1
X121.272 Y446.357 Z-1.191 F1000
X121.367 Y446.305 Z-1.354
X121.509 Y446.226 Z-1.462
X121.677 Y446.134 Z-1.5
X122.115 Y445.893
G3 X122.794 Y446.089 I0.241 J0.438
G1 X149.328 Y494.265
X150.776 Y496.893
G3 X150.579 Y497.572 I-0.438 J0.241
G1 X150.141 Y497.813
X149.973 Y497.906 Z-1.462
X149.831 Y497.984 Z-1.354
X149.736 Y498.036 Z-1.191
X149.703 Y498.055 Z-1
G0 Z5
X118.612 Y447.822
G1 X118.612 Y447.822 Z1 F333
X118.612 Y447.822 Z-1
X118.645 Y447.804 Z-1.191 F1000
X118.74 Y447.751 Z-1.354
X118.882 Y447.673 Z-1.462
X119.05 Y447.581 Z-1.5
X119.488 Y447.34
G3 X120.167 Y447.536 I0.241 J0.438
G1 X148.148 Y498.341
G3 X147.951 Y499.02 I-0.438 J0.241
G1 X147.513 Y499.261
X147.345 Y499.354 Z-1.462
X147.203 Y499.432 Z-1.354
X147.108 Y499.484 Z-1.191
X147.075 Y499.503 Z-1
G0 Z5
X115.984 Y449.27
G1 X115.984 Y449.27 Z1 F333
X115.984 Y449.27 Z-1
X116.017 Y449.252 Z-1.191 F1000
X116.112 Y449.199 Z-1.354
X116.254 Y449.121 Z-1.462
X116.422 Y449.029 Z-1.5
X116.86 Y448.788
G3 X117.539 Y448.984 I0.241 J0.438
G1 X145.52 Y499.788
G3 X145.323 Y500.467 I-0.438 J0.241
G1 X144.885 Y500.708
X144.717 Y500.801 Z-1.462
X144.575 Y500.879 Z-1.354
X144.48 Y500.931 Z-1.191
X144.447 Y500.95 Z-1
G0 Z5
X113.356 Y450.717
G1 X113.356 Y450.717 Z1 F333
X113.356 Y450.717 Z-1
X113.389 Y450.699 Z-1.191 F1000
X113.484 Y450.647 Z-1.354
X113.626 Y450.568 Z-1.462
X113.794 Y450.476 Z-1.5
X114.232 Y450.235
G3 X114.911 Y450.431 I0.241 J0.438
G1 X141.445 Y498.607
X142.893 Y501.235
G3 X142.696 Y501.914 I-0.438 J0.241
G1 X142.258 Y502.155
X142.09 Y502.248 Z-1.462
X141.948 Y502.326 Z-1.354
X141.853 Y502.378 Z-1.191
X141.82 Y502.397 Z-1
G0 Z5
X110.728 Y452.164
G1 X110.728 Y452.164 Z1 F333
X110.728 Y452.164 Z-1
X110.761 Y452.146 Z-1.191 F1000
X110.856 Y452.093 Z-1.354
X110.998 Y452.015 Z-1.462
X111.166 Y451.923 Z-1.5
X111.604 Y451.682
G3 X112.283 Y451.878 I0.241 J0.438
G1 X138.817 Y500.055
X140.265 Y502.683
G3 X140.068 Y503.362 I-0.438 J0.241
G1 X139.63 Y503.603
X139.462 Y503.696 Z-1.462
X139.32 Y503.774 Z-1.354
X139.225 Y503.826 Z-1.191
X139.192 Y503.845 Z-1
G0 Z5
X108.1 Y453.611
G1 X108.1 Y453.611 Z1 F333
X108.1 Y453.611 Z-1
X108.133 Y453.593 Z-1.191 F1000
X108.228 Y453.54 Z-1.354
X108.37 Y453.462 Z-1.462
X108.538 Y453.37 Z-1.5
X108.976 Y453.129
G3 X109.655 Y453.325 I0.241 J0.438
G1 X136.189 Y501.502
X137.637 Y504.13
G3 X137.44 Y504.809 I-0.438 J0.241
G1 X137.002 Y505.05
X136.834 Y505.143 Z-1.462
X136.692 Y505.221 Z-1.354
X136.597 Y505.273 Z-1.191
X136.564 Y505.292 Z-1
G0 Z5
X105.473 Y455.059
G1 X105.473 Y455.059 Z1 F333
X105.473 Y455.059 Z-1
X105.506 Y455.041 Z-1.191 F1000
X105.601 Y454.988 Z-1.354
X105.743 Y454.91 Z-1.462
X105.911 Y454.818 Z-1.5
X106.349 Y454.577
G3 X107.028 Y454.773 I0.241 J0.438
G1 X135.009 Y505.577
G3 X134.812 Y506.256 I-0.438 J0.241
G1 X134.374 Y506.497
X134.206 Y506.59 Z-1.462
X134.064 Y506.668 Z-1.354
X133.969 Y506.72 Z-1.191
X133.936 Y506.739 Z-1
G0 Z5
X102.845 Y456.506
G1 X102.845 Y456.506 Z1 F333
X102.845 Y456.506 Z-1
X102.878 Y456.488 Z-1.191 F1000
X102.973 Y456.435 Z-1.354
X103.115 Y456.357 Z-1.462
X103.283 Y456.265 Z-1.5
X103.721 Y456.024
G3 X104.4 Y456.22 I0.241 J0.438
G1 X132.381 Y507.025
G3 X132.184 Y507.704 I-0.438 J0.241
G1 X131.746 Y507.945
X131.578 Y508.038 Z-1.462
X131.436 Y508.116 Z-1.354
X131.341 Y508.168 Z-1.191
X131.308 Y508.187 Z-1
G0 Z5
X100.217 Y457.953
G1 X100.217 Y457.953 Z1 F333
X100.217 Y457.953 Z-1
X100.25 Y457.935 Z-1.191 F1000
X100.345 Y457.882 Z-1.354
X100.487 Y457.804 Z-1.462
X100.655 Y457.712 Z-1.5
X101.093 Y457.471
G3 X101.772 Y457.667 I0.241 J0.438
G1 X128.306 Y505.844
X129.754 Y508.472
G3 X129.557 Y509.151 I-0.438 J0.241
G1 X129.119 Y509.392
X128.951 Y509.485 Z-1.462
X128.809 Y509.563 Z-1.354
X128.714 Y509.615 Z-1.191
X128.681 Y509.634 Z-1
G0 Z5
X97.589 Y459.401
G1 X97.589 Y459.401 Z1 F333
X97.589 Y459.401 Z-1
X97.622 Y459.383 Z-1.191 F1000
X97.717 Y459.331 Z-1.354
X97.859 Y459.252 Z-1.462
X98.027 Y459.16 Z-1.5
X98.465 Y458.919
G3 X99.144 Y459.115 I0.241 J0.438
G1 X127.126 Y509.919
G3 X126.929 Y510.598 I-0.438 J0.241
G1 X126.491 Y510.839
X126.323 Y510.932 Z-1.462
X126.181 Y511.01 Z-1.354
X126.086 Y511.062 Z-1.191
X126.053 Y511.081 Z-1
G0 Z5
X94.961 Y460.848
G1 X94.961 Y460.848 Z1 F333
X94.961 Y460.848 Z-1
X94.995 Y460.83 Z-1.191 F1000
X95.09 Y460.777 Z-1.354
X95.232 Y460.699 Z-1.462
X95.399 Y460.607 Z-1.5
X95.837 Y460.366
G3 X96.516 Y460.562 I0.241 J0.438
G1 X124.498 Y511.366
G3 X124.301 Y512.045 I-0.438 J0.241
G1 X123.863 Y512.286
X123.695 Y512.379 Z-1.462
X123.553 Y512.457 Z-1.354
X123.458 Y512.509 Z-1.191
X123.425 Y512.528 Z-1
G0 Z5
X92.334 Y462.295
G1 X92.334 Y462.295 Z1 F333
X92.334 Y462.295 Z-1
X92.367 Y462.277 Z-1.191 F1000
X92.462 Y462.224 Z-1.354
X92.604 Y462.146 Z-1.462
X92.772 Y462.054 Z-1.5
X93.21 Y461.813
G3 X93.889 Y462.009 I0.241 J0.438
G1 X121.87 Y512.814
G3 X121.673 Y513.493 I-0.438 J0.241
G1 X121.235 Y513.734
X121.067 Y513.827 Z-1.462
X120.925 Y513.905 Z-1.354
X120.83 Y513.957 Z-1.191
X120.797 Y513.976 Z-1
G0 Z5
X89.706 Y463.743
G1 X89.706 Y463.743 Z1 F333
X89.706 Y463.743 Z-1
X89.739 Y463.725 Z-1.191 F1000
X89.834 Y463.672 Z-1.354
X89.976 Y463.594 Z-1.462
X90.144 Y463.502 Z-1.5
X90.582 Y463.261
G3 X91.261 Y463.457 I0.241 J0.438
G1 X119.242 Y514.261
G3 X119.045 Y514.94 I-0.438 J0.241
G1 X118.607 Y515.181
X118.439 Y515.274 Z-1.462
X118.297 Y515.352 Z-1.354
X118.202 Y515.404 Z-1.191
X118.169 Y515.423 Z-1
G0 Z5
X87.078 Y465.19
G1 X87.078 Y465.19 Z1 F333
X87.078 Y465.19 Z-1
X87.111 Y465.172 Z-1.191 F1000
X87.206 Y465.12 Z-1.354
X87.348 Y465.041 Z-1.462
X87.516 Y464.949 Z-1.5
X87.954 Y464.708
G3 X88.633 Y464.904 I0.241 J0.438
G1 X115.167 Y513.08
X116.615 Y515.708
G3 X116.418 Y516.387 I-0.438 J0.241
G1 X115.98 Y516.628
X115.812 Y516.721 Z-1.462
X115.67 Y516.799 Z-1.354
X115.575 Y516.851 Z-1.191
X115.542 Y516.87 Z-1
G0 Z5
X84.45 Y466.637
G1 X84.45 Y466.637 Z1 F333
X84.45 Y466.637 Z-1
X84.484 Y466.619 Z-1.191 F1000
X84.578 Y466.566 Z-1.354
X84.721 Y466.488 Z-1.462
X84.888 Y466.396 Z-1.5
X85.326 Y466.155
G3 X86.005 Y466.351 I0.241 J0.438
G1 X113.987 Y517.156
G3 X113.79 Y517.835 I-0.438 J0.241
G1 X113.352 Y518.076
X113.184 Y518.169 Z-1.462
X113.042 Y518.247 Z-1.354
X112.947 Y518.299 Z-1.191
X112.914 Y518.318 Z-1
G0 Z5
X81.822 Y468.085
G1 X81.822 Y468.085 Z1 F333
X81.822 Y468.085 Z-1
X81.856 Y468.067 Z-1.191 F1000
X81.951 Y468.014 Z-1.354
X82.093 Y467.936 Z-1.462
X82.26 Y467.844 Z-1.5
X82.698 Y467.603
G3 X83.377 Y467.799 I0.241 J0.438
G1 X111.359 Y518.603
G3 X111.162 Y519.282 I-0.438 J0.241
G1 X110.724 Y519.523
X110.556 Y519.616 Z-1.462
X110.414 Y519.694 Z-1.354
X110.319 Y519.746 Z-1.191
X110.286 Y519.765 Z-1
G0 Z5
X79.195 Y469.532
G1 X79.195 Y469.532 Z1 F333
X79.195 Y469.532 Z-1
X79.228 Y469.514 Z-1.191 F1000
X79.323 Y469.461 Z-1.354
X79.465 Y469.383 Z-1.462
X79.633 Y469.291 Z-1.5
X80.071 Y469.05
G3 X80.75 Y469.246 I0.241 J0.438
G1 X108.731 Y520.05
G3 X108.534 Y520.729 I-0.438 J0.241
G1 X108.096 Y520.97
X107.928 Y521.063 Z-1.462
X107.786 Y521.141 Z-1.354
X107.691 Y521.193 Z-1.191
X107.658 Y521.212 Z-1
G0 Z5
X76.567 Y470.979
G1 X76.567 Y470.979 Z1 F333
X76.567 Y470.979 Z-1
X76.6 Y470.961 Z-1.191 F1000
X76.695 Y470.908 Z-1.354
X76.837 Y470.83 Z-1.462
X77.005 Y470.738 Z-1.5
X77.443 Y470.497
G3 X78.122 Y470.693 I0.241 J0.438
G1 X106.103 Y521.498
G3 X105.906 Y522.177 I-0.438 J0.241
G1 X105.468 Y522.418
X105.3 Y522.511 Z-1.462
X105.158 Y522.589 Z-1.354
X105.063 Y522.641 Z-1.191
X105.03 Y522.66 Z-1
G0 Z5
X73.939 Y472.426
G1 X73.939 Y472.426 Z1 F333
X73.939 Y472.426 Z-1
X73.972 Y472.408 Z-1.191 F1000
X74.067 Y472.355 Z-1.354
X74.209 Y472.277 Z-1.462
X74.377 Y472.185 Z-1.5
X74.815 Y471.944
G3 X75.494 Y472.14 I0.241 J0.438
G1 X103.476 Y522.945
G3 X103.279 Y523.624 I-0.438 J0.241
G1 X102.841 Y523.865
X102.673 Y523.958 Z-1.462
X102.531 Y524.036 Z-1.354
X102.436 Y524.088 Z-1.191
X102.403 Y524.107 Z-1
G0 Z5
X71.311 Y473.874
G1 X71.311 Y473.874 Z1 F333
X71.311 Y473.874 Z-1
X71.345 Y473.856 Z-1.191 F1000
X71.44 Y473.803 Z-1.354
X71.582 Y473.725 Z-1.462
X71.749 Y473.633 Z-1.5
X72.187 Y473.392
G3 X72.866 Y473.588 I0.241 J0.438
G1 X100.848 Y524.392
G3 X100.651 Y525.071 I-0.438 J0.241
G1 X100.213 Y525.312
X100.045 Y525.405 Z-1.462
X99.903 Y525.483 Z-1.354
X99.808 Y525.535 Z-1.191
X99.775 Y525.554 Z-1
G0 Z5
X68.684 Y475.321
G1 X68.684 Y475.321 Z1 F333
X68.684 Y475.321 Z-1
X68.717 Y475.303 Z-1.191 F1000
X68.812 Y475.25 Z-1.354
X68.954 Y475.172 Z-1.462
X69.121 Y475.08 Z-1.5
X69.559 Y474.839
G3 X70.239 Y475.035 I0.241 J0.438
G1 X96.773 Y523.212
X98.22 Y525.84
G3 X98.023 Y526.519 I-0.438 J0.241
G1 X97.585 Y526.76
X97.417 Y526.853 Z-1.462
X97.275 Y526.931 Z-1.354
X97.18 Y526.983 Z-1.191
X97.147 Y527.002 Z-1
G0 Z5
X66.056 Y476.768
G1 X66.056 Y476.768 Z1 F333
X66.056 Y476.768 Z-1
X66.089 Y476.75 Z-1.191 F1000
X66.184 Y476.697 Z-1.354
X66.326 Y476.619 Z-1.462
X66.494 Y476.527 Z-1.5
X66.932 Y476.286
G3 X67.611 Y476.482 I0.241 J0.438
G1 X94.145 Y524.659
X95.592 Y527.287
G3 X95.395 Y527.966 I-0.438 J0.241
G1 X94.957 Y528.207
X94.79 Y528.3 Z-1.462
X94.648 Y528.378 Z-1.354
X94.553 Y528.43 Z-1.191
X94.519 Y528.449 Z-1
G0 Z5
X341.583 Y302.48
G1 X341.583 Y302.48 Z1 F333
X341.583 Y302.48 Z-1
X341.55 Y302.498 Z-1.191 F1000
X341.455 Y302.55 Z-1.354
X341.313 Y302.629 Z-1.462
X341.145 Y302.721 Z-1.5
X340.707 Y302.962
G3 X340.028 Y302.766 I-0.241 J-0.438
G1 X313.494 Y254.59
X312.046 Y251.962
G3 X312.243 Y251.283 I0.438 J-0.241
G1 X312.681 Y251.042
X312.849 Y250.949 Z-1.462
X312.991 Y250.871 Z-1.354
X313.086 Y250.819 Z-1.191
X313.119 Y250.8 Z-1
G0 Z5
X344.211 Y301.033
G1 X344.211 Y301.033 Z1 F333
X344.211 Y301.033 Z-1
X344.178 Y301.051 Z-1.191 F1000
X344.083 Y301.104 Z-1.354
X343.941 Y301.182 Z-1.462
X343.773 Y301.274 Z-1.5
X343.335 Y301.515
G3 X342.656 Y301.319 I-0.241 J-0.438
G1 X314.674 Y250.514
G3 X314.871 Y249.835 I0.438 J-0.241
G1 X315.309 Y249.594
X315.477 Y249.501 Z-1.462
X315.619 Y249.423 Z-1.354
X315.714 Y249.371 Z-1.191
X315.747 Y249.352 Z-1
G0 Z5
X346.839 Y299.586
G1 X346.839 Y299.586 Z1 F333
X346.839 Y299.586 Z-1
X346.806 Y299.604 Z-1.191 F1000
X346.711 Y299.657 Z-1.354
X346.569 Y299.735 Z-1.462
X346.401 Y299.827 Z-1.5
X345.963 Y300.068
G3 X345.284 Y299.872 I-0.241 J-0.438
G1 X317.302 Y249.067
G3 X317.499 Y248.388 I0.438 J-0.241
G1 X317.937 Y248.147
X318.105 Y248.054 Z-1.462
X318.247 Y247.976 Z-1.354
X318.342 Y247.924 Z-1.191
X318.375 Y247.905 Z-1
G0 Z5
X349.466 Y298.138
G1 X349.466 Y298.138 Z1 F333
X349.466 Y298.138 Z-1
X349.433 Y298.156 Z-1.191 F1000
X349.338 Y298.209 Z-1.354
X349.196 Y298.287 Z-1.462
X349.028 Y298.379 Z-1.5
X348.59 Y298.62
G3 X347.911 Y298.424 I-0.241 J-0.438
G1 X319.93 Y247.62
G3 X320.127 Y246.941 I0.438 J-0.241
G1 X320.565 Y246.7
X320.733 Y246.607 Z-1.462
X320.875 Y246.529 Z-1.354
X320.97 Y246.477 Z-1.191
X321.003 Y246.458 Z-1
G0 Z5
X352.094 Y296.691
G1 X352.094 Y296.691 Z1 F333
X352.094 Y296.691 Z-1
X352.061 Y296.709 Z-1.191 F1000
X351.966 Y296.762 Z-1.354
X351.824 Y296.84 Z-1.462
X351.656 Y296.932 Z-1.5
X351.218 Y297.173
G3 X350.539 Y296.977 I-0.241 J-0.438
G1 X322.558 Y246.172
G3 X322.755 Y245.493 I0.438 J-0.241
G1 X323.193 Y245.252
X323.361 Y245.159 Z-1.462
X323.503 Y245.081 Z-1.354
X323.598 Y245.029 Z-1.191
X323.631 Y245.01 Z-1
G0 Z5
X354.722 Y295.244
G1 X354.722 Y295.244 Z1 F333
X354.722 Y295.244 Z-1
X354.689 Y295.262 Z-1.191 F1000
X354.594 Y295.315 Z-1.354
X354.452 Y295.393 Z-1.462
X354.284 Y295.485 Z-1.5
X353.846 Y295.726
G3 X353.167 Y295.53 I-0.241 J-0.438
G1 X325.185 Y244.725
G3 X325.382 Y244.046 I0.438 J-0.241
G1 X325.82 Y243.805
X325.988 Y243.712 Z-1.462
X326.13 Y243.634 Z-1.354
X326.225 Y243.582 Z-1.191
X326.258 Y243.563 Z-1
G0 Z5
X357.35 Y293.796
G1 X357.35 Y293.796 Z1 F333
X357.35 Y293.796 Z-1
X357.317 Y293.814 Z-1.191 F1000
X357.222 Y293.866 Z-1.354
X357.08 Y293.945 Z-1.462
X356.912 Y294.037 Z-1.5
X356.474 Y294.278
G3 X355.795 Y294.082 I-0.241 J-0.438
G1 X329.261 Y245.906
X327.813 Y243.278
G3 X328.01 Y242.599 I0.438 J-0.241
G1 X328.448 Y242.358
X328.616 Y242.265 Z-1.462
X328.758 Y242.187 Z-1.354
X328.853 Y242.135 Z-1.191
X328.886 Y242.116 Z-1
G0 Z5
X359.978 Y292.349
G1 X359.978 Y292.349 Z1 F333
X359.978 Y292.349 Z-1
X359.945 Y292.367 Z-1.191 F1000
X359.85 Y292.419 Z-1.354
X359.708 Y292.498 Z-1.462
X359.54 Y292.59 Z-1.5
X359.102 Y292.831
G3 X358.423 Y292.635 I-0.241 J-0.438
G1 X331.889 Y244.459
X330.441 Y241.831
G3 X330.638 Y241.152 I0.438 J-0.241
G1 X331.076 Y240.911
X331.244 Y240.818 Z-1.462
X331.386 Y240.74 Z-1.354
X331.481 Y240.688 Z-1.191
X331.514 Y240.669 Z-1
G0 Z5
X362.605 Y290.902
G1 X362.605 Y290.902 Z1 F333
X362.605 Y290.902 Z-1
X362.572 Y290.92 Z-1.191 F1000
X362.477 Y290.973 Z-1.354
X362.335 Y291.051 Z-1.462
X362.167 Y291.143 Z-1.5
X361.729 Y291.384
G3 X361.05 Y291.188 I-0.241 J-0.438
G1 X333.069 Y240.383
G3 X333.266 Y239.704 I0.438 J-0.241
G1 X333.704 Y239.463
X333.872 Y239.37 Z-1.462
X334.014 Y239.292 Z-1.354
X334.109 Y239.24 Z-1.191
X334.142 Y239.221 Z-1
G0 Z5
X365.233 Y289.454
G1 X365.233 Y289.454 Z1 F333
X365.233 Y289.454 Z-1
X365.2 Y289.472 Z-1.191 F1000
X365.105 Y289.525 Z-1.354
X364.963 Y289.603 Z-1.462
X364.795 Y289.695 Z-1.5
X364.357 Y289.936
G3 X363.678 Y289.74 I-0.241 J-0.438
G1 X335.697 Y238.936
G3 X335.894 Y238.257 I0.438 J-0.241
G1 X336.332 Y238.016
X336.5 Y237.923 Z-1.462
X336.642 Y237.845 Z-1.354
X336.737 Y237.793 Z-1.191
X336.77 Y237.774 Z-1
G0 Z5
X367.861 Y288.007
G1 X367.861 Y288.007 Z1 F333
X367.861 Y288.007 Z-1
X367.828 Y288.025 Z-1.191 F1000
X367.733 Y288.077 Z-1.354
X367.591 Y288.156 Z-1.462
X367.423 Y288.248 Z-1.5
X366.985 Y288.489
G3 X366.306 Y288.293 I-0.241 J-0.438
G1 X339.772 Y240.117
X338.324 Y237.489
G3 X338.521 Y236.81 I0.438 J-0.241
G1 X338.959 Y236.569
X339.127 Y236.476 Z-1.462
X339.269 Y236.398 Z-1.354
X339.364 Y236.346 Z-1.191
X339.397 Y236.327 Z-1
G0 Z5
X370.489 Y286.56
G1 X370.489 Y286.56 Z1 F333
X370.489 Y286.56 Z-1
X370.456 Y286.578 Z-1.191 F1000
X370.361 Y286.631 Z-1.354
X370.219 Y286.709 Z-1.462
X370.051 Y286.801 Z-1.5
X369.613 Y287.042
G3 X368.934 Y286.846 I-0.241 J-0.438
G1 X340.952 Y236.041
G3 X341.149 Y235.362 I0.438 J-0.241
G1 X341.587 Y235.121
X341.755 Y235.028 Z-1.462
X341.897 Y234.95 Z-1.354
X341.992 Y234.898 Z-1.191
X342.025 Y234.879 Z-1
G0 Z5
X373.117 Y285.112
G1 X373.117 Y285.112 Z1 F333
X373.117 Y285.112 Z-1
X373.084 Y285.13 Z-1.191 F1000
X372.989 Y285.182 Z-1.354
X372.847 Y285.261 Z-1.462
X372.679 Y285.353 Z-1.5
X372.241 Y285.594
G3 X371.562 Y285.398 I-0.241 J-0.438
G1 X345.028 Y237.222
X343.58 Y234.594
G3 X343.777 Y233.915 I0.438 J-0.241
G1 X344.215 Y233.674
X344.383 Y233.581 Z-1.462
X344.525 Y233.503 Z-1.354
X344.62 Y233.451 Z-1.191
X344.653 Y233.432 Z-1
G0 Z5
X375.744 Y283.665
G1 X375.744 Y283.665 Z1 F333
X375.744 Y283.665 Z-1
X375.711 Y283.683 Z-1.191 F1000
X375.616 Y283.736 Z-1.354
X375.474 Y283.814 Z-1.462
X375.306 Y283.906 Z-1.5
X374.868 Y284.147
G3 X374.189 Y283.951 I-0.241 J-0.438
G1 X346.208 Y233.147
G3 X346.405 Y232.468 I0.438 J-0.241
G1 X346.843 Y232.227
X347.011 Y232.134 Z-1.462
X347.153 Y232.056 Z-1.354
X347.248 Y232.004 Z-1.191
X347.281 Y231.985 Z-1
G0 Z5
X378.372 Y282.218
G1 X378.372 Y282.218 Z1 F333
X378.372 Y282.218 Z-1
X378.339 Y282.236 Z-1.191 F1000
X378.244 Y282.289 Z-1.354
X378.102 Y282.367 Z-1.462
X377.934 Y282.459 Z-1.5
X377.496 Y282.7
G3 X376.817 Y282.504 I-0.241 J-0.438
G1 X348.836 Y231.699
G3 X349.033 Y231.02 I0.438 J-0.241
G1 X349.471 Y230.779
X349.639 Y230.686 Z-1.462
X349.781 Y230.608 Z-1.354
X349.876 Y230.556 Z-1.191
X349.909 Y230.537 Z-1
G0 Z5
X381 Y280.771
G1 X381 Y280.771 Z1 F333
X381 Y280.771 Z-1
X380.967 Y280.789 Z-1.191 F1000
X380.872 Y280.842 Z-1.354
X380.73 Y280.92 Z-1.462
X380.562 Y281.012 Z-1.5
X380.124 Y281.253
G3 X379.445 Y281.057 I-0.241 J-0.438
G1 X351.463 Y230.252
G3 X351.66 Y229.573 I0.438 J-0.241
G1 X352.098 Y229.332
X352.266 Y229.239 Z-1.462
X352.408 Y229.161 Z-1.354
X352.503 Y229.109 Z-1.191
X352.536 Y229.09 Z-1
G0 Z5
X383.628 Y279.323
G1 X383.628 Y279.323 Z1 F333
X383.628 Y279.323 Z-1
X383.595 Y279.341 Z-1.191 F1000
X383.5 Y279.393 Z-1.354
X383.358 Y279.472 Z-1.462
X383.19 Y279.564 Z-1.5
X382.752 Y279.805
G3 X382.073 Y279.609 I-0.241 J-0.438
G1 X355.539 Y231.433
X354.091 Y228.805
G3 X354.288 Y228.126 I0.438 J-0.241
G1 X354.726 Y227.885
X354.894 Y227.792 Z-1.462
X355.036 Y227.714 Z-1.354
X355.131 Y227.662 Z-1.191
X355.164 Y227.643 Z-1
G0 Z5
X386.256 Y277.876
G1 X386.256 Y277.876 Z1 F333
X386.256 Y277.876 Z-1
X386.223 Y277.894 Z-1.191 F1000
X386.128 Y277.947 Z-1.354
X385.986 Y278.025 Z-1.462
X385.818 Y278.117 Z-1.5
X385.38 Y278.358
G3 X384.701 Y278.162 I-0.241 J-0.438
G1 X356.719 Y227.357
G3 X356.916 Y226.678 I0.438 J-0.241
G1 X357.354 Y226.437
X357.522 Y226.344 Z-1.462
X357.664 Y226.266 Z-1.354
X357.759 Y226.214 Z-1.191
X357.792 Y226.195 Z-1
G0 Z5
X388.883 Y276.429
G1 X388.883 Y276.429 Z1 F333
X388.883 Y276.429 Z-1
X388.85 Y276.447 Z-1.191 F1000
X388.755 Y276.5 Z-1.354
X388.613 Y276.578 Z-1.462
X388.445 Y276.67 Z-1.5
X388.007 Y276.911
G3 X387.328 Y276.715 I-0.241 J-0.438
G1 X359.347 Y225.91
G3 X359.544 Y225.231 I0.438 J-0.241
G1 X359.982 Y224.99
X360.15 Y224.897 Z-1.462
X360.292 Y224.819 Z-1.354
X360.387 Y224.767 Z-1.191
X360.42 Y224.748 Z-1
G0 Z5
X391.511 Y274.981
G1 X391.511 Y274.981 Z1 F333
X391.511 Y274.981 Z-1
X391.478 Y274.999 Z-1.191 F1000
X391.383 Y275.052 Z-1.354
X391.241 Y275.13 Z-1.462
X391.073 Y275.222 Z-1.5
X390.635 Y275.463
G3 X389.956 Y275.267 I-0.241 J-0.438
G1 X361.975 Y224.463
G3 X362.172 Y223.784 I0.438 J-0.241
G1 X362.61 Y223.543
X362.778 Y223.45 Z-1.462
X362.92 Y223.372 Z-1.354
X363.015 Y223.32 Z-1.191
X363.048 Y223.301 Z-1
G0 Z5
X394.139 Y273.534
G1 X394.139 Y273.534 Z1 F333
X394.139 Y273.534 Z-1
X394.106 Y273.552 Z-1.191 F1000
X394.011 Y273.604 Z-1.354
X393.869 Y273.683 Z-1.462
X393.701 Y273.775 Z-1.5
X393.263 Y274.016
G3 X392.584 Y273.82 I-0.241 J-0.438
G1 X366.05 Y225.644
X364.602 Y223.016
G3 X364.799 Y222.337 I0.438 J-0.241
G1 X365.237 Y222.096
X365.405 Y222.003 Z-1.462
X365.547 Y221.925 Z-1.354
X365.642 Y221.873 Z-1.191
X365.675 Y221.854 Z-1
G0 Z5
X396.767 Y272.087
G1 X396.767 Y272.087 Z1 F333
X396.767 Y272.087 Z-1
X396.734 Y272.105 Z-1.191 F1000
X396.639 Y272.158 Z-1.354
X396.497 Y272.236 Z-1.462
X396.329 Y272.328 Z-1.5
X395.891 Y272.569
G3 X395.212 Y272.373 I-0.241 J-0.438
G1 X367.23 Y221.568
G3 X367.427 Y220.889 I0.438 J-0.241
G1 X367.865 Y220.648
X368.033 Y220.555 Z-1.462
X368.175 Y220.477 Z-1.354
X368.27 Y220.425 Z-1.191
X368.303 Y220.406 Z-1
G0 Z5
X399.395 Y270.639
G1 X399.395 Y270.639 Z1 F333
X399.395 Y270.639 Z-1
X399.362 Y270.657 Z-1.191 F1000
X399.267 Y270.709 Z-1.354
X399.125 Y270.788 Z-1.462
X398.957 Y270.88 Z-1.5
X398.519 Y271.121
G3 X397.84 Y270.925 I-0.241 J-0.438
G1 X371.306 Y222.749
X369.858 Y220.121
G3 X370.055 Y219.442 I0.438 J-0.241
G1 X370.493 Y219.201
X370.661 Y219.108 Z-1.462
X370.803 Y219.03 Z-1.354
X370.898 Y218.978 Z-1.191
X370.931 Y218.959 Z-1
G0 Z5
X402.022 Y269.192
G1 X402.022 Y269.192 Z1 F333
X402.022 Y269.192 Z-1
X401.989 Y269.21 Z-1.191 F1000
X401.894 Y269.263 Z-1.354
X401.752 Y269.341 Z-1.462
X401.584 Y269.433 Z-1.5
X401.146 Y269.674
G3 X400.467 Y269.478 I-0.241 J-0.438
G1 X372.486 Y218.674
G3 X372.683 Y217.995 I0.438 J-0.241
G1 X373.121 Y217.754
X373.289 Y217.661 Z-1.462
X373.431 Y217.583 Z-1.354
X373.526 Y217.531 Z-1.191
X373.559 Y217.512 Z-1
G0 Z5
X404.65 Y267.745
G1 X404.65 Y267.745 Z1 F333
X404.65 Y267.745 Z-1
X404.617 Y267.763 Z-1.191 F1000
X404.522 Y267.816 Z-1.354
X404.38 Y267.894 Z-1.462
X404.212 Y267.986 Z-1.5
X403.774 Y268.227
G3 X403.095 Y268.031 I-0.241 J-0.438
G1 X375.113 Y217.226
G3 X375.31 Y216.547 I0.438 J-0.241
G1 X375.748 Y216.306
X375.916 Y216.213 Z-1.462
X376.058 Y216.135 Z-1.354
X376.153 Y216.083 Z-1.191
X376.186 Y216.064 Z-1
G0 Z15


G53 G0 Z-10
M5
G0 X-10 Y-10
M30
