(Made in : Autodesk CAM Post Processor)
(G Code optimized for controller)
(OpenBuilds CNC : GRBL BlackBox)
(Post Processor : OpenbuildsFusion360PostGrbl.cps V1.0.27)
(Units = mm)

(Drawing name : Ilharga Esq v5)
(Program Name : 1001)
(Program Comments : Ilharga Esq)

(13 Operations in 5 files.)
(File List:)
( 1001 Ilharga.gcode)
( 1001 Ilharga.02of5.gcode)
( 1001 Ilharga.03of5.gcode)
( 1001 Ilharga.04of5.gcode)
( 1001 Ilharga.05of5.gcode)

(This is file: 2 of 5)

(This file contains the following operations: )
(9 : 2D Contour4)
( Work Coordinate System : G54)
( Tool 2: Slot Mill 4 Flutes, Diam = 23mm, Len = 2.80mm)
( Spindle : RPM = 12000, set router dial to 2.0)
( Machining time : 1 min 57 sec)

(Remaining operations located in additional files.)

G90 G94 G17
G21


(Operation 9 of 13 : 2D Contour4)
G54
G53 G0 Z-10
S12000 M3
G4 P1.8
G0 X69.41 Y-7.135
Z15
Z5
G1 X69.41 Y-7.135 Z1 F333
X69.41 Y-7.135 Z-8.6
X69.443 Y-7.122 Z-8.999 F1000
X69.539 Y-7.082 Z-9.387
X69.695 Y-7.018 Z-9.75
X69.908 Y-6.93 Z-10.078
X70.17 Y-6.823 Z-10.362
X70.474 Y-6.698 Z-10.592
X70.81 Y-6.56 Z-10.761
X71.168 Y-6.413 Z-10.865
X71.538 Y-6.261 Z-10.9
X73.666 Y-5.388
G3 X74.92 Y-2.387 I-0.874 J2.128
G1 X36.898 Y90.217
G2 X48.421 Y114.878 I17.114 J7.026
G1 X163.501 Y151.36
G3 X182.605 Y161.821 I-17.074 J53.858
X256.822 Y470.635 I-170.267 J204.245
G2 X256.841 Y481.297 I12.412 J5.309
G1 X290.227 Y558.637
G2 X328.413 Y573.183 I26.166 J-11.295
G1 X460.552 Y511.715
X474.153 Y505.388
G3 X477.208 Y506.504 I0.97 J2.085
G1 X478.178 Y508.589
X478.347 Y508.951 Z-10.865
X478.51 Y509.302 Z-10.761
X478.664 Y509.632 Z-10.592
X478.802 Y509.93 Z-10.362
X478.922 Y510.187 Z-10.078
X479.019 Y510.395 Z-9.75
X479.09 Y510.549 Z-9.387
X479.134 Y510.643 Z-8.999
X479.149 Y510.675 Z-8.6
G0 Z5
X401.295 Y751.648
G1 X401.295 Y751.648 Z1 F333
X401.295 Y751.648 Z-8.6
X401.263 Y751.635 Z-8.999 F1000
X401.167 Y751.595 Z-9.387
X401.01 Y751.531 Z-9.75
X400.798 Y751.444 Z-10.078
X400.535 Y751.336 Z-10.362
X400.232 Y751.211 Z-10.592
X399.895 Y751.073 Z-10.761
X399.537 Y750.926 Z-10.865
X399.168 Y750.775 Z-10.9
X397.04 Y749.901
G3 X395.786 Y746.9 I0.874 J-2.128
G1 X433.807 Y654.296
G2 X422.284 Y629.635 I-17.113 J-7.026
G1 X307.204 Y593.153
G3 X288.1 Y582.692 I17.074 J-53.858
X213.884 Y273.878 I170.268 J-204.244
G1 X213.886 Y273.876
G2 X213.866 Y263.218 I-12.414 J-5.306
G1 X180.479 Y185.876
G2 X142.293 Y171.33 I-26.166 J11.295
G1 X10.153 Y232.798
X-3.447 Y239.125
G3 X-6.503 Y238.009 I-0.97 J-2.085
G1 X-7.473 Y235.924
X-7.641 Y235.562 Z-10.865
X-7.805 Y235.211 Z-10.761
X-7.958 Y234.881 Z-10.592
X-8.096 Y234.583 Z-10.362
X-8.216 Y234.326 Z-10.078
X-8.313 Y234.118 Z-9.75
X-8.384 Y233.964 Z-9.387
X-8.428 Y233.87 Z-8.999
X-8.443 Y233.838 Z-8.6
G0 Z15


G53 G0 Z-10
M5
G0 X-10 Y-10
M30
