(1001)
(Ilharga Esq)
(Machine)
(  vendor: OpenBuilds)
(  model: WorkBee 3-axis)
(  description: Machine has YXZ axis on the Head)
N10 G21
N11 G90

G53 G0 Z90

(2D Contorno)
N12 G54
N13 G0 X415.170 Y533.378 Z24.500
N14 G0 X415.170 Y533.378 Z24.500
N15 G0 X415.170 Y533.378 Z14.500
N16 G1 X415.170 Y533.378 Z12.500 F333.3
N17 G1 X415.167 Y533.371 Z12.413 F1000
N18 G1 X415.157 Y533.350 Z12.329 F1000
N19 G1 X415.142 Y533.317 Z12.250 F1000
N20 G1 X415.121 Y533.271 Z12.179 F1000
N21 G1 X415.095 Y533.216 Z12.117 F1000
N22 G1 X415.065 Y533.151 Z12.067 F1000
N23 G1 X415.031 Y533.079 Z12.030 F1000
N24 G1 X414.996 Y533.003 Z12.008 F1000
N25 G1 X414.959 Y532.924 Z12.000 F1000
N26 G1 X414.748 Y532.471 Z12.000 F1000
N27 G3 X414.991 Y531.807 Z12.000 I0.453 J-0.211 F1000
N28 G1 X456.760 Y512.377 Z10.391 F333.3
N29 G2 X458.206 Y510.109 Z10.292 I-1.054 J-2.267 F333.3
N30 G1 X458.150 Y372.880 Z5.500 F333.3
N31 G1 X458.020 Y54.677 Z5.500 F1000
N32 G2 X455.777 Y52.191 Z5.500 I-2.500 J0.001 F1000
N33 G1 X71.821 Y12.513 Z5.500 F1000
N34 G2 X69.252 Y14.050 Z5.500 I-0.257 J2.487 F1000
N35 G1 X37.823 Y90.597 Z5.500 F1000
N36 G2 X48.724 Y113.925 Z5.500 I16.189 J6.647 F1000
N37 G1 X163.803 Y150.407 Z5.500 F1000
N38 G3 X183.246 Y161.053 Z5.500 I-17.377 J54.812 F1000
N39 G3 X257.741 Y471.028 Z5.500 I-170.908 J205.013 F1000
N40 G2 X257.758 Y480.898 Z5.500 I11.493 J4.916 F1000
N41 G1 X291.145 Y558.241 Z5.500 F1000
N42 G2 X327.991 Y572.276 Z5.500 I25.248 J-10.899 F1000
N43 G1 X456.760 Y512.377 Z5.500 F1000
N44 G2 X458.206 Y510.109 Z5.500 I-1.054 J-2.267 F1000
N45 G1 X458.150 Y372.880 Z5.500 F1000
N46 G1 X458.020 Y54.677 Z3.658 F333.3
N47 G2 X455.777 Y52.191 Z3.637 I-2.500 J0.001 F333.3
N48 G1 X88.451 Y14.232 Z1.500 F333.3
N49 G1 X71.821 Y12.513 Z1.500 F1000
N50 G2 X69.252 Y14.050 Z1.500 I-0.257 J2.487 F1000
N51 G1 X37.823 Y90.597 Z1.500 F1000
N52 G2 X48.724 Y113.925 Z1.500 I16.189 J6.647 F1000
N53 G1 X163.803 Y150.407 Z1.500 F1000
N54 G3 X183.246 Y161.053 Z1.500 I-17.377 J54.812 F1000
N55 G3 X257.741 Y471.028 Z1.500 I-170.908 J205.013 F1000
N56 G2 X257.758 Y480.898 Z1.500 I11.493 J4.916 F1000
N57 G1 X291.145 Y558.241 Z1.500 F1000
N58 G2 X327.991 Y572.276 Z1.500 I25.248 J-10.899 F1000
N59 G1 X456.760 Y512.377 Z1.500 F1000
N60 G2 X458.206 Y510.109 Z1.500 I-1.054 J-2.267 F1000
N61 G1 X458.020 Y54.677 Z1.500 F1000
N62 G2 X455.777 Y52.191 Z1.500 I-2.500 J0.001 F1000
N63 G1 X88.451 Y14.232 Z1.500 F1000
N64 G1 X71.821 Y12.513 Z1.403 F333.3
N65 G2 X69.252 Y14.050 Z1.385 I-0.257 J2.487 F333.3
N66 G1 X37.823 Y90.597 Z0.906 F333.3
N67 G2 X48.724 Y113.925 Z0.738 I16.189 J6.647 F333.3
N68 G1 X163.803 Y150.407 Z0.040 F333.3
N69 G3 X183.246 Y161.053 Z-0.089 I-17.377 J54.812 F333.3
N70 G3 X257.741 Y471.028 Z-2.067 I-170.908 J205.013 F333.3
N71 G2 X257.758 Y480.898 Z-2.125 I11.493 J4.916 F333.3
N72 G1 X283.406 Y540.313 Z-2.500 F333.3
N73 G1 X291.145 Y558.241 Z-2.500 F1000
N74 G2 X327.991 Y572.276 Z-2.500 I25.248 J-10.899 F1000
N75 G1 X456.760 Y512.377 Z-2.500 F1000
N76 G2 X458.206 Y510.109 Z-2.500 I-1.054 J-2.267 F1000
N77 G1 X458.020 Y54.677 Z-2.500 F1000
N78 G2 X455.777 Y52.191 Z-2.500 I-2.500 J0.001 F1000
N79 G1 X88.451 Y14.232 Z-2.500 F1000
N80 G1 X71.821 Y12.513 Z-2.500 F1000
N81 G2 X69.252 Y14.050 Z-2.500 I-0.257 J2.487 F1000
N82 G1 X37.823 Y90.597 Z-2.500 F1000
N83 G2 X48.724 Y113.925 Z-2.500 I16.189 J6.647 F1000
N84 G1 X163.803 Y150.407 Z-2.500 F1000
N85 G3 X183.246 Y161.053 Z-2.500 I-17.377 J54.812 F1000
N86 G3 X257.741 Y471.028 Z-2.500 I-170.908 J205.013 F1000
N87 G2 X257.758 Y480.898 Z-2.500 I11.493 J4.916 F1000
N88 G1 X283.406 Y540.313 Z-2.500 F1000
N89 G1 X291.145 Y558.241 Z-2.613 F333.3
N90 G2 X327.991 Y572.276 Z-2.867 I25.248 J-10.899 F333.3
N91 G1 X456.760 Y512.377 Z-3.689 F333.3
N92 G2 X458.206 Y510.109 Z-3.706 I-1.054 J-2.267 F333.3
N93 G1 X458.020 Y54.677 Z-6.342 F333.3
N94 G2 X455.777 Y52.191 Z-6.363 I-2.500 J0.001 F333.3
N95 G1 X432.198 Y49.754 Z-6.500 F333.3
N96 G1 X71.821 Y12.513 Z-6.500 F1000
N97 G2 X69.252 Y14.050 Z-6.500 I-0.257 J2.487 F1000
N98 G1 X37.823 Y90.597 Z-6.500 F1000
N99 G2 X48.724 Y113.925 Z-6.500 I16.189 J6.647 F1000
N100 G1 X163.803 Y150.407 Z-6.500 F1000
N101 G3 X183.246 Y161.053 Z-6.500 I-17.377 J54.812 F1000
N102 G3 X257.741 Y471.028 Z-6.500 I-170.908 J205.013 F1000
N103 G2 X257.758 Y480.898 Z-6.500 I11.493 J4.916 F1000
N104 G1 X283.406 Y540.313 Z-6.500 F1000
N105 G1 X291.145 Y558.241 Z-6.500 F1000
N106 G2 X327.991 Y572.276 Z-6.500 I25.248 J-10.899 F1000
N107 G1 X456.760 Y512.377 Z-6.500 F1000
N108 G2 X458.206 Y510.109 Z-6.500 I-1.054 J-2.267 F1000
N109 G1 X458.020 Y54.677 Z-6.500 F1000
N110 G2 X455.777 Y52.191 Z-6.500 I-2.500 J0.001 F1000
N111 G1 X432.198 Y49.754 Z-6.500 F1000
N112 G1 X131.419 Y18.672 Z-8.250 F333.3
N113 G1 X130.840 Y18.612 Z-8.250 F333.3
N114 G1 X130.840 Y18.612 Z-8.253 F333.3
N115 G1 X71.821 Y12.513 Z-8.597 F333.3
N116 G2 X69.252 Y14.050 Z-8.615 I-0.257 J2.487 F333.3
N117 G1 X37.823 Y90.597 Z-9.094 F333.3
N118 G2 X48.724 Y113.925 Z-9.262 I16.189 J6.647 F333.3
N119 G1 X87.977 Y126.369 Z-9.500 F333.3
N120 G1 X101.497 Y130.655 Z-9.500 F1000
N121 G1 X101.497 Y130.655 Z-8.250 F1000
N122 G1 X111.030 Y133.677 Z-8.250 F1000
N123 G1 X111.030 Y133.677 Z-9.500 F333.3
N124 G1 X163.803 Y150.407 Z-9.500 F1000
N125 G3 X183.246 Y161.053 Z-9.500 I-17.377 J54.812 F1000
N126 G3 X219.665 Y197.973 Z-9.500 I-170.908 J205.013 F1000
N127 G1 X219.665 Y197.973 Z-8.250 F1000
N128 G3 X225.817 Y205.858 Z-8.250 I-207.327 J168.093 F1000
N129 G1 X225.817 Y205.858 Z-9.500 F333.3
N130 G3 X270.643 Y298.846 Z-9.500 I-213.479 J160.208 F1000
N131 G1 X270.643 Y298.846 Z-8.250 F1000
N132 G3 X272.980 Y308.570 Z-8.250 I-258.305 J67.220 F1000
N133 G1 X272.980 Y308.570 Z-9.500 F333.3
N134 G3 X275.303 Y411.773 Z-9.500 I-260.642 J57.496 F1000
N135 G1 X275.303 Y411.773 Z-8.250 F1000
N136 G3 X273.407 Y421.591 Z-8.250 I-262.965 J-45.707 F1000
N137 G1 X273.407 Y421.591 Z-9.500 F333.3
N138 G3 X257.741 Y471.028 Z-9.500 I-261.069 J-55.525 F1000
N139 G2 X257.758 Y480.898 Z-9.500 I11.493 J4.916 F1000
N140 G1 X291.145 Y558.241 Z-9.500 F1000
N141 G2 X327.991 Y572.276 Z-9.500 I25.248 J-10.899 F1000
N142 G1 X387.842 Y544.435 Z-9.500 F1000
N143 G1 X387.842 Y544.435 Z-8.250 F1000
N144 G1 X396.909 Y540.218 Z-8.250 F1000
N145 G1 X396.909 Y540.218 Z-9.500 F333.3
N146 G1 X456.760 Y512.377 Z-9.500 F1000
N147 G2 X458.206 Y510.109 Z-9.500 I-1.054 J-2.267 F1000
N148 G1 X458.185 Y458.180 Z-9.500 F1000
N149 G1 X458.185 Y458.180 Z-8.250 F1000
N150 G1 X458.181 Y448.180 Z-8.250 F1000
N151 G1 X458.181 Y448.180 Z-9.500 F333.3
N152 G1 X458.138 Y344.322 Z-9.500 F1000
N153 G1 X458.138 Y344.322 Z-8.250 F1000
N154 G1 X458.134 Y334.322 Z-8.250 F1000
N155 G1 X458.134 Y334.322 Z-9.500 F333.3
N156 G1 X458.092 Y230.464 Z-9.500 F1000
N157 G1 X458.092 Y230.464 Z-8.250 F1000
N158 G1 X458.088 Y220.464 Z-8.250 F1000
N159 G1 X458.088 Y220.464 Z-9.500 F333.3
N160 G1 X458.045 Y116.606 Z-9.500 F1000
N161 G1 X458.045 Y116.606 Z-8.250 F1000
N162 G1 X458.041 Y106.606 Z-8.250 F1000
N163 G1 X458.041 Y106.606 Z-9.500 F333.3
N164 G1 X458.020 Y54.677 Z-9.500 F1000
N165 G2 X455.777 Y52.191 Z-9.500 I-2.500 J0.001 F1000
N166 G1 X396.758 Y46.092 Z-9.500 F1000
N167 G1 X396.758 Y46.092 Z-8.250 F1000
N168 G1 X386.810 Y45.064 Z-8.250 F1000
N169 G1 X386.810 Y45.064 Z-9.500 F333.3
N170 G1 X268.772 Y32.866 Z-9.500 F1000
N171 G1 X268.772 Y32.866 Z-8.250 F1000
N172 G1 X258.825 Y31.838 Z-8.250 F1000
N173 G1 X258.825 Y31.838 Z-9.500 F333.3
N174 G1 X140.788 Y19.640 Z-9.500 F1000
N175 G1 X140.788 Y19.640 Z-8.250 F1000
N176 G1 X130.840 Y18.612 Z-8.250 F1000
N177 G1 X130.840 Y18.612 Z-9.500 F333.3
N178 G1 X71.821 Y12.513 Z-9.500 F1000
N179 G2 X69.252 Y14.050 Z-9.500 I-0.257 J2.487 F1000
N180 G1 X37.823 Y90.597 Z-9.500 F1000
N181 G2 X48.724 Y113.925 Z-9.500 I16.189 J6.647 F1000
N182 G1 X87.977 Y126.369 Z-9.500 F1000
N183 G3 X88.302 Y126.997 Z-9.500 I-0.151 J0.477 F1000
N184 G1 X88.151 Y127.473 Z-9.500 F1000
N185 G1 X88.125 Y127.556 Z-9.492 F1000
N186 G1 X88.100 Y127.636 Z-9.470 F1000
N187 G1 X88.076 Y127.712 Z-9.433 F1000
N188 G1 X88.054 Y127.780 Z-9.383 F1000
N189 G1 X88.035 Y127.838 Z-9.321 F1000
N190 G1 X88.020 Y127.886 Z-9.250 F1000
N191 G1 X88.009 Y127.921 Z-9.171 F1000
N192 G1 X88.002 Y127.943 Z-9.087 F1000
N193 G1 X88.000 Y127.950 Z-9.000 F1000
N194 G0 X88.000 Y127.950 Z14.500
N195 G0 X55.537 Y211.136 Z14.500
N196 G1 X55.537 Y211.136 Z12.500 F333.3
N197 G1 X55.540 Y211.143 Z12.413 F1000
N198 G1 X55.549 Y211.163 Z12.329 F1000
N199 G1 X55.565 Y211.197 Z12.250 F1000
N200 G1 X55.586 Y211.242 Z12.179 F1000
N201 G1 X55.612 Y211.298 Z12.117 F1000
N202 G1 X55.642 Y211.362 Z12.067 F1000
N203 G1 X55.675 Y211.434 Z12.030 F1000
N204 G1 X55.711 Y211.510 Z12.008 F1000
N205 G1 X55.747 Y211.589 Z12.000 F1000
N206 G1 X55.958 Y212.043 Z12.000 F1000
N207 G3 X55.716 Y212.707 Z12.000 I-0.453 J0.211 F1000
N208 G1 X13.946 Y232.137 Z10.391 F333.3
N209 G2 X12.500 Y234.405 Z10.292 I1.054 J2.267 F333.3
N210 G1 X12.556 Y371.633 Z5.500 F333.3
N211 G1 X12.686 Y689.836 Z5.500 F1000
N212 G2 X14.929 Y692.322 Z5.500 I2.500 J-0.001 F1000
N213 G1 X398.884 Y732.000 Z5.500 F1000
N214 G2 X401.454 Y730.463 Z5.500 I0.257 J-2.487 F1000
N215 G1 X432.883 Y653.917 Z5.500 F1000
N216 G2 X421.983 Y630.588 Z5.500 I-16.189 J-6.647 F1000
N217 G1 X306.902 Y594.106 Z5.500 F1000
N218 G3 X287.460 Y583.460 Z5.500 I17.377 J-54.811 F1000
N219 G3 X212.965 Y273.485 Z5.500 I170.908 J-205.013 F1000
N220 G2 X212.948 Y263.615 Z5.500 I-11.493 J-4.916 F1000
N221 G1 X179.561 Y186.272 Z5.500 F1000
N222 G2 X142.715 Y172.237 Z5.500 I-25.248 J10.899 F1000
N223 G1 X13.946 Y232.137 Z5.500 F1000
N224 G2 X12.500 Y234.405 Z5.500 I1.054 J2.267 F1000
N225 G1 X12.556 Y371.633 Z5.500 F1000
N226 G1 X12.686 Y689.836 Z3.658 F333.3
N227 G2 X14.929 Y692.322 Z3.637 I2.500 J-0.001 F333.3
N228 G1 X382.255 Y730.281 Z1.500 F333.3
N229 G1 X398.884 Y732.000 Z1.500 F1000
N230 G2 X401.454 Y730.463 Z1.500 I0.257 J-2.487 F1000
N231 G1 X432.883 Y653.917 Z1.500 F1000
N232 G2 X421.983 Y630.588 Z1.500 I-16.189 J-6.647 F1000
N233 G1 X306.902 Y594.106 Z1.500 F1000
N234 G3 X287.460 Y583.460 Z1.500 I17.377 J-54.811 F1000
N235 G3 X212.965 Y273.485 Z1.500 I170.908 J-205.013 F1000
N236 G2 X212.948 Y263.615 Z1.500 I-11.493 J-4.916 F1000
N237 G1 X179.561 Y186.272 Z1.500 F1000
N238 G2 X142.715 Y172.237 Z1.500 I-25.248 J10.899 F1000
N239 G1 X13.946 Y232.137 Z1.500 F1000
N240 G2 X12.500 Y234.405 Z1.500 I1.054 J2.267 F1000
N241 G1 X12.686 Y689.836 Z1.500 F1000
N242 G2 X14.929 Y692.322 Z1.500 I2.500 J-0.001 F1000
N243 G1 X382.255 Y730.281 Z1.500 F1000
N244 G1 X398.884 Y732.000 Z1.403 F333.3
N245 G2 X401.454 Y730.463 Z1.385 I0.257 J-2.487 F333.3
N246 G1 X432.883 Y653.917 Z0.906 F333.3
N247 G2 X421.983 Y630.588 Z0.738 I-16.189 J-6.647 F333.3
N248 G1 X306.902 Y594.106 Z0.040 F333.3
N249 G3 X287.460 Y583.460 Z-0.089 I17.377 J-54.811 F333.3
N250 G3 X212.965 Y273.485 Z-2.067 I170.908 J-205.013 F333.3
N251 G2 X212.948 Y263.615 Z-2.125 I-11.493 J-4.916 F333.3
N252 G1 X187.300 Y204.200 Z-2.500 F333.3
N253 G1 X179.561 Y186.272 Z-2.500 F1000
N254 G2 X142.715 Y172.237 Z-2.500 I-25.248 J10.899 F1000
N255 G1 X13.946 Y232.137 Z-2.500 F1000
N256 G2 X12.500 Y234.405 Z-2.500 I1.054 J2.267 F1000
N257 G1 X12.686 Y689.836 Z-2.500 F1000
N258 G2 X14.929 Y692.322 Z-2.500 I2.500 J-0.001 F1000
N259 G1 X382.255 Y730.281 Z-2.500 F1000
N260 G1 X398.884 Y732.000 Z-2.500 F1000
N261 G2 X401.454 Y730.463 Z-2.500 I0.257 J-2.487 F1000
N262 G1 X432.883 Y653.917 Z-2.500 F1000
N263 G2 X421.983 Y630.588 Z-2.500 I-16.189 J-6.647 F1000
N264 G1 X306.902 Y594.106 Z-2.500 F1000
N265 G3 X287.460 Y583.460 Z-2.500 I17.377 J-54.811 F1000
N266 G3 X212.965 Y273.485 Z-2.500 I170.908 J-205.013 F1000
N267 G2 X212.948 Y263.615 Z-2.500 I-11.493 J-4.916 F1000
N268 G1 X187.300 Y204.200 Z-2.500 F1000
N269 G1 X179.561 Y186.272 Z-2.613 F333.3
N270 G2 X142.715 Y172.237 Z-2.867 I-25.248 J10.899 F333.3
N271 G1 X13.946 Y232.137 Z-3.689 F333.3
N272 G2 X12.500 Y234.405 Z-3.706 I1.054 J2.267 F333.3
N273 G1 X12.686 Y689.836 Z-6.342 F333.3
N274 G2 X14.929 Y692.322 Z-6.363 I2.500 J-0.001 F333.3
N275 G1 X38.508 Y694.758 Z-6.500 F333.3
N276 G1 X398.884 Y732.000 Z-6.500 F1000
N277 G2 X401.454 Y730.463 Z-6.500 I0.257 J-2.487 F1000
N278 G1 X432.883 Y653.917 Z-6.500 F1000
N279 G2 X421.983 Y630.588 Z-6.500 I-16.189 J-6.647 F1000
N280 G1 X306.902 Y594.106 Z-6.500 F1000
N281 G3 X287.460 Y583.460 Z-6.500 I17.377 J-54.811 F1000
N282 G3 X212.965 Y273.485 Z-6.500 I170.908 J-205.013 F1000
N283 G2 X212.948 Y263.615 Z-6.500 I-11.493 J-4.916 F1000
N284 G1 X187.300 Y204.200 Z-6.500 F1000
N285 G1 X179.561 Y186.272 Z-6.500 F1000
N286 G2 X142.715 Y172.237 Z-6.500 I-25.248 J10.899 F1000
N287 G1 X13.946 Y232.137 Z-6.500 F1000
N288 G2 X12.500 Y234.405 Z-6.500 I1.054 J2.267 F1000
N289 G1 X12.686 Y689.836 Z-6.500 F1000
N290 G2 X14.929 Y692.322 Z-6.500 I2.500 J-0.001 F1000
N291 G1 X38.508 Y694.758 Z-6.500 F1000
N292 G1 X339.286 Y725.841 Z-8.250 F333.3
N293 G1 X339.866 Y725.901 Z-8.250 F333.3
N294 G1 X339.866 Y725.901 Z-8.253 F333.3
N295 G1 X398.884 Y732.000 Z-8.597 F333.3
N296 G2 X401.454 Y730.463 Z-8.615 I0.257 J-2.487 F333.3
N297 G1 X432.883 Y653.917 Z-9.094 F333.3
N298 G2 X421.983 Y630.588 Z-9.262 I-16.189 J-6.647 F333.3
N299 G1 X382.729 Y618.144 Z-9.500 F333.3
N300 G1 X369.209 Y613.858 Z-9.500 F1000
N301 G1 X369.209 Y613.858 Z-8.250 F1000
N302 G1 X359.676 Y610.836 Z-8.250 F1000
N303 G1 X359.676 Y610.836 Z-9.500 F333.3
N304 G1 X306.902 Y594.106 Z-9.500 F1000
N305 G3 X287.460 Y583.460 Z-9.500 I17.377 J-54.811 F1000
N306 G3 X251.040 Y546.540 Z-9.500 I170.908 J-205.013 F1000
N307 G1 X251.040 Y546.540 Z-8.250 F1000
N308 G3 X244.889 Y538.655 Z-8.250 I207.328 J-168.093 F1000
N309 G1 X244.889 Y538.655 Z-9.500 F333.3
N310 G3 X200.063 Y445.666 Z-9.500 I213.479 J-160.208 F1000
N311 G1 X200.063 Y445.666 Z-8.250 F1000
N312 G3 X197.726 Y435.943 Z-8.250 I258.305 J-67.219 F1000
N313 G1 X197.726 Y435.943 Z-9.500 F333.3
N314 G3 X195.403 Y332.740 Z-9.500 I260.642 J-57.496 F1000
N315 G1 X195.403 Y332.740 Z-8.250 F1000
N316 G3 X197.299 Y322.922 Z-8.250 I262.965 J45.707 F1000
N317 G1 X197.299 Y322.922 Z-9.500 F333.3
N318 G3 X212.965 Y273.485 Z-9.500 I261.069 J55.525 F1000
N319 G2 X212.948 Y263.615 Z-9.500 I-11.493 J-4.916 F1000
N320 G1 X179.561 Y186.272 Z-9.500 F1000
N321 G2 X142.715 Y172.237 Z-9.500 I-25.248 J10.899 F1000
N322 G1 X82.863 Y200.078 Z-9.500 F1000
N323 G1 X82.863 Y200.078 Z-8.250 F1000
N324 G1 X73.796 Y204.296 Z-8.250 F1000
N325 G1 X73.796 Y204.296 Z-9.500 F333.3
N326 G1 X13.946 Y232.137 Z-9.500 F1000
N327 G2 X12.500 Y234.405 Z-9.500 I1.054 J2.267 F1000
N328 G1 X12.521 Y286.334 Z-9.500 F1000
N329 G1 X12.521 Y286.334 Z-8.250 F1000
N330 G1 X12.525 Y296.334 Z-8.250 F1000
N331 G1 X12.525 Y296.334 Z-9.500 F333.3
N332 G1 X12.568 Y400.191 Z-9.500 F1000
N333 G1 X12.568 Y400.191 Z-8.250 F1000
N334 G1 X12.572 Y410.191 Z-8.250 F1000
N335 G1 X12.572 Y410.191 Z-9.500 F333.3
N336 G1 X12.614 Y514.049 Z-9.500 F1000
N337 G1 X12.614 Y514.049 Z-8.250 F1000
N338 G1 X12.618 Y524.049 Z-8.250 F1000
N339 G1 X12.618 Y524.049 Z-9.500 F333.3
N340 G1 X12.661 Y627.907 Z-9.500 F1000
N341 G1 X12.661 Y627.907 Z-8.250 F1000
N342 G1 X12.665 Y637.907 Z-8.250 F1000
N343 G1 X12.665 Y637.907 Z-9.500 F333.3
N344 G1 X12.686 Y689.836 Z-9.500 F1000
N345 G2 X14.929 Y692.322 Z-9.500 I2.500 J-0.001 F1000
N346 G1 X73.948 Y698.421 Z-9.500 F1000
N347 G1 X73.948 Y698.421 Z-8.250 F1000
N348 G1 X83.895 Y699.449 Z-8.250 F1000
N349 G1 X83.895 Y699.449 Z-9.500 F333.3
N350 G1 X201.934 Y711.647 Z-9.500 F1000
N351 G1 X201.934 Y711.647 Z-8.250 F1000
N352 G1 X211.881 Y712.675 Z-8.250 F1000
N353 G1 X211.881 Y712.675 Z-9.500 F333.3
N354 G1 X329.918 Y724.873 Z-9.500 F1000
N355 G1 X329.918 Y724.873 Z-8.250 F1000
N356 G1 X339.866 Y725.901 Z-8.250 F1000
N357 G1 X339.866 Y725.901 Z-9.500 F333.3
N358 G1 X398.884 Y732.000 Z-9.500 F1000
N359 G2 X401.454 Y730.463 Z-9.500 I0.257 J-2.487 F1000
N360 G1 X432.883 Y653.917 Z-9.500 F1000
N361 G2 X421.983 Y630.588 Z-9.500 I-16.189 J-6.647 F1000
N362 G1 X382.729 Y618.144 Z-9.500 F1000
N363 G3 X382.404 Y617.516 Z-9.500 I0.151 J-0.477 F1000
N364 G1 X382.555 Y617.040 Z-9.500 F1000
N365 G1 X382.581 Y616.957 Z-9.492 F1000
N366 G1 X382.606 Y616.877 Z-9.470 F1000
N367 G1 X382.630 Y616.801 Z-9.433 F1000
N368 G1 X382.652 Y616.733 Z-9.383 F1000
N369 G1 X382.671 Y616.675 Z-9.321 F1000
N370 G1 X382.686 Y616.627 Z-9.250 F1000
N371 G1 X382.697 Y616.592 Z-9.171 F1000
N372 G1 X382.704 Y616.570 Z-9.087 F1000
N373 G1 X382.706 Y616.563 Z-9.000 F1000
N374 G0 X382.706 Y616.563 Z24.500


(2D Contorno 2)
N375 G0 X420.977 Y535.088 Z24.500
N376 G0 X420.977 Y535.088 Z24.500
N377 G0 X420.977 Y535.088 Z14.500
N378 G1 X420.977 Y535.088 Z12.500 F333.3
N379 G1 X420.973 Y535.081 Z12.413 F1000
N380 G1 X420.964 Y535.061 Z12.329 F1000
N381 G1 X420.948 Y535.027 Z12.250 F1000
N382 G1 X420.927 Y534.982 Z12.179 F1000
N383 G1 X420.901 Y534.926 Z12.117 F1000
N384 G1 X420.871 Y534.861 Z12.067 F1000
N385 G1 X420.838 Y534.790 Z12.030 F1000
N386 G1 X420.802 Y534.713 Z12.008 F1000
N387 G1 X420.766 Y534.635 Z12.000 F1000
N388 G1 X420.555 Y534.181 Z12.000 F1000
N389 G3 X420.797 Y533.517 Z12.000 I0.453 J-0.211 F1000
N390 G1 X458.447 Y516.004 Z10.550 F333.3
N391 G2 X462.206 Y510.107 Z10.292 I-2.741 J-5.894 F333.3
N392 G1 X462.150 Y372.879 Z5.500 F333.3
N393 G1 X462.020 Y54.675 Z5.500 F1000
N394 G2 X456.188 Y48.212 Z5.500 I-6.500 J0.003 F1000
N395 G1 X72.233 Y8.534 Z5.500 F1000
N396 G2 X65.552 Y12.531 Z5.500 I-0.668 J6.466 F1000
N397 G1 X34.123 Y89.078 Z5.500 F1000
N398 G2 X47.515 Y117.738 Z5.500 I19.889 J8.166 F1000
N399 G1 X162.595 Y154.220 Z5.500 F1000
N400 G3 X180.685 Y164.126 Z5.500 I-16.168 J50.999 F1000
N401 G3 X254.064 Y469.455 Z5.500 I-168.347 J201.940 F1000
N402 G2 X254.085 Y482.483 Z5.500 I15.170 J6.489 F1000
N403 G1 X287.472 Y559.826 Z5.500 F1000
N404 G2 X329.679 Y575.903 Z5.500 I28.920 J-12.484 F1000
N405 G1 X458.447 Y516.004 Z5.500 F1000
N406 G2 X462.206 Y510.107 Z5.500 I-2.741 J-5.894 F1000
N407 G1 X462.150 Y372.879 Z5.500 F1000
N408 G1 X462.020 Y54.675 Z3.685 F333.3
N409 G2 X456.188 Y48.212 Z3.630 I-6.500 J0.003 F333.3
N410 G1 X84.701 Y9.823 Z1.500 F333.3
N411 G1 X72.233 Y8.534 Z1.500 F1000
N412 G2 X65.552 Y12.531 Z1.500 I-0.668 J6.466 F1000
N413 G1 X34.123 Y89.078 Z1.500 F1000
N414 G2 X47.515 Y117.738 Z1.500 I19.889 J8.166 F1000
N415 G1 X162.595 Y154.220 Z1.500 F1000
N416 G3 X180.685 Y164.126 Z1.500 I-16.168 J50.999 F1000
N417 G3 X254.064 Y469.455 Z1.500 I-168.347 J201.940 F1000
N418 G2 X254.085 Y482.483 Z1.500 I15.170 J6.489 F1000
N419 G1 X287.472 Y559.826 Z1.500 F1000
N420 G2 X329.679 Y575.903 Z1.500 I28.920 J-12.484 F1000
N421 G1 X458.447 Y516.004 Z1.500 F1000
N422 G2 X462.206 Y510.107 Z1.500 I-2.741 J-5.894 F1000
N423 G1 X462.020 Y54.675 Z1.500 F1000
N424 G2 X456.188 Y48.212 Z1.500 I-6.500 J0.003 F1000
N425 G1 X84.701 Y9.823 Z1.500 F1000
N426 G1 X72.233 Y8.534 Z1.428 F333.3
N427 G2 X65.552 Y12.531 Z1.381 I-0.668 J6.466 F333.3
N428 G1 X34.123 Y89.078 Z0.909 F333.3
N429 G2 X47.515 Y117.738 Z0.706 I19.889 J8.166 F333.3
N430 G1 X162.595 Y154.220 Z0.017 F333.3
N431 G3 X180.685 Y164.126 Z-0.101 I-16.168 J50.999 F333.3
N432 G3 X254.064 Y469.455 Z-2.021 I-168.347 J201.940 F333.3
N433 G2 X254.085 Y482.483 Z-2.097 I15.170 J6.489 F333.3
N434 G1 X282.076 Y547.326 Z-2.500 F333.3
N435 G1 X287.472 Y559.826 Z-2.500 F1000
N436 G2 X329.679 Y575.903 Z-2.500 I28.920 J-12.484 F1000
N437 G1 X458.447 Y516.004 Z-2.500 F1000
N438 G2 X462.206 Y510.107 Z-2.500 I-2.741 J-5.894 F1000
N439 G1 X462.020 Y54.675 Z-2.500 F1000
N440 G2 X456.188 Y48.212 Z-2.500 I-6.500 J0.003 F1000
N441 G1 X84.701 Y9.823 Z-2.500 F1000
N442 G1 X72.233 Y8.534 Z-2.500 F1000
N443 G2 X65.552 Y12.531 Z-2.500 I-0.668 J6.466 F1000
N444 G1 X34.123 Y89.078 Z-2.500 F1000
N445 G2 X47.515 Y117.738 Z-2.500 I19.889 J8.166 F1000
N446 G1 X162.595 Y154.220 Z-2.500 F1000
N447 G3 X180.685 Y164.126 Z-2.500 I-16.168 J50.999 F1000
N448 G3 X254.064 Y469.455 Z-2.500 I-168.347 J201.940 F1000
N449 G2 X254.085 Y482.483 Z-2.500 I15.170 J6.489 F1000
N450 G1 X282.076 Y547.326 Z-2.500 F1000
N451 G1 X287.472 Y559.826 Z-2.578 F333.3
N452 G2 X329.679 Y575.903 Z-2.865 I28.920 J-12.484 F333.3
N453 G1 X458.447 Y516.004 Z-3.675 F333.3
N454 G2 X462.206 Y510.107 Z-3.717 I-2.741 J-5.894 F333.3
N455 G1 X462.020 Y54.675 Z-6.315 F333.3
N456 G2 X456.188 Y48.212 Z-6.370 I-6.500 J0.003 F333.3
N457 G1 X433.447 Y45.862 Z-6.500 F333.3
N458 G1 X72.233 Y8.534 Z-6.500 F1000
N459 G2 X65.552 Y12.531 Z-6.500 I-0.668 J6.466 F1000
N460 G1 X34.123 Y89.078 Z-6.500 F1000
N461 G2 X47.515 Y117.738 Z-6.500 I19.889 J8.166 F1000
N462 G1 X162.595 Y154.220 Z-6.500 F1000
N463 G3 X180.685 Y164.126 Z-6.500 I-16.168 J50.999 F1000
N464 G3 X254.064 Y469.455 Z-6.500 I-168.347 J201.940 F1000
N465 G2 X254.085 Y482.483 Z-6.500 I15.170 J6.489 F1000
N466 G1 X282.076 Y547.326 Z-6.500 F1000
N467 G1 X287.472 Y559.826 Z-6.500 F1000
N468 G2 X329.679 Y575.903 Z-6.500 I28.920 J-12.484 F1000
N469 G1 X458.447 Y516.004 Z-6.500 F1000
N470 G2 X462.206 Y510.107 Z-6.500 I-2.741 J-5.894 F1000
N471 G1 X462.020 Y54.675 Z-6.500 F1000
N472 G2 X456.188 Y48.212 Z-6.500 I-6.500 J0.003 F1000
N473 G1 X433.447 Y45.862 Z-6.500 F1000
N474 G1 X72.233 Y8.534 Z-8.572 F333.3
N475 G2 X65.552 Y12.531 Z-8.619 I-0.668 J6.466 F333.3
N476 G1 X34.123 Y89.078 Z-9.091 F333.3
N477 G2 X47.515 Y117.738 Z-9.294 I19.889 J8.166 F333.3
N478 G1 X81.951 Y128.655 Z-9.500 F333.3
N479 G1 X100.289 Y134.468 Z-9.500 F1000
N480 G1 X100.289 Y134.468 Z-8.250 F1000
N481 G1 X109.821 Y137.490 Z-8.250 F1000
N482 G1 X109.821 Y137.490 Z-9.500 F333.3
N483 G1 X162.595 Y154.220 Z-9.500 F1000
N484 G3 X180.685 Y164.126 Z-9.500 I-16.168 J50.999 F1000
N485 G3 X216.511 Y200.434 Z-9.500 I-168.347 J201.940 F1000
N486 G1 X216.511 Y200.434 Z-8.250 F1000
N487 G3 X222.662 Y208.319 Z-8.250 I-204.173 J165.632 F1000
N488 G1 X222.662 Y208.319 Z-9.500 F333.3
N489 G3 X266.753 Y299.781 Z-9.500 I-210.324 J157.747 F1000
N490 G1 X266.753 Y299.781 Z-8.250 F1000
N491 G3 X269.090 Y309.504 Z-8.250 I-254.415 J66.285 F1000
N492 G1 X269.090 Y309.504 Z-9.500 F333.3
N493 G3 X271.375 Y411.014 Z-9.500 I-256.752 J56.562 F1000
N494 G1 X271.375 Y411.014 Z-8.250 F1000
N495 G3 X269.478 Y420.832 Z-8.250 I-259.037 J-44.948 F1000
N496 G1 X269.478 Y420.832 Z-9.500 F333.3
N497 G3 X254.064 Y469.455 Z-9.500 I-257.140 J-54.766 F1000
N498 G2 X254.085 Y482.483 Z-9.500 I15.170 J6.489 F1000
N499 G1 X287.472 Y559.826 Z-9.500 F1000
N500 G2 X329.679 Y575.903 Z-9.500 I28.920 J-12.484 F1000
N501 G1 X389.529 Y548.062 Z-9.500 F1000
N502 G1 X389.529 Y548.062 Z-8.250 F1000
N503 G1 X398.596 Y543.844 Z-8.250 F1000
N504 G1 X398.596 Y543.844 Z-9.500 F333.3
N505 G1 X458.447 Y516.004 Z-9.500 F1000
N506 G2 X462.206 Y510.107 Z-9.500 I-2.741 J-5.894 F1000
N507 G1 X462.185 Y458.178 Z-9.500 F1000
N508 G1 X462.185 Y458.178 Z-8.250 F1000
N509 G1 X462.181 Y448.178 Z-8.250 F1000
N510 G1 X462.181 Y448.178 Z-9.500 F333.3
N511 G1 X462.138 Y344.320 Z-9.500 F1000
N512 G1 X462.138 Y344.320 Z-8.250 F1000
N513 G1 X462.134 Y334.320 Z-8.250 F1000
N514 G1 X462.134 Y334.320 Z-9.500 F333.3
N515 G1 X462.092 Y230.462 Z-9.500 F1000
N516 G1 X462.092 Y230.462 Z-8.250 F1000
N517 G1 X462.088 Y220.462 Z-8.250 F1000
N518 G1 X462.088 Y220.462 Z-9.500 F333.3
N519 G1 X462.045 Y116.604 Z-9.500 F1000
N520 G1 X462.045 Y116.604 Z-8.250 F1000
N521 G1 X462.041 Y106.604 Z-8.250 F1000
N522 G1 X462.041 Y106.604 Z-9.500 F333.3
N523 G1 X462.020 Y54.675 Z-9.500 F1000
N524 G2 X456.188 Y48.212 Z-9.500 I-6.500 J0.003 F1000
N525 G1 X397.169 Y42.113 Z-9.500 F1000
N526 G1 X397.169 Y42.113 Z-8.250 F1000
N527 G1 X387.222 Y41.085 Z-8.250 F1000
N528 G1 X387.222 Y41.085 Z-9.500 F333.3
N529 G1 X269.184 Y28.887 Z-9.500 F1000
N530 G1 X269.184 Y28.887 Z-8.250 F1000
N531 G1 X259.237 Y27.859 Z-8.250 F1000
N532 G1 X259.237 Y27.859 Z-9.500 F333.3
N533 G1 X141.199 Y15.661 Z-9.500 F1000
N534 G1 X141.199 Y15.661 Z-8.250 F1000
N535 G1 X131.252 Y14.633 Z-8.250 F1000
N536 G1 X131.252 Y14.633 Z-9.500 F333.3
N537 G1 X72.233 Y8.534 Z-9.500 F1000
N538 G2 X65.552 Y12.531 Z-9.500 I-0.668 J6.466 F1000
N539 G1 X34.123 Y89.078 Z-9.500 F1000
N540 G2 X47.515 Y117.738 Z-9.500 I19.889 J8.166 F1000
N541 G1 X81.951 Y128.655 Z-9.500 F1000
N542 G3 X82.276 Y129.283 Z-9.500 I-0.151 J0.477 F1000
N543 G1 X82.125 Y129.759 Z-9.500 F1000
N544 G1 X82.099 Y129.842 Z-9.492 F1000
N545 G1 X82.073 Y129.922 Z-9.470 F1000
N546 G1 X82.050 Y129.997 Z-9.433 F1000
N547 G1 X82.028 Y130.066 Z-9.383 F1000
N548 G1 X82.009 Y130.124 Z-9.321 F1000
N549 G1 X81.994 Y130.172 Z-9.250 F1000
N550 G1 X81.983 Y130.207 Z-9.171 F1000
N551 G1 X81.976 Y130.229 Z-9.087 F1000
N552 G1 X81.974 Y130.236 Z-9.000 F1000
N553 G0 X81.974 Y130.236 Z14.500
N554 G0 X49.730 Y209.425 Z14.500
N555 G1 X49.730 Y209.425 Z12.500 F333.3
N556 G1 X49.733 Y209.432 Z12.413 F1000
N557 G1 X49.743 Y209.453 Z12.329 F1000
N558 G1 X49.758 Y209.486 Z12.250 F1000
N559 G1 X49.780 Y209.531 Z12.179 F1000
N560 G1 X49.806 Y209.587 Z12.117 F1000
N561 G1 X49.836 Y209.652 Z12.067 F1000
N562 G1 X49.869 Y209.724 Z12.030 F1000
N563 G1 X49.904 Y209.800 Z12.008 F1000
N564 G1 X49.941 Y209.879 Z12.000 F1000
N565 G1 X50.152 Y210.332 Z12.000 F1000
N566 G3 X49.909 Y210.996 Z12.000 I-0.453 J0.211 F1000
N567 G1 X12.258 Y228.510 Z10.550 F333.3
N568 G2 X8.500 Y234.407 Z10.292 I2.742 J5.894 F333.3
N569 G1 X8.556 Y371.634 Z5.500 F333.3
N570 G1 X8.686 Y689.838 Z5.500 F1000
N571 G2 X14.518 Y696.301 Z5.500 I6.500 J-0.003 F1000
N572 G1 X398.473 Y735.979 Z5.500 F1000
N573 G2 X405.154 Y731.982 Z5.500 I0.668 J-6.466 F1000
N574 G1 X436.583 Y655.436 Z5.500 F1000
N575 G2 X423.191 Y626.775 Z5.500 I-19.889 J-8.166 F1000
N576 G1 X308.111 Y590.293 Z5.500 F1000
N577 G3 X290.021 Y580.387 Z5.500 I16.168 J-50.998 F1000
N578 G3 X216.642 Y275.058 Z5.500 I168.347 J-201.940 F1000
N579 G2 X216.621 Y262.030 Z5.500 I-15.170 J-6.489 F1000
N580 G1 X183.234 Y184.687 Z5.500 F1000
N581 G2 X141.027 Y168.610 Z5.500 I-28.920 J12.484 F1000
N582 G1 X12.258 Y228.510 Z5.500 F1000
N583 G2 X8.500 Y234.407 Z5.500 I2.742 J5.894 F1000
N584 G1 X8.556 Y371.634 Z5.500 F1000
N585 G1 X8.686 Y689.838 Z3.685 F333.3
N586 G2 X14.518 Y696.301 Z3.630 I6.500 J-0.003 F333.3
N587 G1 X386.005 Y734.690 Z1.500 F333.3
N588 G1 X398.473 Y735.979 Z1.500 F1000
N589 G2 X405.154 Y731.982 Z1.500 I0.668 J-6.466 F1000
N590 G1 X436.583 Y655.436 Z1.500 F1000
N591 G2 X423.191 Y626.775 Z1.500 I-19.889 J-8.166 F1000
N592 G1 X308.111 Y590.293 Z1.500 F1000
N593 G3 X290.021 Y580.387 Z1.500 I16.168 J-50.998 F1000
N594 G3 X216.642 Y275.058 Z1.500 I168.347 J-201.940 F1000
N595 G2 X216.621 Y262.030 Z1.500 I-15.170 J-6.489 F1000
N596 G1 X183.234 Y184.687 Z1.500 F1000
N597 G2 X141.027 Y168.610 Z1.500 I-28.920 J12.484 F1000
N598 G1 X12.258 Y228.510 Z1.500 F1000
N599 G2 X8.500 Y234.407 Z1.500 I2.742 J5.894 F1000
N600 G1 X8.686 Y689.838 Z1.500 F1000
N601 G2 X14.518 Y696.301 Z1.500 I6.500 J-0.003 F1000
N602 G1 X386.005 Y734.690 Z1.500 F1000
N603 G1 X398.473 Y735.979 Z1.428 F333.3
N604 G2 X405.154 Y731.982 Z1.381 I0.668 J-6.466 F333.3
N605 G1 X436.583 Y655.436 Z0.909 F333.3
N606 G2 X423.191 Y626.775 Z0.706 I-19.889 J-8.166 F333.3
N607 G1 X308.111 Y590.293 Z0.017 F333.3
N608 G3 X290.021 Y580.387 Z-0.101 I16.168 J-50.998 F333.3
N609 G3 X216.642 Y275.058 Z-2.021 I168.347 J-201.940 F333.3
N610 G2 X216.621 Y262.030 Z-2.097 I-15.170 J-6.489 F333.3
N611 G1 X188.630 Y197.187 Z-2.500 F333.3
N612 G1 X183.234 Y184.687 Z-2.500 F1000
N613 G2 X141.027 Y168.610 Z-2.500 I-28.920 J12.484 F1000
N614 G1 X12.258 Y228.510 Z-2.500 F1000
N615 G2 X8.500 Y234.407 Z-2.500 I2.742 J5.894 F1000
N616 G1 X8.686 Y689.838 Z-2.500 F1000
N617 G2 X14.518 Y696.301 Z-2.500 I6.500 J-0.003 F1000
N618 G1 X386.005 Y734.690 Z-2.500 F1000
N619 G1 X398.473 Y735.979 Z-2.500 F1000
N620 G2 X405.154 Y731.982 Z-2.500 I0.668 J-6.466 F1000
N621 G1 X436.583 Y655.436 Z-2.500 F1000
N622 G2 X423.191 Y626.775 Z-2.500 I-19.889 J-8.166 F1000
N623 G1 X308.111 Y590.293 Z-2.500 F1000
N624 G3 X290.021 Y580.387 Z-2.500 I16.168 J-50.998 F1000
N625 G3 X216.642 Y275.058 Z-2.500 I168.347 J-201.940 F1000
N626 G2 X216.621 Y262.030 Z-2.500 I-15.170 J-6.489 F1000
N627 G1 X188.630 Y197.187 Z-2.500 F1000
N628 G1 X183.234 Y184.687 Z-2.578 F333.3
N629 G2 X141.027 Y168.610 Z-2.865 I-28.920 J12.484 F333.3
N630 G1 X12.258 Y228.510 Z-3.675 F333.3
N631 G2 X8.500 Y234.407 Z-3.717 I2.742 J5.894 F333.3
N632 G1 X8.686 Y689.838 Z-6.315 F333.3
N633 G2 X14.518 Y696.301 Z-6.370 I6.500 J-0.003 F333.3
N634 G1 X37.259 Y698.651 Z-6.500 F333.3
N635 G1 X398.473 Y735.979 Z-6.500 F1000
N636 G2 X405.154 Y731.982 Z-6.500 I0.668 J-6.466 F1000
N637 G1 X436.583 Y655.436 Z-6.500 F1000
N638 G2 X423.191 Y626.775 Z-6.500 I-19.889 J-8.166 F1000
N639 G1 X308.111 Y590.293 Z-6.500 F1000
N640 G3 X290.021 Y580.387 Z-6.500 I16.168 J-50.998 F1000
N641 G3 X216.642 Y275.058 Z-6.500 I168.347 J-201.940 F1000
N642 G2 X216.621 Y262.030 Z-6.500 I-15.170 J-6.489 F1000
N643 G1 X188.630 Y197.187 Z-6.500 F1000
N644 G1 X183.234 Y184.687 Z-6.500 F1000
N645 G2 X141.027 Y168.610 Z-6.500 I-28.920 J12.484 F1000
N646 G1 X12.258 Y228.510 Z-6.500 F1000
N647 G2 X8.500 Y234.407 Z-6.500 I2.742 J5.894 F1000
N648 G1 X8.686 Y689.838 Z-6.500 F1000
N649 G2 X14.518 Y696.301 Z-6.500 I6.500 J-0.003 F1000
N650 G1 X37.259 Y698.651 Z-6.500 F1000
N651 G1 X398.473 Y735.979 Z-8.572 F333.3
N652 G2 X405.154 Y731.982 Z-8.619 I0.668 J-6.466 F333.3
N653 G1 X436.583 Y655.436 Z-9.091 F333.3
N654 G2 X423.191 Y626.775 Z-9.294 I-19.889 J-8.166 F333.3
N655 G1 X388.755 Y615.858 Z-9.500 F333.3
N656 G1 X370.417 Y610.045 Z-9.500 F1000
N657 G1 X370.417 Y610.045 Z-8.250 F1000
N658 G1 X360.885 Y607.023 Z-8.250 F1000
N659 G1 X360.885 Y607.023 Z-9.500 F333.3
N660 G1 X308.111 Y590.293 Z-9.500 F1000
N661 G3 X290.021 Y580.387 Z-9.500 I16.168 J-50.998 F1000
N662 G3 X254.195 Y544.079 Z-9.500 I168.347 J-201.940 F1000
N663 G1 X254.195 Y544.079 Z-8.250 F1000
N664 G3 X248.044 Y536.194 Z-8.250 I204.173 J-165.632 F1000
N665 G1 X248.044 Y536.194 Z-9.500 F333.3
N666 G3 X203.953 Y444.731 Z-9.500 I210.324 J-157.747 F1000
N667 G1 X203.953 Y444.731 Z-8.250 F1000
N668 G3 X201.616 Y435.008 Z-8.250 I254.415 J-66.284 F1000
N669 G1 X201.616 Y435.008 Z-9.500 F333.3
N670 G3 X199.331 Y333.499 Z-9.500 I256.752 J-56.561 F1000
N671 G1 X199.331 Y333.499 Z-8.250 F1000
N672 G3 X201.228 Y323.681 Z-8.250 I259.037 J44.948 F1000
N673 G1 X201.228 Y323.681 Z-9.500 F333.3
N674 G3 X216.642 Y275.058 Z-9.500 I257.140 J54.766 F1000
N675 G2 X216.621 Y262.030 Z-9.500 I-15.170 J-6.489 F1000
N676 G1 X183.234 Y184.687 Z-9.500 F1000
N677 G2 X141.027 Y168.610 Z-9.500 I-28.920 J12.484 F1000
N678 G1 X81.176 Y196.452 Z-9.500 F1000
N679 G1 X81.176 Y196.452 Z-8.250 F1000
N680 G1 X72.109 Y200.669 Z-8.250 F1000
N681 G1 X72.109 Y200.669 Z-9.500 F333.3
N682 G1 X12.258 Y228.510 Z-9.500 F1000
N683 G2 X8.500 Y234.407 Z-9.500 I2.742 J5.894 F1000
N684 G1 X8.521 Y286.336 Z-9.500 F1000
N685 G1 X8.521 Y286.336 Z-8.250 F1000
N686 G1 X8.525 Y296.336 Z-8.250 F1000
N687 G1 X8.525 Y296.336 Z-9.500 F333.3
N688 G1 X8.568 Y400.193 Z-9.500 F1000
N689 G1 X8.568 Y400.193 Z-8.250 F1000
N690 G1 X8.572 Y410.193 Z-8.250 F1000
N691 G1 X8.572 Y410.193 Z-9.500 F333.3
N692 G1 X8.614 Y514.051 Z-9.500 F1000
N693 G1 X8.614 Y514.051 Z-8.250 F1000
N694 G1 X8.618 Y524.051 Z-8.250 F1000
N695 G1 X8.618 Y524.051 Z-9.500 F333.3
N696 G1 X8.661 Y627.909 Z-9.500 F1000
N697 G1 X8.661 Y627.909 Z-8.250 F1000
N698 G1 X8.665 Y637.909 Z-8.250 F1000
N699 G1 X8.665 Y637.909 Z-9.500 F333.3
N700 G1 X8.686 Y689.838 Z-9.500 F1000
N701 G2 X14.518 Y696.301 Z-9.500 I6.500 J-0.003 F1000
N702 G1 X73.537 Y702.400 Z-9.500 F1000
N703 G1 X73.537 Y702.400 Z-8.250 F1000
N704 G1 X83.484 Y703.428 Z-8.250 F1000
N705 G1 X83.484 Y703.428 Z-9.500 F333.3
N706 G1 X201.522 Y715.626 Z-9.500 F1000
N707 G1 X201.522 Y715.626 Z-8.250 F1000
N708 G1 X211.469 Y716.654 Z-8.250 F1000
N709 G1 X211.469 Y716.654 Z-9.500 F333.3
N710 G1 X329.507 Y728.852 Z-9.500 F1000
N711 G1 X329.507 Y728.852 Z-8.250 F1000
N712 G1 X339.454 Y729.880 Z-8.250 F1000
N713 G1 X339.454 Y729.880 Z-9.500 F333.3
N714 G1 X398.473 Y735.979 Z-9.500 F1000
N715 G2 X405.154 Y731.982 Z-9.500 I0.668 J-6.466 F1000
N716 G1 X436.583 Y655.436 Z-9.500 F1000
N717 G2 X423.191 Y626.775 Z-9.500 I-19.889 J-8.166 F1000
N718 G1 X388.755 Y615.858 Z-9.500 F1000
N719 G3 X388.430 Y615.230 Z-9.500 I0.151 J-0.477 F1000
N720 G1 X388.581 Y614.754 Z-9.500 F1000
N721 G1 X388.607 Y614.671 Z-9.492 F1000
N722 G1 X388.633 Y614.591 Z-9.470 F1000
N723 G1 X388.656 Y614.516 Z-9.433 F1000
N724 G1 X388.678 Y614.447 Z-9.383 F1000
N725 G1 X388.697 Y614.389 Z-9.321 F1000
N726 G1 X388.712 Y614.341 Z-9.250 F1000
N727 G1 X388.723 Y614.306 Z-9.171 F1000
N728 G1 X388.730 Y614.284 Z-9.087 F1000
N729 G1 X388.732 Y614.277 Z-9.000 F1000
N730 G0 X388.732 Y614.277 Z24.500


(2D Contorno 3)
N731 G0 X426.783 Y536.799 Z24.500
N732 G0 X426.783 Y536.799 Z24.500
N733 G0 X426.783 Y536.799 Z14.500
N734 G1 X426.783 Y536.799 Z12.500 F333.3
N735 G1 X426.780 Y536.792 Z12.413 F1000
N736 G1 X426.770 Y536.771 Z12.329 F1000
N737 G1 X426.755 Y536.738 Z12.250 F1000
N738 G1 X426.734 Y536.693 Z12.179 F1000
N739 G1 X426.708 Y536.637 Z12.117 F1000
N740 G1 X426.678 Y536.572 Z12.067 F1000
N741 G1 X426.644 Y536.500 Z12.030 F1000
N742 G1 X426.609 Y536.424 Z12.008 F1000
N743 G1 X426.572 Y536.345 Z12.000 F1000
N744 G1 X426.361 Y535.892 Z12.000 F1000
N745 G3 X426.604 Y535.228 Z12.000 I0.453 J-0.211 F1000
N746 G1 X460.135 Y519.630 Z10.709 F333.3
N747 G2 X466.206 Y510.106 Z10.292 I-4.429 J-9.520 F333.3
N748 G1 X466.150 Y372.877 Z5.500 F333.3
N749 G1 X466.020 Y54.674 Z5.500 F1000
N750 G2 X456.599 Y44.234 Z5.500 I-10.500 J0.004 F1000
N751 G1 X72.644 Y4.556 Z5.500 F1000
N752 G2 X61.851 Y11.012 Z5.500 I-1.079 J10.444 F1000
N753 G1 X30.423 Y87.558 Z5.500 F1000
N754 G2 X46.306 Y121.551 Z5.500 I23.589 J9.685 F1000
N755 G1 X161.386 Y158.033 Z5.500 F1000
N756 G3 X178.123 Y167.198 Z5.500 I-14.959 J47.186 F1000
N757 G3 X250.386 Y467.882 Z5.500 I-165.785 J198.868 F1000
N758 G2 X250.413 Y484.068 Z5.500 I18.848 J8.062 F1000
N759 G1 X283.800 Y561.411 Z5.500 F1000
N760 G2 X331.366 Y579.529 Z5.500 I32.593 J-14.070 F1000
N761 G1 X460.135 Y519.630 Z5.500 F1000
N762 G2 X466.206 Y510.106 Z5.500 I-4.429 J-9.520 F1000
N763 G1 X466.150 Y372.877 Z5.500 F1000
N764 G3 X466.650 Y372.377 Z5.500 I0.500 J0.000 F1000
N765 G1 X467.150 Y372.377 Z5.500 F1000
N766 G1 X467.237 Y372.377 Z5.508 F1000
N767 G1 X467.321 Y372.377 Z5.530 F1000
N768 G1 X467.400 Y372.377 Z5.567 F1000
N769 G1 X467.471 Y372.377 Z5.617 F1000
N770 G1 X467.533 Y372.377 Z5.679 F1000
N771 G1 X467.583 Y372.376 Z5.750 F1000
N772 G1 X467.620 Y372.376 Z5.829 F1000
N773 G1 X467.642 Y372.376 Z5.913 F1000
N774 G1 X467.650 Y372.376 Z6.000 F1000
N775 G0 X467.650 Y372.376 Z14.500
N776 G0 X43.924 Y207.715 Z14.500
N777 G1 X43.924 Y207.715 Z12.500 F333.3
N778 G1 X43.927 Y207.722 Z12.413 F1000
N779 G1 X43.936 Y207.742 Z12.329 F1000
N780 G1 X43.952 Y207.775 Z12.250 F1000
N781 G1 X43.973 Y207.821 Z12.179 F1000
N782 G1 X43.999 Y207.877 Z12.117 F1000
N783 G1 X44.029 Y207.941 Z12.067 F1000
N784 G1 X44.062 Y208.013 Z12.030 F1000
N785 G1 X44.098 Y208.089 Z12.008 F1000
N786 G1 X44.135 Y208.168 Z12.000 F1000
N787 G1 X44.346 Y208.621 Z12.000 F1000
N788 G3 X44.103 Y209.286 Z12.000 I-0.453 J0.211 F1000
N789 G1 X10.571 Y224.884 Z10.709 F333.3
N790 G2 X4.500 Y234.408 Z10.292 I4.429 J9.520 F333.3
N791 G1 X4.556 Y371.636 Z5.500 F333.3
N792 G1 X4.686 Y689.839 Z5.500 F1000
N793 G2 X14.107 Y700.279 Z5.500 I10.500 J-0.004 F1000
N794 G1 X398.062 Y739.957 Z5.500 F1000
N795 G2 X408.854 Y733.501 Z5.500 I1.079 J-10.444 F1000
N796 G1 X440.283 Y656.955 Z5.500 F1000
N797 G2 X424.400 Y622.962 Z5.500 I-23.589 J-9.685 F1000
N798 G1 X309.320 Y586.480 Z5.500 F1000
N799 G3 X292.583 Y577.315 Z5.500 I14.959 J-47.185 F1000
N800 G3 X220.320 Y276.631 Z5.500 I165.785 J-198.868 F1000
N801 G2 X220.293 Y260.445 Z5.500 I-18.848 J-8.062 F1000
N802 G1 X186.906 Y183.102 Z5.500 F1000
N803 G2 X139.340 Y164.984 Z5.500 I-32.593 J14.070 F1000
N804 G1 X10.571 Y224.884 Z5.500 F1000
N805 G2 X4.500 Y234.408 Z5.500 I4.429 J9.520 F1000
N806 G1 X4.556 Y371.636 Z5.500 F1000
N807 G3 X4.056 Y372.136 Z5.500 I-0.500 J0.000 F1000
N808 G1 X3.556 Y372.136 Z5.500 F1000
N809 G1 X3.469 Y372.136 Z5.508 F1000
N810 G1 X3.385 Y372.136 Z5.530 F1000
N811 G1 X3.306 Y372.136 Z5.567 F1000
N812 G1 X3.235 Y372.136 Z5.617 F1000
N813 G1 X3.173 Y372.136 Z5.679 F1000
N814 G1 X3.123 Y372.137 Z5.750 F1000
N815 G1 X3.086 Y372.137 Z5.829 F1000
N816 G1 X3.064 Y372.137 Z5.913 F1000
N817 G1 X3.056 Y372.137 Z6.000 F1000
N818 G0 X3.056 Y372.137 Z14.500
N819 G0 X43.924 Y207.715 Z14.500
N820 G1 X43.924 Y207.715 Z10.500 F333.3
N821 G1 X43.924 Y207.715 Z8.500 F333.3
N822 G1 X43.927 Y207.722 Z8.413 F1000
N823 G1 X43.936 Y207.742 Z8.329 F1000
N824 G1 X43.952 Y207.775 Z8.250 F1000
N825 G1 X43.973 Y207.821 Z8.179 F1000
N826 G1 X43.999 Y207.877 Z8.117 F1000
N827 G1 X44.029 Y207.941 Z8.067 F1000
N828 G1 X44.062 Y208.013 Z8.030 F1000
N829 G1 X44.098 Y208.089 Z8.008 F1000
N830 G1 X44.135 Y208.168 Z8.000 F1000
N831 G1 X44.346 Y208.621 Z8.000 F1000
N832 G3 X44.103 Y209.286 Z8.000 I-0.453 J0.211 F1000
N833 G1 X10.571 Y224.884 Z6.709 F333.3
N834 G2 X4.500 Y234.408 Z6.292 I4.429 J9.520 F333.3
N835 G1 X4.556 Y371.636 Z1.500 F333.3
N836 G1 X4.686 Y689.839 Z1.500 F1000
N837 G2 X14.107 Y700.279 Z1.500 I10.500 J-0.004 F1000
N838 G1 X398.062 Y739.957 Z1.500 F1000
N839 G2 X408.854 Y733.501 Z1.500 I1.079 J-10.444 F1000
N840 G1 X440.283 Y656.955 Z1.500 F1000
N841 G2 X424.400 Y622.962 Z1.500 I-23.589 J-9.685 F1000
N842 G1 X309.320 Y586.480 Z1.500 F1000
N843 G3 X292.583 Y577.315 Z1.500 I14.959 J-47.185 F1000
N844 G3 X220.320 Y276.631 Z1.500 I165.785 J-198.868 F1000
N845 G2 X220.293 Y260.445 Z1.500 I-18.848 J-8.062 F1000
N846 G1 X186.906 Y183.102 Z1.500 F1000
N847 G2 X139.340 Y164.984 Z1.500 I-32.593 J14.070 F1000
N848 G1 X10.571 Y224.884 Z1.500 F1000
N849 G2 X4.500 Y234.408 Z1.500 I4.429 J9.520 F1000
N850 G1 X4.556 Y371.636 Z1.500 F1000
N851 G3 X4.056 Y372.136 Z1.500 I-0.500 J0.000 F1000
N852 G1 X3.556 Y372.136 Z1.500 F1000
N853 G1 X3.469 Y372.136 Z1.508 F1000
N854 G1 X3.385 Y372.136 Z1.530 F1000
N855 G1 X3.306 Y372.136 Z1.567 F1000
N856 G1 X3.235 Y372.136 Z1.617 F1000
N857 G1 X3.173 Y372.136 Z1.679 F1000
N858 G1 X3.123 Y372.137 Z1.750 F1000
N859 G1 X3.086 Y372.137 Z1.829 F1000
N860 G1 X3.064 Y372.137 Z1.913 F1000
N861 G1 X3.056 Y372.137 Z2.000 F1000
N862 G0 X3.056 Y372.137 Z14.500
N863 G0 X426.783 Y536.799 Z14.500
N864 G1 X426.783 Y536.799 Z10.500 F333.3
N865 G1 X426.783 Y536.799 Z8.500 F333.3
N866 G1 X426.780 Y536.792 Z8.413 F1000
N867 G1 X426.770 Y536.771 Z8.329 F1000
N868 G1 X426.755 Y536.738 Z8.250 F1000
N869 G1 X426.734 Y536.693 Z8.179 F1000
N870 G1 X426.708 Y536.637 Z8.117 F1000
N871 G1 X426.678 Y536.572 Z8.067 F1000
N872 G1 X426.644 Y536.500 Z8.030 F1000
N873 G1 X426.609 Y536.424 Z8.008 F1000
N874 G1 X426.572 Y536.345 Z8.000 F1000
N875 G1 X426.361 Y535.892 Z8.000 F1000
N876 G3 X426.604 Y535.228 Z8.000 I0.453 J-0.211 F1000
N877 G1 X460.135 Y519.630 Z6.709 F333.3
N878 G2 X466.206 Y510.106 Z6.292 I-4.429 J-9.520 F333.3
N879 G1 X466.150 Y372.877 Z1.500 F333.3
N880 G1 X466.020 Y54.674 Z1.500 F1000
N881 G2 X456.599 Y44.234 Z1.500 I-10.500 J0.004 F1000
N882 G1 X72.644 Y4.556 Z1.500 F1000
N883 G2 X61.851 Y11.012 Z1.500 I-1.079 J10.444 F1000
N884 G1 X30.423 Y87.558 Z1.500 F1000
N885 G2 X46.306 Y121.551 Z1.500 I23.589 J9.685 F1000
N886 G1 X161.386 Y158.033 Z1.500 F1000
N887 G3 X178.123 Y167.198 Z1.500 I-14.959 J47.186 F1000
N888 G3 X250.386 Y467.882 Z1.500 I-165.785 J198.868 F1000
N889 G2 X250.413 Y484.068 Z1.500 I18.848 J8.062 F1000
N890 G1 X283.800 Y561.411 Z1.500 F1000
N891 G2 X331.366 Y579.529 Z1.500 I32.593 J-14.070 F1000
N892 G1 X460.135 Y519.630 Z1.500 F1000
N893 G2 X466.206 Y510.106 Z1.500 I-4.429 J-9.520 F1000
N894 G1 X466.150 Y372.877 Z1.500 F1000
N895 G1 X466.020 Y54.674 Z-0.290 F333.3
N896 G2 X456.599 Y44.234 Z-0.376 I-10.500 J0.004 F333.3
N897 G1 X80.951 Y5.414 Z-2.500 F333.3
N898 G1 X72.644 Y4.556 Z-2.500 F1000
N899 G2 X61.851 Y11.012 Z-2.500 I-1.079 J10.444 F1000
N900 G1 X30.423 Y87.558 Z-2.500 F1000
N901 G2 X46.306 Y121.551 Z-2.500 I23.589 J9.685 F1000
N902 G1 X161.386 Y158.033 Z-2.500 F1000
N903 G3 X178.123 Y167.198 Z-2.500 I-14.959 J47.186 F1000
N904 G3 X250.386 Y467.882 Z-2.500 I-165.785 J198.868 F1000
N905 G2 X250.413 Y484.068 Z-2.500 I18.848 J8.062 F1000
N906 G1 X283.800 Y561.411 Z-2.500 F1000
N907 G2 X331.366 Y579.529 Z-2.500 I32.593 J-14.070 F1000
N908 G1 X460.135 Y519.630 Z-2.500 F1000
N909 G2 X466.206 Y510.106 Z-2.500 I-4.429 J-9.520 F1000
N910 G1 X466.020 Y54.674 Z-2.500 F1000
N911 G2 X456.599 Y44.234 Z-2.500 I-10.500 J0.004 F1000
N912 G1 X80.951 Y5.414 Z-2.500 F1000
N913 G3 X80.505 Y4.865 Z-2.500 I0.051 J-0.497 F1000
N914 G1 X80.556 Y4.368 Z-2.500 F1000
N915 G1 X80.565 Y4.282 Z-2.492 F1000
N916 G1 X80.574 Y4.198 Z-2.470 F1000
N917 G1 X80.582 Y4.119 Z-2.433 F1000
N918 G1 X80.589 Y4.048 Z-2.383 F1000
N919 G1 X80.596 Y3.987 Z-2.321 F1000
N920 G1 X80.601 Y3.937 Z-2.250 F1000
N921 G1 X80.605 Y3.901 Z-2.171 F1000
N922 G1 X80.607 Y3.878 Z-2.087 F1000
N923 G1 X80.608 Y3.871 Z-2.000 F1000
N924 G0 X80.608 Y3.871 Z14.500
N925 G0 X43.924 Y207.715 Z14.500
N926 G1 X43.924 Y207.715 Z6.500 F333.3
N927 G1 X43.924 Y207.715 Z4.500 F333.3
N928 G1 X43.927 Y207.722 Z4.413 F1000
N929 G1 X43.936 Y207.742 Z4.329 F1000
N930 G1 X43.952 Y207.775 Z4.250 F1000
N931 G1 X43.973 Y207.821 Z4.179 F1000
N932 G1 X43.999 Y207.877 Z4.117 F1000
N933 G1 X44.029 Y207.941 Z4.067 F1000
N934 G1 X44.062 Y208.013 Z4.030 F1000
N935 G1 X44.098 Y208.089 Z4.008 F1000
N936 G1 X44.135 Y208.168 Z4.000 F1000
N937 G1 X44.346 Y208.621 Z4.000 F1000
N938 G3 X44.103 Y209.286 Z4.000 I-0.453 J0.211 F1000
N939 G1 X10.571 Y224.884 Z2.709 F333.3
N940 G2 X4.500 Y234.408 Z2.292 I4.429 J9.520 F333.3
N941 G1 X4.556 Y371.636 Z-2.500 F333.3
N942 G1 X4.686 Y689.839 Z-2.500 F1000
N943 G2 X14.107 Y700.279 Z-2.500 I10.500 J-0.004 F1000
N944 G1 X398.062 Y739.957 Z-2.500 F1000
N945 G2 X408.854 Y733.501 Z-2.500 I1.079 J-10.444 F1000
N946 G1 X440.283 Y656.955 Z-2.500 F1000
N947 G2 X424.400 Y622.962 Z-2.500 I-23.589 J-9.685 F1000
N948 G1 X309.320 Y586.480 Z-2.500 F1000
N949 G3 X292.583 Y577.315 Z-2.500 I14.959 J-47.185 F1000
N950 G3 X220.320 Y276.631 Z-2.500 I165.785 J-198.868 F1000
N951 G2 X220.293 Y260.445 Z-2.500 I-18.848 J-8.062 F1000
N952 G1 X186.906 Y183.102 Z-2.500 F1000
N953 G2 X139.340 Y164.984 Z-2.500 I-32.593 J14.070 F1000
N954 G1 X10.571 Y224.884 Z-2.500 F1000
N955 G2 X4.500 Y234.408 Z-2.500 I4.429 J9.520 F1000
N956 G1 X4.556 Y371.636 Z-2.500 F1000
N957 G3 X4.056 Y372.136 Z-2.500 I-0.500 J0.000 F1000
N958 G1 X3.556 Y372.136 Z-2.500 F1000
N959 G1 X3.469 Y372.136 Z-2.492 F1000
N960 G1 X3.385 Y372.136 Z-2.470 F1000
N961 G1 X3.306 Y372.136 Z-2.433 F1000
N962 G1 X3.235 Y372.136 Z-2.383 F1000
N963 G1 X3.173 Y372.136 Z-2.321 F1000
N964 G1 X3.123 Y372.137 Z-2.250 F1000
N965 G1 X3.086 Y372.137 Z-2.171 F1000
N966 G1 X3.064 Y372.137 Z-2.087 F1000
N967 G1 X3.056 Y372.137 Z-2.000 F1000
N968 G0 X3.056 Y372.137 Z14.500
N969 G0 X43.924 Y207.715 Z14.500
N970 G1 X43.924 Y207.715 Z2.500 F333.3
N971 G1 X43.924 Y207.715 Z0.500 F333.3
N972 G1 X43.927 Y207.722 Z0.413 F1000
N973 G1 X43.936 Y207.742 Z0.329 F1000
N974 G1 X43.952 Y207.775 Z0.250 F1000
N975 G1 X43.973 Y207.821 Z0.179 F1000
N976 G1 X43.999 Y207.877 Z0.117 F1000
N977 G1 X44.029 Y207.941 Z0.067 F1000
N978 G1 X44.062 Y208.013 Z0.030 F1000
N979 G1 X44.098 Y208.089 Z0.008 F1000
N980 G1 X44.135 Y208.168 Z0.000 F1000
N981 G1 X44.346 Y208.621 Z0.000 F1000
N982 G3 X44.103 Y209.286 Z0.000 I-0.453 J0.211 F1000
N983 G1 X10.571 Y224.884 Z-1.291 F333.3
N984 G2 X4.500 Y234.408 Z-1.708 I4.429 J9.520 F333.3
N985 G1 X4.556 Y371.636 Z-6.500 F333.3
N986 G1 X4.686 Y689.839 Z-6.500 F1000
N987 G2 X14.107 Y700.279 Z-6.500 I10.500 J-0.004 F1000
N988 G1 X398.062 Y739.957 Z-6.500 F1000
N989 G2 X408.854 Y733.501 Z-6.500 I1.079 J-10.444 F1000
N990 G1 X440.283 Y656.955 Z-6.500 F1000
N991 G2 X424.400 Y622.962 Z-6.500 I-23.589 J-9.685 F1000
N992 G1 X309.320 Y586.480 Z-6.500 F1000
N993 G3 X292.583 Y577.315 Z-6.500 I14.959 J-47.185 F1000
N994 G3 X220.320 Y276.631 Z-6.500 I165.785 J-198.868 F1000
N995 G2 X220.293 Y260.445 Z-6.500 I-18.848 J-8.062 F1000
N996 G1 X186.906 Y183.102 Z-6.500 F1000
N997 G2 X139.340 Y164.984 Z-6.500 I-32.593 J14.070 F1000
N998 G1 X10.571 Y224.884 Z-6.500 F1000
N999 G2 X4.500 Y234.408 Z-6.500 I4.429 J9.520 F1000
N1000 G1 X4.556 Y371.636 Z-6.500 F1000
N1001 G3 X4.056 Y372.136 Z-6.500 I-0.500 J0.000 F1000
N1002 G1 X3.556 Y372.136 Z-6.500 F1000
N1003 G1 X3.469 Y372.136 Z-6.492 F1000
N1004 G1 X3.385 Y372.136 Z-6.470 F1000
N1005 G1 X3.306 Y372.136 Z-6.433 F1000
N1006 G1 X3.235 Y372.136 Z-6.383 F1000
N1007 G1 X3.173 Y372.136 Z-6.321 F1000
N1008 G1 X3.123 Y372.137 Z-6.250 F1000
N1009 G1 X3.086 Y372.137 Z-6.171 F1000
N1010 G1 X3.064 Y372.137 Z-6.087 F1000
N1011 G1 X3.056 Y372.137 Z-6.000 F1000
N1012 G0 X3.056 Y372.137 Z14.500
N1013 G0 X426.783 Y536.799 Z14.500
N1014 G1 X426.783 Y536.799 Z2.500 F333.3
N1015 G1 X426.783 Y536.799 Z0.500 F333.3
N1016 G1 X426.780 Y536.792 Z0.413 F1000
N1017 G1 X426.770 Y536.771 Z0.329 F1000
N1018 G1 X426.755 Y536.738 Z0.250 F1000
N1019 G1 X426.734 Y536.693 Z0.179 F1000
N1020 G1 X426.708 Y536.637 Z0.117 F1000
N1021 G1 X426.678 Y536.572 Z0.067 F1000
N1022 G1 X426.644 Y536.500 Z0.030 F1000
N1023 G1 X426.609 Y536.424 Z0.008 F1000
N1024 G1 X426.572 Y536.345 Z0.000 F1000
N1025 G1 X426.361 Y535.892 Z0.000 F1000
N1026 G3 X426.604 Y535.228 Z0.000 I0.453 J-0.211 F1000
N1027 G1 X460.135 Y519.630 Z-1.291 F333.3
N1028 G2 X466.206 Y510.106 Z-1.708 I-4.429 J-9.520 F333.3
N1029 G1 X466.150 Y372.877 Z-6.500 F333.3
N1030 G1 X466.020 Y54.674 Z-6.500 F1000
N1031 G2 X456.599 Y44.234 Z-6.500 I-10.500 J0.004 F1000
N1032 G1 X72.644 Y4.556 Z-6.500 F1000
N1033 G2 X61.851 Y11.012 Z-6.500 I-1.079 J10.444 F1000
N1034 G1 X30.423 Y87.558 Z-6.500 F1000
N1035 G2 X46.306 Y121.551 Z-6.500 I23.589 J9.685 F1000
N1036 G1 X161.386 Y158.033 Z-6.500 F1000
N1037 G3 X178.123 Y167.198 Z-6.500 I-14.959 J47.186 F1000
N1038 G3 X250.386 Y467.882 Z-6.500 I-165.785 J198.868 F1000
N1039 G2 X250.413 Y484.068 Z-6.500 I18.848 J8.062 F1000
N1040 G1 X283.800 Y561.411 Z-6.500 F1000
N1041 G2 X331.366 Y579.529 Z-6.500 I32.593 J-14.070 F1000
N1042 G1 X460.135 Y519.630 Z-6.500 F1000
N1043 G2 X466.206 Y510.106 Z-6.500 I-4.429 J-9.520 F1000
N1044 G1 X466.150 Y372.877 Z-6.500 F1000
N1045 G1 X466.020 Y54.674 Z-8.290 F333.3
N1046 G2 X456.599 Y44.234 Z-8.376 I-10.500 J0.004 F333.3
N1047 G1 X397.580 Y38.134 Z-8.710 F333.3
N1048 G1 X397.580 Y38.134 Z-8.250 F333.3
N1049 G1 X387.633 Y37.107 Z-8.250 F333.3
N1050 G1 X387.633 Y37.107 Z-8.766 F333.3
N1051 G1 X269.595 Y24.909 Z-9.433 F333.3
N1052 G1 X269.595 Y24.909 Z-8.250 F333.3
N1053 G1 X259.648 Y23.881 Z-8.250 F333.3
N1054 G1 X259.648 Y23.881 Z-9.490 F333.3
N1055 G1 X257.824 Y23.692 Z-9.500 F333.3
N1056 G1 X141.610 Y11.683 Z-9.500 F1000
N1057 G1 X141.610 Y11.683 Z-8.250 F1000
N1058 G1 X131.663 Y10.655 Z-8.250 F1000
N1059 G1 X131.663 Y10.655 Z-9.500 F333.3
N1060 G1 X72.644 Y4.556 Z-9.500 F1000
N1061 G2 X61.851 Y11.012 Z-9.500 I-1.079 J10.444 F1000
N1062 G1 X30.423 Y87.558 Z-9.500 F1000
N1063 G2 X46.306 Y121.551 Z-9.500 I23.589 J9.685 F1000
N1064 G1 X99.080 Y138.281 Z-9.500 F1000
N1065 G1 X99.080 Y138.281 Z-8.250 F1000
N1066 G1 X108.612 Y141.303 Z-8.250 F1000
N1067 G1 X108.612 Y141.303 Z-9.500 F333.3
N1068 G1 X161.386 Y158.033 Z-9.500 F1000
N1069 G3 X178.123 Y167.198 Z-9.500 I-14.959 J47.186 F1000
N1070 G3 X213.357 Y202.895 Z-9.500 I-165.785 J198.868 F1000
N1071 G1 X213.357 Y202.895 Z-8.250 F1000
N1072 G3 X219.508 Y210.780 Z-8.250 I-201.019 J163.171 F1000
N1073 G1 X219.508 Y210.780 Z-9.500 F333.3
N1074 G3 X262.863 Y300.716 Z-9.500 I-207.170 J155.286 F1000
N1075 G1 X262.863 Y300.716 Z-8.250 F1000
N1076 G3 X265.200 Y310.439 Z-8.250 I-250.525 J65.350 F1000
N1077 G1 X265.200 Y310.439 Z-9.500 F333.3
N1078 G3 X267.447 Y410.255 Z-9.500 I-252.862 J55.627 F1000
N1079 G1 X267.447 Y410.255 Z-8.250 F1000
N1080 G3 X265.550 Y420.074 Z-8.250 I-255.109 J-44.189 F1000
N1081 G1 X265.550 Y420.074 Z-9.500 F333.3
N1082 G3 X250.386 Y467.882 Z-9.500 I-253.212 J-54.008 F1000
N1083 G2 X250.413 Y484.068 Z-9.500 I18.848 J8.062 F1000
N1084 G1 X283.800 Y561.411 Z-9.500 F1000
N1085 G2 X331.366 Y579.529 Z-9.500 I32.593 J-14.070 F1000
N1086 G1 X391.216 Y551.689 Z-9.500 F1000
N1087 G1 X391.216 Y551.689 Z-8.250 F1000
N1088 G1 X400.283 Y547.471 Z-8.250 F1000
N1089 G1 X400.283 Y547.471 Z-9.500 F333.3
N1090 G1 X460.135 Y519.630 Z-9.500 F1000
N1091 G2 X466.206 Y510.106 Z-9.500 I-4.429 J-9.520 F1000
N1092 G1 X466.185 Y458.177 Z-9.500 F1000
N1093 G1 X466.185 Y458.177 Z-8.250 F1000
N1094 G1 X466.181 Y448.177 Z-8.250 F1000
N1095 G1 X466.181 Y448.177 Z-9.500 F333.3
N1096 G1 X466.138 Y344.319 Z-9.500 F1000
N1097 G1 X466.138 Y344.319 Z-8.250 F1000
N1098 G1 X466.134 Y334.319 Z-8.250 F1000
N1099 G1 X466.134 Y334.319 Z-9.500 F333.3
N1100 G1 X466.092 Y230.461 Z-9.500 F1000
N1101 G1 X466.092 Y230.461 Z-8.250 F1000
N1102 G1 X466.088 Y220.461 Z-8.250 F1000
N1103 G1 X466.088 Y220.461 Z-9.500 F333.3
N1104 G1 X466.045 Y116.603 Z-9.500 F1000
N1105 G1 X466.045 Y116.603 Z-8.250 F1000
N1106 G1 X466.041 Y106.603 Z-8.250 F1000
N1107 G1 X466.041 Y106.603 Z-9.500 F333.3
N1108 G1 X466.020 Y54.674 Z-9.500 F1000
N1109 G2 X456.599 Y44.234 Z-9.500 I-10.500 J0.004 F1000
N1110 G1 X397.580 Y38.134 Z-9.500 F1000
N1111 G1 X397.580 Y38.134 Z-8.250 F1000
N1112 G1 X387.633 Y37.107 Z-8.250 F1000
N1113 G1 X387.633 Y37.107 Z-9.500 F333.3
N1114 G1 X269.595 Y24.909 Z-9.500 F1000
N1115 G1 X269.595 Y24.909 Z-8.250 F1000
N1116 G1 X259.648 Y23.881 Z-8.250 F1000
N1117 G1 X259.648 Y23.881 Z-9.500 F333.3
N1118 G1 X257.824 Y23.692 Z-9.500 F1000
N1119 G3 X257.378 Y23.143 Z-9.500 I0.051 J-0.497 F1000
N1120 G1 X257.429 Y22.646 Z-9.500 F1000
N1121 G1 X257.438 Y22.560 Z-9.492 F1000
N1122 G1 X257.447 Y22.476 Z-9.470 F1000
N1123 G1 X257.455 Y22.397 Z-9.433 F1000
N1124 G1 X257.462 Y22.326 Z-9.383 F1000
N1125 G1 X257.469 Y22.265 Z-9.321 F1000
N1126 G1 X257.474 Y22.215 Z-9.250 F1000
N1127 G1 X257.478 Y22.179 Z-9.171 F1000
N1128 G1 X257.480 Y22.156 Z-9.087 F1000
N1129 G1 X257.481 Y22.149 Z-9.000 F1000
N1130 G0 X257.481 Y22.149 Z14.500
N1131 G0 X17.959 Y219.793 Z14.500
N1132 G1 X17.959 Y219.793 Z-1.500 F333.3
N1133 G1 X17.959 Y219.793 Z-3.500 F333.3
N1134 G1 X17.962 Y219.800 Z-3.587 F1000
N1135 G1 X17.972 Y219.820 Z-3.671 F1000
N1136 G1 X17.987 Y219.853 Z-3.750 F1000
N1137 G1 X18.009 Y219.899 Z-3.821 F1000
N1138 G1 X18.035 Y219.955 Z-3.883 F1000
N1139 G1 X18.065 Y220.019 Z-3.933 F1000
N1140 G1 X18.098 Y220.091 Z-3.970 F1000
N1141 G1 X18.133 Y220.167 Z-3.992 F1000
N1142 G1 X18.170 Y220.246 Z-4.000 F1000
N1143 G1 X18.381 Y220.699 Z-4.000 F1000
N1144 G3 X18.139 Y221.364 Z-4.000 I-0.453 J0.211 F1000
N1145 G1 X10.571 Y224.884 Z-4.291 F333.3
N1146 G2 X4.500 Y234.408 Z-4.708 I4.429 J9.520 F333.3
N1147 G1 X4.556 Y371.636 Z-9.500 F333.3
N1148 G1 X4.568 Y400.194 Z-9.500 F1000
N1149 G1 X4.568 Y400.194 Z-8.250 F1000
N1150 G1 X4.572 Y410.194 Z-8.250 F1000
N1151 G1 X4.572 Y410.194 Z-9.500 F333.3
N1152 G1 X4.614 Y514.052 Z-9.500 F1000
N1153 G1 X4.614 Y514.052 Z-8.250 F1000
N1154 G1 X4.618 Y524.052 Z-8.250 F1000
N1155 G1 X4.618 Y524.052 Z-9.500 F333.3
N1156 G1 X4.661 Y627.910 Z-9.500 F1000
N1157 G1 X4.661 Y627.910 Z-8.250 F1000
N1158 G1 X4.665 Y637.910 Z-8.250 F1000
N1159 G1 X4.665 Y637.910 Z-9.500 F333.3
N1160 G1 X4.686 Y689.839 Z-9.500 F1000
N1161 G2 X14.107 Y700.279 Z-9.500 I10.500 J-0.004 F1000
N1162 G1 X73.126 Y706.378 Z-9.500 F1000
N1163 G1 X73.126 Y706.378 Z-8.250 F1000
N1164 G1 X83.073 Y707.406 Z-8.250 F1000
N1165 G1 X83.073 Y707.406 Z-9.500 F333.3
N1166 G1 X201.111 Y719.604 Z-9.500 F1000
N1167 G1 X201.111 Y719.604 Z-8.250 F1000
N1168 G1 X211.058 Y720.632 Z-8.250 F1000
N1169 G1 X211.058 Y720.632 Z-9.500 F333.3
N1170 G1 X329.096 Y732.830 Z-9.500 F1000
N1171 G1 X329.096 Y732.830 Z-8.250 F1000
N1172 G1 X339.043 Y733.858 Z-8.250 F1000
N1173 G1 X339.043 Y733.858 Z-9.500 F333.3
N1174 G1 X398.062 Y739.957 Z-9.500 F1000
N1175 G2 X408.854 Y733.501 Z-9.500 I1.079 J-10.444 F1000
N1176 G1 X440.283 Y656.955 Z-9.500 F1000
N1177 G2 X424.400 Y622.962 Z-9.500 I-23.589 J-9.685 F1000
N1178 G1 X371.626 Y606.232 Z-9.500 F1000
N1179 G1 X371.626 Y606.232 Z-8.250 F1000
N1180 G1 X362.094 Y603.210 Z-8.250 F1000
N1181 G1 X362.094 Y603.210 Z-9.500 F333.3
N1182 G1 X309.320 Y586.480 Z-9.500 F1000
N1183 G3 X292.583 Y577.315 Z-9.500 I14.959 J-47.185 F1000
N1184 G3 X257.349 Y541.618 Z-9.500 I165.785 J-198.868 F1000
N1185 G1 X257.349 Y541.618 Z-8.250 F1000
N1186 G3 X251.198 Y533.733 Z-8.250 I201.019 J-163.171 F1000
N1187 G1 X251.198 Y533.733 Z-9.500 F333.3
N1188 G3 X207.843 Y443.797 Z-9.500 I207.170 J-155.286 F1000
N1189 G1 X207.843 Y443.797 Z-8.250 F1000
N1190 G3 X205.506 Y434.073 Z-8.250 I250.525 J-65.350 F1000
N1191 G1 X205.506 Y434.073 Z-9.500 F333.3
N1192 G3 X203.259 Y334.258 Z-9.500 I252.862 J-55.626 F1000
N1193 G1 X203.259 Y334.258 Z-8.250 F1000
N1194 G3 X205.156 Y324.440 Z-8.250 I255.109 J44.189 F1000
N1195 G1 X205.156 Y324.440 Z-9.500 F333.3
N1196 G3 X220.320 Y276.631 Z-9.500 I253.212 J54.007 F1000
N1197 G2 X220.293 Y260.445 Z-9.500 I-18.848 J-8.062 F1000
N1198 G1 X186.906 Y183.102 Z-9.500 F1000
N1199 G2 X139.340 Y164.984 Z-9.500 I-32.593 J14.070 F1000
N1200 G1 X79.489 Y192.825 Z-9.500 F1000
N1201 G1 X79.489 Y192.825 Z-8.250 F1000
N1202 G1 X70.422 Y197.043 Z-8.250 F1000
N1203 G1 X70.422 Y197.043 Z-9.500 F333.3
N1204 G1 X10.571 Y224.884 Z-9.500 F1000
N1205 G2 X4.500 Y234.408 Z-9.500 I4.429 J9.520 F1000
N1206 G1 X4.521 Y286.337 Z-9.500 F1000
N1207 G1 X4.521 Y286.337 Z-8.250 F1000
N1208 G1 X4.525 Y296.337 Z-8.250 F1000
N1209 G1 X4.525 Y296.337 Z-9.500 F333.3
N1210 G1 X4.556 Y371.636 Z-9.500 F1000
N1211 G3 X4.056 Y372.136 Z-9.500 I-0.500 J0.000 F1000
N1212 G1 X3.556 Y372.136 Z-9.500 F1000
N1213 G1 X3.469 Y372.136 Z-9.492 F1000
N1214 G1 X3.385 Y372.136 Z-9.470 F1000
N1215 G1 X3.306 Y372.136 Z-9.433 F1000
N1216 G1 X3.235 Y372.136 Z-9.383 F1000
N1217 G1 X3.173 Y372.136 Z-9.321 F1000
N1218 G1 X3.123 Y372.137 Z-9.250 F1000
N1219 G1 X3.086 Y372.137 Z-9.171 F1000
N1220 G1 X3.064 Y372.137 Z-9.087 F1000
N1221 G1 X3.056 Y372.137 Z-9.000 F1000
N1222 G0 X3.056 Y372.137 Z24.500


(2D Contorno 4)
N1223 G0 X265.260 Y542.536 Z24.500
N1224 G0 X265.260 Y542.536 Z24.500
N1225 G0 X265.260 Y542.536 Z14.500
N1226 G1 X265.260 Y542.536 Z12.500 F333.3
N1227 G1 X265.254 Y542.541 Z12.413 F1000
N1228 G1 X265.237 Y542.555 Z12.329 F1000
N1229 G1 X265.209 Y542.579 Z12.250 F1000
N1230 G1 X265.171 Y542.612 Z12.179 F1000
N1231 G1 X265.124 Y542.651 Z12.117 F1000
N1232 G1 X265.069 Y542.698 Z12.067 F1000
N1233 G1 X265.009 Y542.749 Z12.030 F1000
N1234 G1 X264.945 Y542.803 Z12.008 F1000
N1235 G1 X264.878 Y542.859 Z12.000 F1000
N1236 G1 X264.497 Y543.182 Z12.000 F1000
N1237 G3 X263.792 Y543.123 Z12.000 I-0.323 J-0.382 F1000
N1238 G3 X203.559 Y371.350 Z5.500 I194.576 J-164.676 F333.3
N1239 G3 X223.998 Y278.204 Z5.500 I254.809 J7.097 F1000
N1240 G2 X223.966 Y258.859 Z5.500 I-22.526 J-9.635 F1000
N1241 G1 X192.323 Y185.557 Z5.500 F1000
N1242 G3 X246.708 Y466.309 Z5.500 I-179.985 J180.509 F1000
N1243 G2 X246.740 Y485.654 Z5.500 I22.526 J9.635 F1000
N1244 G1 X278.383 Y558.956 Z5.500 F1000
N1245 G3 X203.559 Y371.350 Z5.500 I179.985 J-180.509 F1000
N1246 G3 X223.998 Y278.204 Z4.311 I254.809 J7.097 F333.3
N1247 G2 X223.966 Y258.859 Z4.064 I-22.526 J-9.635 F333.3
N1248 G1 X192.323 Y185.557 Z3.074 F333.3
N1249 G3 X256.704 Y293.515 Z1.500 I-179.985 J180.509 F333.3
N1250 G3 X246.708 Y466.309 Z1.500 I-244.366 J72.550 F1000
N1251 G2 X246.740 Y485.654 Z1.500 I22.526 J9.635 F1000
N1252 G1 X278.383 Y558.956 Z1.500 F1000
N1253 G3 X223.998 Y278.204 Z1.500 I179.985 J-180.509 F1000
N1254 G2 X223.966 Y258.859 Z1.500 I-22.526 J-9.635 F1000
N1255 G1 X192.323 Y185.557 Z1.500 F1000
N1256 G3 X256.704 Y293.515 Z1.500 I-179.985 J180.509 F1000
N1257 G3 X246.708 Y466.309 Z-0.689 I-244.366 J72.550 F333.3
N1258 G2 X246.740 Y485.654 Z-0.936 I22.526 J9.635 F333.3
N1259 G1 X278.383 Y558.956 Z-1.926 F333.3
N1260 G3 X248.713 Y523.440 Z-2.500 I179.985 J-180.509 F333.3
N1261 G3 X223.998 Y278.204 Z-2.500 I209.655 J-144.993 F1000
N1262 G2 X223.966 Y258.859 Z-2.500 I-22.526 J-9.635 F1000
N1263 G1 X192.323 Y185.557 Z-2.500 F1000
N1264 G3 X246.708 Y466.309 Z-2.500 I-179.985 J180.509 F1000
N1265 G2 X246.740 Y485.654 Z-2.500 I22.526 J9.635 F1000
N1266 G1 X278.383 Y558.956 Z-2.500 F1000
N1267 G3 X248.713 Y523.440 Z-2.500 I179.985 J-180.509 F1000
N1268 G3 X223.998 Y278.204 Z-5.689 I209.655 J-144.993 F333.3
N1269 G2 X223.966 Y258.859 Z-5.936 I-22.526 J-9.635 F333.3
N1270 G1 X205.926 Y217.069 Z-6.500 F333.3
N1271 G1 X192.323 Y185.557 Z-6.500 F1000
N1272 G3 X246.708 Y466.309 Z-6.500 I-179.985 J180.509 F1000
N1273 G2 X246.740 Y485.654 Z-6.500 I22.526 J9.635 F1000
N1274 G1 X278.383 Y558.956 Z-6.500 F1000
N1275 G3 X223.998 Y278.204 Z-6.500 I179.985 J-180.509 F1000
N1276 G2 X223.966 Y258.859 Z-6.500 I-22.526 J-9.635 F1000
N1277 G1 X205.926 Y217.069 Z-6.500 F1000
N1278 G1 X192.323 Y185.557 Z-6.926 F333.3
N1279 G3 X258.973 Y301.651 Z-8.605 I-179.985 J180.509 F333.3
N1280 G1 X258.973 Y301.651 Z-8.250 F333.3
N1281 G3 X261.310 Y311.374 Z-8.250 I-246.635 J64.415 F333.3
N1282 G1 X261.310 Y311.374 Z-8.729 F333.3
N1283 G3 X267.147 Y373.163 Z-9.500 I-248.972 J54.692 F333.3
N1284 G3 X263.519 Y409.496 Z-9.500 I-254.809 J-7.097 F1000
N1285 G1 X263.519 Y409.496 Z-8.250 F1000
N1286 G3 X261.622 Y419.315 Z-8.250 I-251.181 J-43.430 F1000
N1287 G1 X261.622 Y419.315 Z-9.500 F333.3
N1288 G3 X246.708 Y466.309 Z-9.500 I-249.284 J-53.249 F1000
N1289 G2 X246.740 Y485.654 Z-9.500 I22.526 J9.635 F1000
N1290 G1 X278.383 Y558.956 Z-9.500 F1000
N1291 G3 X260.503 Y539.157 Z-9.500 I179.985 J-180.509 F1000
N1292 G1 X260.503 Y539.157 Z-8.250 F1000
N1293 G3 X254.352 Y531.273 Z-8.250 I197.865 J-160.710 F1000
N1294 G1 X254.352 Y531.273 Z-9.500 F333.3
N1295 G3 X211.733 Y442.862 Z-9.500 I204.016 J-152.826 F1000
N1296 G1 X211.733 Y442.862 Z-8.250 F1000
N1297 G3 X209.396 Y433.139 Z-8.250 I246.635 J-64.415 F1000
N1298 G1 X209.396 Y433.139 Z-9.500 F333.3
N1299 G3 X207.187 Y335.017 Z-9.500 I248.972 J-54.691 F1000
N1300 G1 X207.187 Y335.017 Z-8.250 F1000
N1301 G3 X209.084 Y325.198 Z-8.250 I251.181 J43.430 F1000
N1302 G1 X209.084 Y325.198 Z-9.500 F333.3
N1303 G3 X223.998 Y278.204 Z-9.500 I249.284 J53.249 F1000
N1304 G2 X223.966 Y258.859 Z-9.500 I-22.526 J-9.635 F1000
N1305 G1 X192.323 Y185.557 Z-9.500 F1000
N1306 G3 X210.203 Y205.356 Z-9.500 I-179.985 J180.509 F1000
N1307 G1 X210.203 Y205.356 Z-8.250 F1000
N1308 G3 X216.354 Y213.240 Z-8.250 I-197.865 J160.710 F1000
N1309 G1 X216.354 Y213.240 Z-9.500 F333.3
N1310 G3 X258.973 Y301.651 Z-9.500 I-204.016 J152.825 F1000
N1311 G1 X258.973 Y301.651 Z-8.250 F1000
N1312 G3 X261.310 Y311.374 Z-8.250 I-246.635 J64.415 F1000
N1313 G1 X261.310 Y311.374 Z-9.500 F333.3
N1314 G3 X267.147 Y373.163 Z-9.500 I-248.972 J54.692 F1000
N1315 G3 X266.633 Y373.649 Z-9.500 I-0.500 J-0.014 F1000
N1316 G1 X266.134 Y373.635 Z-9.500 F1000
N1317 G1 X266.047 Y373.633 Z-9.492 F1000
N1318 G1 X265.963 Y373.630 Z-9.470 F1000
N1319 G1 X265.884 Y373.628 Z-9.433 F1000
N1320 G1 X265.812 Y373.626 Z-9.383 F1000
N1321 G1 X265.751 Y373.624 Z-9.321 F1000
N1322 G1 X265.701 Y373.623 Z-9.250 F1000
N1323 G1 X265.664 Y373.622 Z-9.171 F1000
N1324 G1 X265.641 Y373.621 Z-9.087 F1000
N1325 G1 X265.634 Y373.621 Z-9.000 F1000
N1326 G0 X265.634 Y373.621 Z14.500
N1327 G0 X38.117 Y206.004 Z14.500
N1328 G1 X38.117 Y206.004 Z12.500 F333.3
N1329 G1 X38.121 Y206.011 Z12.413 F1000
N1330 G1 X38.130 Y206.031 Z12.329 F1000
N1331 G1 X38.146 Y206.065 Z12.250 F1000
N1332 G1 X38.167 Y206.110 Z12.179 F1000
N1333 G1 X38.193 Y206.166 Z12.117 F1000
N1334 G1 X38.223 Y206.231 Z12.067 F1000
N1335 G1 X38.256 Y206.302 Z12.030 F1000
N1336 G1 X38.292 Y206.379 Z12.008 F1000
N1337 G1 X38.328 Y206.457 Z12.000 F1000
N1338 G1 X38.539 Y206.911 Z12.000 F1000
N1339 G3 X38.297 Y207.575 Z12.000 I-0.453 J0.211 F1000
N1340 G1 X8.884 Y221.257 Z10.867 F333.3
N1341 G2 X0.500 Y234.410 Z10.292 I6.116 J13.147 F333.3
N1342 G1 X0.556 Y371.638 Z5.500 F333.3
N1343 G1 X0.686 Y689.841 Z5.500 F1000
N1344 G2 X13.696 Y704.258 Z5.500 I14.500 J-0.006 F1000
N1345 G1 X397.651 Y743.936 Z5.500 F1000
N1346 G2 X412.554 Y735.020 Z5.500 I1.490 J-14.423 F1000
N1347 G1 X443.983 Y658.474 Z5.500 F1000
N1348 G2 X425.609 Y619.149 Z5.500 I-27.289 J-11.205 F1000
N1349 G1 X322.298 Y586.398 Z5.500 F1000
N1350 G2 X333.053 Y583.156 Z5.500 I-5.905 J-39.056 F1000
N1351 G1 X461.822 Y523.257 Z5.500 F1000
N1352 G2 X470.206 Y510.104 Z5.500 I-6.116 J-13.147 F1000
N1353 G1 X470.020 Y54.672 Z5.500 F1000
N1354 G2 X457.010 Y40.255 Z5.500 I-14.500 J0.006 F1000
N1355 G1 X73.055 Y0.577 Z5.500 F1000
N1356 G2 X58.151 Y9.493 Z5.500 I-1.490 J14.423 F1000
N1357 G1 X26.722 Y86.039 Z5.500 F1000
N1358 G2 X45.097 Y125.364 Z5.500 I27.289 J11.204 F1000
N1359 G1 X148.408 Y158.115 Z5.500 F1000
N1360 G2 X137.653 Y161.357 Z5.500 I5.905 J39.056 F1000
N1361 G1 X8.884 Y221.257 Z5.500 F1000
N1362 G2 X0.500 Y234.410 Z5.500 I6.116 J13.147 F1000
N1363 G1 X0.556 Y371.638 Z5.500 F1000
N1364 G1 X0.686 Y689.841 Z4.268 F333.3
N1365 G2 X13.696 Y704.258 Z4.185 I14.500 J-0.006 F333.3
N1366 G1 X397.651 Y743.936 Z2.690 F333.3
N1367 G2 X412.554 Y735.020 Z2.618 I1.490 J-14.423 F333.3
N1368 G1 X443.983 Y658.474 Z2.298 F333.3
N1369 G2 X425.609 Y619.149 Z2.109 I-27.289 J-11.205 F333.3
N1370 G1 X322.298 Y586.398 Z1.689 F333.3
N1371 G2 X333.053 Y583.156 Z1.645 I-5.905 J-39.056 F333.3
N1372 G1 X367.071 Y567.332 Z1.500 F333.3
N1373 G1 X461.822 Y523.257 Z1.500 F1000
N1374 G2 X470.206 Y510.104 Z1.500 I-6.116 J-13.147 F1000
N1375 G1 X470.020 Y54.672 Z1.500 F1000
N1376 G2 X457.010 Y40.255 Z1.500 I-14.500 J0.006 F1000
N1377 G1 X73.055 Y0.577 Z1.500 F1000
N1378 G2 X58.151 Y9.493 Z1.500 I-1.490 J14.423 F1000
N1379 G1 X26.722 Y86.039 Z1.500 F1000
N1380 G2 X45.097 Y125.364 Z1.500 I27.289 J11.204 F1000
N1381 G1 X148.408 Y158.115 Z1.500 F1000
N1382 G2 X137.653 Y161.357 Z1.500 I5.905 J39.056 F1000
N1383 G1 X8.884 Y221.257 Z1.500 F1000
N1384 G2 X0.500 Y234.410 Z1.500 I6.116 J13.147 F1000
N1385 G1 X0.686 Y689.841 Z1.500 F1000
N1386 G2 X13.696 Y704.258 Z1.500 I14.500 J-0.006 F1000
N1387 G1 X397.651 Y743.936 Z1.500 F1000
N1388 G2 X412.554 Y735.020 Z1.500 I1.490 J-14.423 F1000
N1389 G1 X443.983 Y658.474 Z1.500 F1000
N1390 G2 X425.609 Y619.149 Z1.500 I-27.289 J-11.205 F1000
N1391 G1 X322.298 Y586.398 Z1.500 F1000
N1392 G2 X333.053 Y583.156 Z1.500 I-5.905 J-39.056 F1000
N1393 G1 X367.071 Y567.332 Z1.500 F1000
N1394 G1 X461.822 Y523.257 Z1.095 F333.3
N1395 G2 X470.206 Y510.104 Z1.031 I-6.116 J-13.147 F333.3
N1396 G1 X470.020 Y54.672 Z-0.732 F333.3
N1397 G2 X457.010 Y40.255 Z-0.815 I-14.500 J0.006 F333.3
N1398 G1 X73.055 Y0.577 Z-2.310 F333.3
N1399 G2 X58.151 Y9.493 Z-2.382 I-1.490 J14.423 F333.3
N1400 G1 X46.570 Y37.700 Z-2.500 F333.3
N1401 G1 X26.722 Y86.039 Z-2.500 F1000
N1402 G2 X45.097 Y125.364 Z-2.500 I27.289 J11.204 F1000
N1403 G1 X148.408 Y158.115 Z-2.500 F1000
N1404 G2 X137.653 Y161.357 Z-2.500 I5.905 J39.056 F1000
N1405 G1 X8.884 Y221.257 Z-2.500 F1000
N1406 G2 X0.500 Y234.410 Z-2.500 I6.116 J13.147 F1000
N1407 G1 X0.686 Y689.841 Z-2.500 F1000
N1408 G2 X13.696 Y704.258 Z-2.500 I14.500 J-0.006 F1000
N1409 G1 X397.651 Y743.936 Z-2.500 F1000
N1410 G2 X412.554 Y735.020 Z-2.500 I1.490 J-14.423 F1000
N1411 G1 X443.983 Y658.474 Z-2.500 F1000
N1412 G2 X425.609 Y619.149 Z-2.500 I-27.289 J-11.205 F1000
N1413 G1 X322.298 Y586.398 Z-2.500 F1000
N1414 G2 X333.053 Y583.156 Z-2.500 I-5.905 J-39.056 F1000
N1415 G1 X461.822 Y523.257 Z-2.500 F1000
N1416 G2 X470.206 Y510.104 Z-2.500 I-6.116 J-13.147 F1000
N1417 G1 X470.020 Y54.672 Z-2.500 F1000
N1418 G2 X457.010 Y40.255 Z-2.500 I-14.500 J0.006 F1000
N1419 G1 X73.055 Y0.577 Z-2.500 F1000
N1420 G2 X58.151 Y9.493 Z-2.500 I-1.490 J14.423 F1000
N1421 G1 X46.570 Y37.700 Z-2.500 F1000
N1422 G1 X26.722 Y86.039 Z-2.702 F333.3
N1423 G2 X45.097 Y125.364 Z-2.891 I27.289 J11.204 F333.3
N1424 G1 X148.408 Y158.115 Z-3.311 F333.3
N1425 G2 X137.653 Y161.357 Z-3.355 I5.905 J39.056 F333.3
N1426 G1 X8.884 Y221.257 Z-3.905 F333.3
N1427 G2 X0.500 Y234.410 Z-3.969 I6.116 J13.147 F333.3
N1428 G1 X0.686 Y689.841 Z-5.732 F333.3
N1429 G2 X13.696 Y704.258 Z-5.815 I14.500 J-0.006 F333.3
N1430 G1 X189.673 Y722.444 Z-6.500 F333.3
N1431 G1 X397.651 Y743.936 Z-6.500 F1000
N1432 G2 X412.554 Y735.020 Z-6.500 I1.490 J-14.423 F1000
N1433 G1 X443.983 Y658.474 Z-6.500 F1000
N1434 G2 X425.609 Y619.149 Z-6.500 I-27.289 J-11.205 F1000
N1435 G1 X322.298 Y586.398 Z-6.500 F1000
N1436 G2 X333.053 Y583.156 Z-6.500 I-5.905 J-39.056 F1000
N1437 G1 X461.822 Y523.257 Z-6.500 F1000
N1438 G2 X470.206 Y510.104 Z-6.500 I-6.116 J-13.147 F1000
N1439 G1 X470.020 Y54.672 Z-6.500 F1000
N1440 G2 X457.010 Y40.255 Z-6.500 I-14.500 J0.006 F1000
N1441 G1 X73.055 Y0.577 Z-6.500 F1000
N1442 G2 X58.151 Y9.493 Z-6.500 I-1.490 J14.423 F1000
N1443 G1 X26.722 Y86.039 Z-6.500 F1000
N1444 G2 X45.097 Y125.364 Z-6.500 I27.289 J11.204 F1000
N1445 G1 X148.408 Y158.115 Z-6.500 F1000
N1446 G2 X137.653 Y161.357 Z-6.500 I5.905 J39.056 F1000
N1447 G1 X8.884 Y221.257 Z-6.500 F1000
N1448 G2 X0.500 Y234.410 Z-6.500 I6.116 J13.147 F1000
N1449 G1 X0.686 Y689.841 Z-6.500 F1000
N1450 G2 X13.696 Y704.258 Z-6.500 I14.500 J-0.006 F1000
N1451 G1 X189.673 Y722.444 Z-6.500 F1000
N1452 G1 X397.651 Y743.936 Z-7.310 F333.3
N1453 G2 X412.554 Y735.020 Z-7.382 I1.490 J-14.423 F333.3
N1454 G1 X443.983 Y658.474 Z-7.702 F333.3
N1455 G2 X425.609 Y619.149 Z-7.891 I-27.289 J-11.205 F333.3
N1456 G1 X322.298 Y586.398 Z-8.311 F333.3
N1457 G2 X333.053 Y583.156 Z-8.355 I-5.905 J-39.056 F333.3
N1458 G1 X392.903 Y555.316 Z-8.610 F333.3
N1459 G1 X392.903 Y555.316 Z-8.250 F333.3
N1460 G1 X401.971 Y551.098 Z-8.250 F333.3
N1461 G1 X401.971 Y551.098 Z-8.649 F333.3
N1462 G1 X461.822 Y523.257 Z-8.905 F333.3
N1463 G2 X470.206 Y510.104 Z-8.969 I-6.116 J-13.147 F333.3
N1464 G1 X470.185 Y458.175 Z-9.170 F333.3
N1465 G1 X470.185 Y458.175 Z-8.250 F333.3
N1466 G1 X470.181 Y448.175 Z-8.250 F333.3
N1467 G1 X470.181 Y448.175 Z-9.208 F333.3
N1468 G1 X470.150 Y372.875 Z-9.500 F333.3
N1469 G1 X470.138 Y344.317 Z-9.500 F1000
N1470 G1 X470.138 Y344.317 Z-8.250 F1000
N1471 G1 X470.134 Y334.317 Z-8.250 F1000
N1472 G1 X470.134 Y334.317 Z-9.500 F333.3
N1473 G1 X470.092 Y230.459 Z-9.500 F1000
N1474 G1 X470.092 Y230.459 Z-8.250 F1000
N1475 G1 X470.088 Y220.459 Z-8.250 F1000
N1476 G1 X470.088 Y220.459 Z-9.500 F333.3
N1477 G1 X470.045 Y116.601 Z-9.500 F1000
N1478 G1 X470.045 Y116.601 Z-8.250 F1000
N1479 G1 X470.041 Y106.601 Z-8.250 F1000
N1480 G1 X470.041 Y106.601 Z-9.500 F333.3
N1481 G1 X470.020 Y54.672 Z-9.500 F1000
N1482 G2 X457.010 Y40.255 Z-9.500 I-14.500 J0.006 F1000
N1483 G1 X397.991 Y34.156 Z-9.500 F1000
N1484 G1 X397.991 Y34.156 Z-8.250 F1000
N1485 G1 X388.044 Y33.128 Z-8.250 F1000
N1486 G1 X388.044 Y33.128 Z-9.500 F333.3
N1487 G1 X270.006 Y20.930 Z-9.500 F1000
N1488 G1 X270.006 Y20.930 Z-8.250 F1000
N1489 G1 X260.059 Y19.902 Z-8.250 F1000
N1490 G1 X260.059 Y19.902 Z-9.500 F333.3
N1491 G1 X142.021 Y7.704 Z-9.500 F1000
N1492 G1 X142.021 Y7.704 Z-8.250 F1000
N1493 G1 X132.074 Y6.676 Z-8.250 F1000
N1494 G1 X132.074 Y6.676 Z-9.500 F333.3
N1495 G1 X73.055 Y0.577 Z-9.500 F1000
N1496 G2 X58.151 Y9.493 Z-9.500 I-1.490 J14.423 F1000
N1497 G1 X26.722 Y86.039 Z-9.500 F1000
N1498 G2 X45.097 Y125.364 Z-9.500 I27.289 J11.204 F1000
N1499 G1 X97.871 Y142.094 Z-9.500 F1000
N1500 G1 X97.871 Y142.094 Z-8.250 F1000
N1501 G1 X107.403 Y145.116 Z-8.250 F1000
N1502 G1 X107.403 Y145.116 Z-9.500 F333.3
N1503 G1 X148.408 Y158.115 Z-9.500 F1000
N1504 G2 X137.653 Y161.357 Z-9.500 I5.905 J39.056 F1000
N1505 G1 X77.802 Y189.198 Z-9.500 F1000
N1506 G1 X77.802 Y189.198 Z-8.250 F1000
N1507 G1 X68.735 Y193.416 Z-8.250 F1000
N1508 G1 X68.735 Y193.416 Z-9.500 F333.3
N1509 G1 X8.884 Y221.257 Z-9.500 F1000
N1510 G2 X0.500 Y234.410 Z-9.500 I6.116 J13.147 F1000
N1511 G1 X0.521 Y286.339 Z-9.500 F1000
N1512 G1 X0.521 Y286.339 Z-8.250 F1000
N1513 G1 X0.525 Y296.339 Z-8.250 F1000
N1514 G1 X0.525 Y296.339 Z-9.500 F333.3
N1515 G1 X0.568 Y400.196 Z-9.500 F1000
N1516 G1 X0.568 Y400.196 Z-8.250 F1000
N1517 G1 X0.572 Y410.196 Z-8.250 F1000
N1518 G1 X0.572 Y410.196 Z-9.500 F333.3
N1519 G1 X0.614 Y514.054 Z-9.500 F1000
N1520 G1 X0.614 Y514.054 Z-8.250 F1000
N1521 G1 X0.618 Y524.054 Z-8.250 F1000
N1522 G1 X0.618 Y524.054 Z-9.500 F333.3
N1523 G1 X0.661 Y627.912 Z-9.500 F1000
N1524 G1 X0.661 Y627.912 Z-8.250 F1000
N1525 G1 X0.665 Y637.912 Z-8.250 F1000
N1526 G1 X0.665 Y637.912 Z-9.500 F333.3
N1527 G1 X0.686 Y689.841 Z-9.500 F1000
N1528 G2 X13.696 Y704.258 Z-9.500 I14.500 J-0.006 F1000
N1529 G1 X72.715 Y710.357 Z-9.500 F1000
N1530 G1 X72.715 Y710.357 Z-8.250 F1000
N1531 G1 X82.662 Y711.385 Z-8.250 F1000
N1532 G1 X82.662 Y711.385 Z-9.500 F333.3
N1533 G1 X200.700 Y723.583 Z-9.500 F1000
N1534 G1 X200.700 Y723.583 Z-8.250 F1000
N1535 G1 X210.647 Y724.611 Z-8.250 F1000
N1536 G1 X210.647 Y724.611 Z-9.500 F333.3
N1537 G1 X328.685 Y736.809 Z-9.500 F1000
N1538 G1 X328.685 Y736.809 Z-8.250 F1000
N1539 G1 X338.632 Y737.837 Z-8.250 F1000
N1540 G1 X338.632 Y737.837 Z-9.500 F333.3
N1541 G1 X397.651 Y743.936 Z-9.500 F1000
N1542 G2 X412.554 Y735.020 Z-9.500 I1.490 J-14.423 F1000
N1543 G1 X443.983 Y658.474 Z-9.500 F1000
N1544 G2 X425.609 Y619.149 Z-9.500 I-27.289 J-11.205 F1000
N1545 G1 X372.835 Y602.419 Z-9.500 F1000
N1546 G1 X372.835 Y602.419 Z-8.250 F1000
N1547 G1 X363.303 Y599.397 Z-8.250 F1000
N1548 G1 X363.303 Y599.397 Z-9.500 F333.3
N1549 G1 X322.298 Y586.398 Z-9.500 F1000
N1550 G2 X333.053 Y583.156 Z-9.500 I-5.905 J-39.056 F1000
N1551 G1 X392.903 Y555.316 Z-9.500 F1000
N1552 G1 X392.903 Y555.316 Z-8.250 F1000
N1553 G1 X401.971 Y551.098 Z-8.250 F1000
N1554 G1 X401.971 Y551.098 Z-9.500 F333.3
N1555 G1 X461.822 Y523.257 Z-9.500 F1000
N1556 G2 X470.206 Y510.104 Z-9.500 I-6.116 J-13.147 F1000
N1557 G1 X470.185 Y458.175 Z-9.500 F1000
N1558 G1 X470.185 Y458.175 Z-8.250 F1000
N1559 G1 X470.181 Y448.175 Z-8.250 F1000
N1560 G1 X470.181 Y448.175 Z-9.500 F333.3
N1561 G1 X470.150 Y372.875 Z-9.500 F1000
N1562 G3 X470.650 Y372.375 Z-9.500 I0.500 J0.000 F1000
N1563 G1 X471.150 Y372.375 Z-9.500 F1000
N1564 G1 X471.237 Y372.375 Z-9.492 F1000
N1565 G1 X471.321 Y372.375 Z-9.470 F1000
N1566 G1 X471.400 Y372.375 Z-9.433 F1000
N1567 G1 X471.471 Y372.375 Z-9.383 F1000
N1568 G1 X471.533 Y372.375 Z-9.321 F1000
N1569 G1 X471.583 Y372.375 Z-9.250 F1000
N1570 G1 X471.620 Y372.375 Z-9.171 F1000
N1571 G1 X471.642 Y372.375 Z-9.087 F1000
N1572 G1 X471.650 Y372.375 Z-9.000 F1000
N1573 G0 X471.650 Y372.375 Z24.500


(2D Contorno 5)
N1574 G0 X261.549 Y533.836 Z24.500
N1575 G0 X261.549 Y533.836 Z24.500
N1576 G0 X261.549 Y533.836 Z14.500
N1577 G1 X261.549 Y533.836 Z12.500 F333.3
N1578 G1 X261.556 Y533.833 Z12.413 F1000
N1579 G1 X261.576 Y533.824 Z12.329 F1000
N1580 G1 X261.610 Y533.809 Z12.250 F1000
N1581 G1 X261.656 Y533.789 Z12.179 F1000
N1582 G1 X261.713 Y533.765 Z12.117 F1000
N1583 G1 X261.778 Y533.736 Z12.067 F1000
N1584 G1 X261.851 Y533.705 Z12.030 F1000
N1585 G1 X261.928 Y533.672 Z12.008 F1000
N1586 G1 X262.008 Y533.637 Z12.000 F1000
N1587 G1 X262.467 Y533.439 Z12.000 F1000
N1588 G3 X263.124 Y533.700 Z12.000 I0.198 J0.459 F1000
N1589 G1 X265.260 Y538.648 Z11.812 F333.3
N1590 G3 X207.557 Y371.461 Z5.500 I193.108 J-160.200 F333.3
N1591 G3 X227.675 Y279.778 Z5.500 I250.811 J6.986 F1000
N1592 G2 X227.638 Y257.274 Z5.500 I-26.203 J-11.208 F1000
N1593 G1 X205.446 Y205.865 Z5.500 F1000
N1594 G3 X243.031 Y464.735 Z5.500 I-193.108 J160.200 F1000
N1595 G2 X243.068 Y487.239 Z5.500 I26.203 J11.208 F1000
N1596 G1 X265.260 Y538.648 Z5.500 F1000
N1597 G3 X207.557 Y371.461 Z5.500 I193.108 J-160.200 F1000
N1598 G3 X227.675 Y279.778 Z4.167 I250.811 J6.986 F333.3
N1599 G2 X227.638 Y257.274 Z3.841 I-26.203 J-11.208 F333.3
N1600 G1 X205.446 Y205.865 Z3.051 F333.3
N1601 G3 X255.160 Y302.881 Z1.500 I-193.108 J160.200 F333.3
N1602 G3 X243.031 Y464.735 Z1.500 I-242.822 J63.184 F1000
N1603 G2 X243.068 Y487.239 Z1.500 I26.203 J11.208 F1000
N1604 G1 X265.260 Y538.648 Z1.500 F1000
N1605 G3 X227.675 Y279.778 Z1.500 I193.108 J-160.200 F1000
N1606 G2 X227.638 Y257.274 Z1.500 I-26.203 J-11.208 F1000
N1607 G1 X205.446 Y205.865 Z1.500 F1000
N1608 G3 X255.160 Y302.881 Z1.500 I-193.108 J160.200 F1000
N1609 G3 X243.031 Y464.735 Z-0.833 I-242.822 J63.184 F333.3
N1610 G2 X243.068 Y487.239 Z-1.159 I26.203 J11.208 F333.3
N1611 G1 X265.260 Y538.648 Z-1.949 F333.3
N1612 G3 X242.773 Y506.797 Z-2.500 I193.108 J-160.200 F333.3
N1613 G3 X227.675 Y279.778 Z-2.500 I215.595 J-128.349 F1000
N1614 G2 X227.638 Y257.274 Z-2.500 I-26.203 J-11.208 F1000
N1615 G1 X205.446 Y205.865 Z-2.500 F1000
N1616 G3 X243.031 Y464.735 Z-2.500 I-193.108 J160.200 F1000
N1617 G2 X243.068 Y487.239 Z-2.500 I26.203 J11.208 F1000
N1618 G1 X265.260 Y538.648 Z-2.500 F1000
N1619 G3 X242.773 Y506.797 Z-2.500 I193.108 J-160.200 F1000
N1620 G3 X227.675 Y279.778 Z-5.833 I215.595 J-128.349 F333.3
N1621 G2 X227.638 Y257.274 Z-6.159 I-26.203 J-11.208 F333.3
N1622 G1 X218.061 Y235.089 Z-6.500 F333.3
N1623 G1 X205.446 Y205.865 Z-6.500 F1000
N1624 G3 X243.031 Y464.735 Z-6.500 I-193.108 J160.200 F1000
N1625 G2 X243.068 Y487.239 Z-6.500 I26.203 J11.208 F1000
N1626 G1 X265.260 Y538.648 Z-6.500 F1000
N1627 G3 X227.675 Y279.778 Z-6.500 I193.108 J-160.200 F1000
N1628 G2 X227.638 Y257.274 Z-6.500 I-26.203 J-11.208 F1000
N1629 G1 X218.061 Y235.089 Z-6.500 F1000
N1630 G1 X205.446 Y205.865 Z-6.949 F333.3
N1631 G3 X255.083 Y302.586 Z-8.496 I-193.108 J160.200 F333.3
N1632 G1 X255.083 Y302.586 Z-8.250 F333.3
N1633 G3 X257.420 Y312.309 Z-8.250 I-242.745 J63.480 F333.3
N1634 G1 X257.420 Y312.309 Z-8.637 F333.3
N1635 G3 X263.149 Y373.052 Z-9.500 I-245.082 J53.757 F333.3
N1636 G3 X259.591 Y408.737 Z-9.500 I-250.811 J-6.986 F1000
N1637 G1 X259.591 Y408.737 Z-8.250 F1000
N1638 G3 X257.694 Y418.556 Z-8.250 I-247.253 J-42.672 F1000
N1639 G1 X257.694 Y418.556 Z-9.500 F333.3
N1640 G3 X243.031 Y464.735 Z-9.500 I-245.356 J-52.490 F1000
N1641 G2 X243.068 Y487.239 Z-9.500 I26.203 J11.208 F1000
N1642 G1 X260.723 Y528.138 Z-9.500 F1000
N1643 G1 X260.723 Y528.138 Z-8.250 F1000
N1644 G1 X264.226 Y536.253 Z-8.250 F1000
N1645 G1 X264.226 Y536.253 Z-9.500 F333.3
N1646 G1 X265.260 Y538.648 Z-9.500 F1000
N1647 G3 X263.657 Y536.696 Z-9.500 I193.108 J-160.200 F1000
N1648 G1 X263.657 Y536.696 Z-8.250 F1000
N1649 G3 X257.506 Y528.812 Z-8.250 I194.711 J-158.249 F1000
N1650 G1 X257.506 Y528.812 Z-9.500 F333.3
N1651 G3 X215.623 Y441.927 Z-9.500 I200.862 J-150.364 F1000
N1652 G1 X215.623 Y441.927 Z-8.250 F1000
N1653 G3 X213.286 Y432.204 Z-8.250 I242.745 J-63.479 F1000
N1654 G1 X213.286 Y432.204 Z-9.500 F333.3
N1655 G3 X211.115 Y335.776 Z-9.500 I245.082 J-53.756 F1000
N1656 G1 X211.115 Y335.776 Z-8.250 F1000
N1657 G3 X213.012 Y325.957 Z-8.250 I247.253 J42.672 F1000
N1658 G1 X213.012 Y325.957 Z-9.500 F333.3
N1659 G3 X227.675 Y279.778 Z-9.500 I245.356 J52.490 F1000
N1660 G2 X227.638 Y257.274 Z-9.500 I-26.203 J-11.208 F1000
N1661 G1 X209.983 Y216.375 Z-9.500 F1000
N1662 G1 X209.983 Y216.375 Z-8.250 F1000
N1663 G1 X206.480 Y208.260 Z-8.250 F1000
N1664 G1 X206.480 Y208.260 Z-9.500 F333.3
N1665 G1 X205.446 Y205.865 Z-9.500 F1000
N1666 G3 X207.049 Y207.817 Z-9.500 I-193.108 J160.200 F1000
N1667 G1 X207.049 Y207.817 Z-8.250 F1000
N1668 G3 X213.200 Y215.701 Z-8.250 I-194.711 J158.249 F1000
N1669 G1 X213.200 Y215.701 Z-9.500 F333.3
N1670 G3 X255.083 Y302.586 Z-9.500 I-200.862 J150.364 F1000
N1671 G1 X255.083 Y302.586 Z-8.250 F1000
N1672 G3 X257.420 Y312.309 Z-8.250 I-242.745 J63.480 F1000
N1673 G1 X257.420 Y312.309 Z-9.500 F333.3
N1674 G3 X263.149 Y373.052 Z-9.500 I-245.082 J53.757 F1000
N1675 G3 X262.635 Y373.538 Z-9.500 I-0.500 J-0.014 F1000
N1676 G1 X262.135 Y373.524 Z-9.500 F1000
N1677 G1 X262.048 Y373.521 Z-9.492 F1000
N1678 G1 X261.964 Y373.519 Z-9.470 F1000
N1679 G1 X261.885 Y373.517 Z-9.433 F1000
N1680 G1 X261.814 Y373.515 Z-9.383 F1000
N1681 G1 X261.752 Y373.513 Z-9.321 F1000
N1682 G1 X261.702 Y373.512 Z-9.250 F1000
N1683 G1 X261.666 Y373.511 Z-9.171 F1000
N1684 G1 X261.643 Y373.510 Z-9.087 F1000
N1685 G1 X261.635 Y373.510 Z-9.000 F1000
N1686 G0 X261.635 Y373.510 Z14.500
N1687 G0 X32.311 Y204.293 Z14.500
N1688 G1 X32.311 Y204.293 Z12.500 F333.3
N1689 G1 X32.314 Y204.300 Z12.413 F1000
N1690 G1 X32.324 Y204.321 Z12.329 F1000
N1691 G1 X32.339 Y204.354 Z12.250 F1000
N1692 G1 X32.360 Y204.400 Z12.179 F1000
N1693 G1 X32.386 Y204.455 Z12.117 F1000
N1694 G1 X32.416 Y204.520 Z12.067 F1000
N1695 G1 X32.450 Y204.592 Z12.030 F1000
N1696 G1 X32.485 Y204.668 Z12.008 F1000
N1697 G1 X32.522 Y204.747 Z12.000 F1000
N1698 G1 X32.733 Y205.200 Z12.000 F1000
N1699 G3 X32.490 Y205.864 Z12.000 I-0.453 J0.211 F1000
N1700 G1 X7.197 Y217.630 Z11.026 F333.3
N1701 G2 X-3.500 Y234.412 Z10.292 I7.803 J16.774 F333.3
N1702 G1 X-3.444 Y371.639 Z5.500 F333.3
N1703 G1 X-3.314 Y689.843 Z5.500 F1000
N1704 G2 X13.284 Y708.237 Z5.500 I18.500 J-0.008 F1000
N1705 G1 X397.239 Y747.915 Z5.500 F1000
N1706 G2 X416.255 Y736.540 Z5.500 I1.902 J-18.402 F1000
N1707 G1 X447.684 Y659.994 Z5.500 F1000
N1708 G2 X426.818 Y615.336 Z5.500 I-30.990 J-12.724 F1000
N1709 G1 X335.554 Y586.404 Z5.500 F1000
N1710 G1 X463.509 Y526.884 Z5.500 F1000
N1711 G2 X474.206 Y510.102 Z5.500 I-7.803 J-16.774 F1000
N1712 G1 X474.020 Y54.670 Z5.500 F1000
N1713 G2 X457.422 Y36.276 Z5.500 I-18.500 J0.008 F1000
N1714 G1 X73.466 Y-3.402 Z5.500 F1000
N1715 G2 X54.451 Y7.973 Z5.500 I-1.902 J18.402 F1000
N1716 G1 X23.022 Y84.520 Z5.500 F1000
N1717 G2 X43.888 Y129.177 Z5.500 I30.990 J12.724 F1000
N1718 G1 X135.152 Y158.109 Z5.500 F1000
N1719 G1 X7.197 Y217.630 Z5.500 F1000
N1720 G2 X-3.500 Y234.412 Z5.500 I7.803 J16.774 F1000
N1721 G1 X-3.444 Y371.639 Z5.500 F1000
N1722 G1 X-3.314 Y689.843 Z4.265 F333.3
N1723 G2 X13.284 Y708.237 Z4.160 I18.500 J-0.008 F333.3
N1724 G1 X397.239 Y747.915 Z2.662 F333.3
N1725 G2 X416.255 Y736.540 Z2.569 I1.902 J-18.402 F333.3
N1726 G1 X447.684 Y659.994 Z2.248 F333.3
N1727 G2 X426.818 Y615.336 Z2.033 I-30.990 J-12.724 F333.3
N1728 G1 X335.554 Y586.404 Z1.662 F333.3
N1729 G1 X373.357 Y568.820 Z1.500 F333.3
N1730 G1 X463.509 Y526.884 Z1.500 F1000
N1731 G2 X474.206 Y510.102 Z1.500 I-7.803 J-16.774 F1000
N1732 G1 X474.020 Y54.670 Z1.500 F1000
N1733 G2 X457.422 Y36.276 Z1.500 I-18.500 J0.008 F1000
N1734 G1 X73.466 Y-3.402 Z1.500 F1000
N1735 G2 X54.451 Y7.973 Z1.500 I-1.902 J18.402 F1000
N1736 G1 X23.022 Y84.520 Z1.500 F1000
N1737 G2 X43.888 Y129.177 Z1.500 I30.990 J12.724 F1000
N1738 G1 X135.152 Y158.109 Z1.500 F1000
N1739 G1 X7.197 Y217.630 Z1.500 F1000
N1740 G2 X-3.500 Y234.412 Z1.500 I7.803 J16.774 F1000
N1741 G1 X-3.314 Y689.843 Z1.500 F1000
N1742 G2 X13.284 Y708.237 Z1.500 I18.500 J-0.008 F1000
N1743 G1 X397.239 Y747.915 Z1.500 F1000
N1744 G2 X416.255 Y736.540 Z1.500 I1.902 J-18.402 F1000
N1745 G1 X447.684 Y659.994 Z1.500 F1000
N1746 G2 X426.818 Y615.336 Z1.500 I-30.990 J-12.724 F1000
N1747 G1 X335.554 Y586.404 Z1.500 F1000
N1748 G1 X373.357 Y568.820 Z1.500 F1000
N1749 G1 X463.509 Y526.884 Z1.114 F333.3
N1750 G2 X474.206 Y510.102 Z1.033 I-7.803 J-16.774 F333.3
N1751 G1 X474.020 Y54.670 Z-0.735 F333.3
N1752 G2 X457.422 Y36.276 Z-0.840 I-18.500 J0.008 F333.3
N1753 G1 X73.466 Y-3.402 Z-2.338 F333.3
N1754 G2 X54.451 Y7.973 Z-2.431 I-1.902 J18.402 F333.3
N1755 G1 X47.653 Y24.531 Z-2.500 F333.3
N1756 G1 X23.022 Y84.520 Z-2.500 F1000
N1757 G2 X43.888 Y129.177 Z-2.500 I30.990 J12.724 F1000
N1758 G1 X135.152 Y158.109 Z-2.500 F1000
N1759 G1 X7.197 Y217.630 Z-2.500 F1000
N1760 G2 X-3.500 Y234.412 Z-2.500 I7.803 J16.774 F1000
N1761 G1 X-3.314 Y689.843 Z-2.500 F1000
N1762 G2 X13.284 Y708.237 Z-2.500 I18.500 J-0.008 F1000
N1763 G1 X397.239 Y747.915 Z-2.500 F1000
N1764 G2 X416.255 Y736.540 Z-2.500 I1.902 J-18.402 F1000
N1765 G1 X447.684 Y659.994 Z-2.500 F1000
N1766 G2 X426.818 Y615.336 Z-2.500 I-30.990 J-12.724 F1000
N1767 G1 X335.554 Y586.404 Z-2.500 F1000
N1768 G1 X463.509 Y526.884 Z-2.500 F1000
N1769 G2 X474.206 Y510.102 Z-2.500 I-7.803 J-16.774 F1000
N1770 G1 X474.020 Y54.670 Z-2.500 F1000
N1771 G2 X457.422 Y36.276 Z-2.500 I-18.500 J0.008 F1000
N1772 G1 X73.466 Y-3.402 Z-2.500 F1000
N1773 G2 X54.451 Y7.973 Z-2.500 I-1.902 J18.402 F1000
N1774 G1 X47.653 Y24.531 Z-2.500 F1000
N1775 G1 X23.022 Y84.520 Z-2.752 F333.3
N1776 G2 X43.888 Y129.177 Z-2.967 I30.990 J12.724 F333.3
N1777 G1 X135.152 Y158.109 Z-3.338 F333.3
N1778 G1 X7.197 Y217.630 Z-3.886 F333.3
N1779 G2 X-3.500 Y234.412 Z-3.967 I7.803 J16.774 F333.3
N1780 G1 X-3.314 Y689.843 Z-5.735 F333.3
N1781 G2 X13.284 Y708.237 Z-5.840 I18.500 J-0.008 F333.3
N1782 G1 X182.371 Y725.710 Z-6.500 F333.3
N1783 G1 X397.239 Y747.915 Z-6.500 F1000
N1784 G2 X416.255 Y736.540 Z-6.500 I1.902 J-18.402 F1000
N1785 G1 X447.684 Y659.994 Z-6.500 F1000
N1786 G2 X426.818 Y615.336 Z-6.500 I-30.990 J-12.724 F1000
N1787 G1 X335.554 Y586.404 Z-6.500 F1000
N1788 G1 X463.509 Y526.884 Z-6.500 F1000
N1789 G2 X474.206 Y510.102 Z-6.500 I-7.803 J-16.774 F1000
N1790 G1 X474.020 Y54.670 Z-6.500 F1000
N1791 G2 X457.422 Y36.276 Z-6.500 I-18.500 J0.008 F1000
N1792 G1 X73.466 Y-3.402 Z-6.500 F1000
N1793 G2 X54.451 Y7.973 Z-6.500 I-1.902 J18.402 F1000
N1794 G1 X23.022 Y84.520 Z-6.500 F1000
N1795 G2 X43.888 Y129.177 Z-6.500 I30.990 J12.724 F1000
N1796 G1 X135.152 Y158.109 Z-6.500 F1000
N1797 G1 X7.197 Y217.630 Z-6.500 F1000
N1798 G2 X-3.500 Y234.412 Z-6.500 I7.803 J16.774 F1000
N1799 G1 X-3.314 Y689.843 Z-6.500 F1000
N1800 G2 X13.284 Y708.237 Z-6.500 I18.500 J-0.008 F1000
N1801 G1 X182.371 Y725.710 Z-6.500 F1000
N1802 G1 X397.239 Y747.915 Z-7.338 F333.3
N1803 G2 X416.255 Y736.540 Z-7.431 I1.902 J-18.402 F333.3
N1804 G1 X447.684 Y659.994 Z-7.752 F333.3
N1805 G2 X426.818 Y615.336 Z-7.967 I-30.990 J-12.724 F333.3
N1806 G1 X335.554 Y586.404 Z-8.338 F333.3
N1807 G1 X394.591 Y558.942 Z-8.591 F333.3
N1808 G1 X394.591 Y558.942 Z-8.250 F333.3
N1809 G1 X403.658 Y554.725 Z-8.250 F333.3
N1810 G1 X403.658 Y554.725 Z-8.630 F333.3
N1811 G1 X463.509 Y526.884 Z-8.886 F333.3
N1812 G2 X474.206 Y510.102 Z-8.967 I-7.803 J-16.774 F333.3
N1813 G1 X474.185 Y458.173 Z-9.169 F333.3
N1814 G1 X474.185 Y458.173 Z-8.250 F333.3
N1815 G1 X474.181 Y448.173 Z-8.250 F333.3
N1816 G1 X474.181 Y448.173 Z-9.208 F333.3
N1817 G1 X474.150 Y372.874 Z-9.500 F333.3
N1818 G1 X474.138 Y344.315 Z-9.500 F1000
N1819 G1 X474.138 Y344.315 Z-8.250 F1000
N1820 G1 X474.134 Y334.315 Z-8.250 F1000
N1821 G1 X474.134 Y334.315 Z-9.500 F333.3
N1822 G1 X474.092 Y230.457 Z-9.500 F1000
N1823 G1 X474.092 Y230.457 Z-8.250 F1000
N1824 G1 X474.088 Y220.457 Z-8.250 F1000
N1825 G1 X474.088 Y220.457 Z-9.500 F333.3
N1826 G1 X474.045 Y116.599 Z-9.500 F1000
N1827 G1 X474.045 Y116.599 Z-8.250 F1000
N1828 G1 X474.041 Y106.599 Z-8.250 F1000
N1829 G1 X474.041 Y106.599 Z-9.500 F333.3
N1830 G1 X474.020 Y54.670 Z-9.500 F1000
N1831 G2 X457.422 Y36.276 Z-9.500 I-18.500 J0.008 F1000
N1832 G1 X398.402 Y30.177 Z-9.500 F1000
N1833 G1 X398.402 Y30.177 Z-8.250 F1000
N1834 G1 X388.455 Y29.149 Z-8.250 F1000
N1835 G1 X388.455 Y29.149 Z-9.500 F333.3
N1836 G1 X270.417 Y16.951 Z-9.500 F1000
N1837 G1 X270.417 Y16.951 Z-8.250 F1000
N1838 G1 X260.470 Y15.923 Z-8.250 F1000
N1839 G1 X260.470 Y15.923 Z-9.500 F333.3
N1840 G1 X142.432 Y3.725 Z-9.500 F1000
N1841 G1 X142.432 Y3.725 Z-8.250 F1000
N1842 G1 X132.485 Y2.697 Z-8.250 F1000
N1843 G1 X132.485 Y2.697 Z-9.500 F333.3
N1844 G1 X73.466 Y-3.402 Z-9.500 F1000
N1845 G2 X54.451 Y7.973 Z-9.500 I-1.902 J18.402 F1000
N1846 G1 X23.022 Y84.520 Z-9.500 F1000
N1847 G2 X43.888 Y129.177 Z-9.500 I30.990 J12.724 F1000
N1848 G1 X96.662 Y145.907 Z-9.500 F1000
N1849 G1 X96.662 Y145.907 Z-8.250 F1000
N1850 G1 X106.195 Y148.929 Z-8.250 F1000
N1851 G1 X106.195 Y148.929 Z-9.500 F333.3
N1852 G1 X135.152 Y158.109 Z-9.500 F1000
N1853 G1 X76.115 Y185.571 Z-9.500 F1000
N1854 G1 X76.115 Y185.571 Z-8.250 F1000
N1855 G1 X67.048 Y189.789 Z-8.250 F1000
N1856 G1 X67.048 Y189.789 Z-9.500 F333.3
N1857 G1 X7.197 Y217.630 Z-9.500 F1000
N1858 G2 X-3.500 Y234.412 Z-9.500 I7.803 J16.774 F1000
N1859 G1 X-3.479 Y286.341 Z-9.500 F1000
N1860 G1 X-3.479 Y286.341 Z-8.250 F1000
N1861 G1 X-3.475 Y296.341 Z-8.250 F1000
N1862 G1 X-3.475 Y296.341 Z-9.500 F333.3
N1863 G1 X-3.432 Y400.198 Z-9.500 F1000
N1864 G1 X-3.432 Y400.198 Z-8.250 F1000
N1865 G1 X-3.428 Y410.198 Z-8.250 F1000
N1866 G1 X-3.428 Y410.198 Z-9.500 F333.3
N1867 G1 X-3.386 Y514.056 Z-9.500 F1000
N1868 G1 X-3.386 Y514.056 Z-8.250 F1000
N1869 G1 X-3.382 Y524.056 Z-8.250 F1000
N1870 G1 X-3.382 Y524.056 Z-9.500 F333.3
N1871 G1 X-3.339 Y627.914 Z-9.500 F1000
N1872 G1 X-3.339 Y627.914 Z-8.250 F1000
N1873 G1 X-3.335 Y637.914 Z-8.250 F1000
N1874 G1 X-3.335 Y637.914 Z-9.500 F333.3
N1875 G1 X-3.314 Y689.843 Z-9.500 F1000
N1876 G2 X13.284 Y708.237 Z-9.500 I18.500 J-0.008 F1000
N1877 G1 X72.303 Y714.336 Z-9.500 F1000
N1878 G1 X72.303 Y714.336 Z-8.250 F1000
N1879 G1 X82.250 Y715.364 Z-8.250 F1000
N1880 G1 X82.250 Y715.364 Z-9.500 F333.3
N1881 G1 X200.289 Y727.562 Z-9.500 F1000
N1882 G1 X200.289 Y727.562 Z-8.250 F1000
N1883 G1 X210.236 Y728.590 Z-8.250 F1000
N1884 G1 X210.236 Y728.590 Z-9.500 F333.3
N1885 G1 X328.274 Y740.788 Z-9.500 F1000
N1886 G1 X328.274 Y740.788 Z-8.250 F1000
N1887 G1 X338.221 Y741.816 Z-8.250 F1000
N1888 G1 X338.221 Y741.816 Z-9.500 F333.3
N1889 G1 X397.239 Y747.915 Z-9.500 F1000
N1890 G2 X416.255 Y736.540 Z-9.500 I1.902 J-18.402 F1000
N1891 G1 X447.684 Y659.994 Z-9.500 F1000
N1892 G2 X426.818 Y615.336 Z-9.500 I-30.990 J-12.724 F1000
N1893 G1 X374.044 Y598.606 Z-9.500 F1000
N1894 G1 X374.044 Y598.606 Z-8.250 F1000
N1895 G1 X364.511 Y595.584 Z-8.250 F1000
N1896 G1 X364.511 Y595.584 Z-9.500 F333.3
N1897 G1 X335.554 Y586.404 Z-9.500 F1000
N1898 G1 X394.591 Y558.942 Z-9.500 F1000
N1899 G1 X394.591 Y558.942 Z-8.250 F1000
N1900 G1 X403.658 Y554.725 Z-8.250 F1000
N1901 G1 X403.658 Y554.725 Z-9.500 F333.3
N1902 G1 X463.509 Y526.884 Z-9.500 F1000
N1903 G2 X474.206 Y510.102 Z-9.500 I-7.803 J-16.774 F1000
N1904 G1 X474.185 Y458.173 Z-9.500 F1000
N1905 G1 X474.185 Y458.173 Z-8.250 F1000
N1906 G1 X474.181 Y448.173 Z-8.250 F1000
N1907 G1 X474.181 Y448.173 Z-9.500 F333.3
N1908 G1 X474.150 Y372.874 Z-9.500 F1000
N1909 G3 X474.650 Y372.374 Z-9.500 I0.500 J0.000 F1000
N1910 G1 X475.150 Y372.373 Z-9.500 F1000
N1911 G1 X475.237 Y372.373 Z-9.492 F1000
N1912 G1 X475.321 Y372.373 Z-9.470 F1000
N1913 G1 X475.400 Y372.373 Z-9.433 F1000
N1914 G1 X475.471 Y372.373 Z-9.383 F1000
N1915 G1 X475.533 Y372.373 Z-9.321 F1000
N1916 G1 X475.583 Y372.373 Z-9.250 F1000
N1917 G1 X475.620 Y372.373 Z-9.171 F1000
N1918 G1 X475.642 Y372.373 Z-9.087 F1000
N1919 G1 X475.650 Y372.373 Z-9.000 F1000
N1920 G0 X475.650 Y372.373 Z24.500


(Bore3)
N1921 G0 X39.517 Y575.229 Z24.500
N1922 G0 X39.517 Y575.229 Z24.500
N1923 G0 X39.517 Y575.229 Z9.500
N1924 G1 X39.517 Y575.229 Z8.000 F1000
N1925 G1 X39.525 Y575.230 Z7.913 F1000
N1926 G1 X39.547 Y575.232 Z7.829 F1000
N1927 G1 X39.584 Y575.236 Z7.750 F1000
N1928 G1 X39.633 Y575.241 Z7.679 F1000
N1929 G1 X39.695 Y575.248 Z7.617 F1000
N1930 G1 X39.766 Y575.255 Z7.567 F1000
N1931 G1 X39.844 Y575.263 Z7.530 F1000
N1932 G1 X39.928 Y575.272 Z7.508 F1000
N1933 G1 X40.014 Y575.281 Z7.500 F1000
N1934 G1 X40.263 Y575.306 Z7.500 F1000
N1935 G3 X40.709 Y575.855 Z7.500 I-0.051 J0.497 F1000
N1936 G3 X37.725 Y575.547 Z7.000 I-1.492 J-0.154 F1000
N1937 G3 X40.709 Y575.855 Z6.500 I1.492 J0.154 F1000
N1938 G3 X37.725 Y575.547 Z6.000 I-1.492 J-0.154 F1000
N1939 G3 X40.709 Y575.855 Z5.500 I1.492 J0.154 F1000
N1940 G3 X37.725 Y575.547 Z5.000 I-1.492 J-0.154 F1000
N1941 G3 X40.709 Y575.855 Z4.500 I1.492 J0.154 F1000
N1942 G3 X37.725 Y575.547 Z4.000 I-1.492 J-0.154 F1000
N1943 G3 X40.709 Y575.855 Z3.500 I1.492 J0.154 F1000
N1944 G3 X37.725 Y575.547 Z3.000 I-1.492 J-0.154 F1000
N1945 G3 X40.709 Y575.855 Z2.500 I1.492 J0.154 F1000
N1946 G3 X37.725 Y575.547 Z2.000 I-1.492 J-0.154 F1000
N1947 G3 X40.709 Y575.855 Z1.500 I1.492 J0.154 F1000
N1948 G3 X37.725 Y575.547 Z1.000 I-1.492 J-0.154 F1000
N1949 G3 X40.709 Y575.855 Z0.500 I1.492 J0.154 F1000
N1950 G3 X37.725 Y575.547 Z0.000 I-1.492 J-0.154 F1000
N1951 G3 X40.709 Y575.855 Z-0.500 I1.492 J0.154 F1000
N1952 G3 X37.725 Y575.547 Z-1.000 I-1.492 J-0.154 F1000
N1953 G3 X40.709 Y575.855 Z-1.500 I1.492 J0.154 F1000
N1954 G3 X37.725 Y575.547 Z-2.000 I-1.492 J-0.154 F1000
N1955 G3 X40.709 Y575.855 Z-2.500 I1.492 J0.154 F1000
N1956 G3 X37.725 Y575.547 Z-3.000 I-1.492 J-0.154 F1000
N1957 G3 X40.709 Y575.855 Z-3.500 I1.492 J0.154 F1000
N1958 G3 X37.725 Y575.547 Z-4.000 I-1.492 J-0.154 F1000
N1959 G3 X40.709 Y575.855 Z-4.500 I1.492 J0.154 F1000
N1960 G3 X37.725 Y575.547 Z-5.000 I-1.492 J-0.154 F1000
N1961 G3 X40.709 Y575.855 Z-5.500 I1.492 J0.154 F1000
N1962 G3 X37.725 Y575.547 Z-6.000 I-1.492 J-0.154 F1000
N1963 G3 X40.709 Y575.855 Z-6.500 I1.492 J0.154 F1000
N1964 G3 X37.725 Y575.547 Z-6.500 I-1.492 J-0.154 F1000
N1965 G3 X40.709 Y575.855 Z-6.500 I1.492 J0.154 F1000
N1966 G3 X40.160 Y576.301 Z-6.500 I-0.497 J-0.051 F1000
N1967 G1 X39.912 Y576.275 Z-6.500 F1000
N1968 G1 X39.825 Y576.266 Z-6.492 F1000
N1969 G1 X39.741 Y576.258 Z-6.470 F1000
N1970 G1 X39.663 Y576.250 Z-6.433 F1000
N1971 G1 X39.592 Y576.242 Z-6.383 F1000
N1972 G1 X39.531 Y576.236 Z-6.321 F1000
N1973 G1 X39.481 Y576.231 Z-6.250 F1000
N1974 G1 X39.444 Y576.227 Z-6.171 F1000
N1975 G1 X39.422 Y576.225 Z-6.087 F1000
N1976 G1 X39.414 Y576.224 Z-6.000 F1000
N1977 G0 X39.414 Y576.224 Z14.500
N1978 G0 X34.497 Y618.945 Z14.500
N1979 G0 X34.497 Y618.945 Z11.500
N1980 G1 X34.497 Y618.945 Z10.000 F1000
N1981 G1 X34.489 Y618.944 Z9.913 F1000
N1982 G1 X34.467 Y618.942 Z9.829 F1000
N1983 G1 X34.430 Y618.938 Z9.750 F1000
N1984 G1 X34.380 Y618.933 Z9.679 F1000
N1985 G1 X34.319 Y618.926 Z9.617 F1000
N1986 G1 X34.248 Y618.919 Z9.567 F1000
N1987 G1 X34.170 Y618.911 Z9.530 F1000
N1988 G1 X34.086 Y618.902 Z9.508 F1000
N1989 G1 X33.999 Y618.893 Z9.500 F1000
N1990 G1 X33.751 Y618.868 Z9.500 F1000
N1991 G3 X33.305 Y618.319 Z9.500 I0.051 J-0.497 F1000
N1992 G3 X36.289 Y618.627 Z9.000 I1.492 J0.154 F1000
N1993 G3 X33.305 Y618.319 Z8.500 I-1.492 J-0.154 F1000
N1994 G3 X36.289 Y618.627 Z8.000 I1.492 J0.154 F1000
N1995 G3 X33.305 Y618.319 Z7.500 I-1.492 J-0.154 F1000
N1996 G3 X36.289 Y618.627 Z7.000 I1.492 J0.154 F1000
N1997 G3 X33.305 Y618.319 Z6.500 I-1.492 J-0.154 F1000
N1998 G3 X36.289 Y618.627 Z6.000 I1.492 J0.154 F1000
N1999 G3 X33.305 Y618.319 Z5.500 I-1.492 J-0.154 F1000
N2000 G3 X36.289 Y618.627 Z5.000 I1.492 J0.154 F1000
N2001 G3 X33.305 Y618.319 Z4.500 I-1.492 J-0.154 F1000
N2002 G3 X36.289 Y618.627 Z4.000 I1.492 J0.154 F1000
N2003 G3 X33.305 Y618.319 Z3.500 I-1.492 J-0.154 F1000
N2004 G3 X36.289 Y618.627 Z3.000 I1.492 J0.154 F1000
N2005 G3 X33.305 Y618.319 Z2.500 I-1.492 J-0.154 F1000
N2006 G3 X36.289 Y618.627 Z2.000 I1.492 J0.154 F1000
N2007 G3 X33.305 Y618.319 Z1.500 I-1.492 J-0.154 F1000
N2008 G3 X36.289 Y618.627 Z1.000 I1.492 J0.154 F1000
N2009 G3 X33.305 Y618.319 Z0.500 I-1.492 J-0.154 F1000
N2010 G3 X36.289 Y618.627 Z0.000 I1.492 J0.154 F1000
N2011 G3 X33.305 Y618.319 Z-0.500 I-1.492 J-0.154 F1000
N2012 G3 X36.289 Y618.627 Z-1.000 I1.492 J0.154 F1000
N2013 G3 X33.305 Y618.319 Z-1.500 I-1.492 J-0.154 F1000
N2014 G3 X36.289 Y618.627 Z-2.000 I1.492 J0.154 F1000
N2015 G3 X33.305 Y618.319 Z-2.500 I-1.492 J-0.154 F1000
N2016 G3 X36.289 Y618.627 Z-3.000 I1.492 J0.154 F1000
N2017 G3 X33.305 Y618.319 Z-3.500 I-1.492 J-0.154 F1000
N2018 G3 X36.289 Y618.627 Z-4.000 I1.492 J0.154 F1000
N2019 G3 X33.305 Y618.319 Z-4.500 I-1.492 J-0.154 F1000
N2020 G3 X36.289 Y618.627 Z-5.000 I1.492 J0.154 F1000
N2021 G3 X33.305 Y618.319 Z-5.500 I-1.492 J-0.154 F1000
N2022 G3 X36.289 Y618.627 Z-6.000 I1.492 J0.154 F1000
N2023 G3 X33.305 Y618.319 Z-6.500 I-1.492 J-0.154 F1000
N2024 G3 X36.289 Y618.627 Z-6.500 I1.492 J0.154 F1000
N2025 G3 X33.305 Y618.319 Z-6.500 I-1.492 J-0.154 F1000
N2026 G3 X33.854 Y617.873 Z-6.500 I0.497 J0.051 F1000
N2027 G1 X34.102 Y617.899 Z-6.500 F1000
N2028 G1 X34.189 Y617.908 Z-6.492 F1000
N2029 G1 X34.272 Y617.916 Z-6.470 F1000
N2030 G1 X34.351 Y617.924 Z-6.433 F1000
N2031 G1 X34.422 Y617.932 Z-6.383 F1000
N2032 G1 X34.483 Y617.938 Z-6.321 F1000
N2033 G1 X34.533 Y617.943 Z-6.250 F1000
N2034 G1 X34.570 Y617.947 Z-6.171 F1000
N2035 G1 X34.592 Y617.949 Z-6.087 F1000
N2036 G1 X34.600 Y617.950 Z-6.000 F1000
N2037 G0 X34.600 Y617.950 Z14.500
N2038 G0 X30.077 Y661.717 Z14.500
N2039 G0 X30.077 Y661.717 Z11.500
N2040 G1 X30.077 Y661.717 Z10.000 F1000
N2041 G1 X30.069 Y661.716 Z9.913 F1000
N2042 G1 X30.047 Y661.714 Z9.829 F1000
N2043 G1 X30.010 Y661.710 Z9.750 F1000
N2044 G1 X29.960 Y661.705 Z9.679 F1000
N2045 G1 X29.899 Y661.699 Z9.617 F1000
N2046 G1 X29.828 Y661.691 Z9.567 F1000
N2047 G1 X29.749 Y661.683 Z9.530 F1000
N2048 G1 X29.666 Y661.675 Z9.508 F1000
N2049 G1 X29.579 Y661.666 Z9.500 F1000
N2050 G1 X29.331 Y661.640 Z9.500 F1000
N2051 G3 X28.885 Y661.091 Z9.500 I0.051 J-0.497 F1000
N2052 G3 X31.869 Y661.399 Z9.000 I1.492 J0.154 F1000
N2053 G3 X28.885 Y661.091 Z8.500 I-1.492 J-0.154 F1000
N2054 G3 X31.869 Y661.399 Z8.000 I1.492 J0.154 F1000
N2055 G3 X28.885 Y661.091 Z7.500 I-1.492 J-0.154 F1000
N2056 G3 X31.869 Y661.399 Z7.000 I1.492 J0.154 F1000
N2057 G3 X28.885 Y661.091 Z6.500 I-1.492 J-0.154 F1000
N2058 G3 X31.869 Y661.399 Z6.000 I1.492 J0.154 F1000
N2059 G3 X28.885 Y661.091 Z5.500 I-1.492 J-0.154 F1000
N2060 G3 X31.869 Y661.399 Z5.000 I1.492 J0.154 F1000
N2061 G3 X28.885 Y661.091 Z4.500 I-1.492 J-0.154 F1000
N2062 G3 X31.869 Y661.399 Z4.000 I1.492 J0.154 F1000
N2063 G3 X28.885 Y661.091 Z3.500 I-1.492 J-0.154 F1000
N2064 G3 X31.869 Y661.399 Z3.000 I1.492 J0.154 F1000
N2065 G3 X28.885 Y661.091 Z2.500 I-1.492 J-0.154 F1000
N2066 G3 X31.869 Y661.399 Z2.000 I1.492 J0.154 F1000
N2067 G3 X28.885 Y661.091 Z1.500 I-1.492 J-0.154 F1000
N2068 G3 X31.869 Y661.399 Z1.000 I1.492 J0.154 F1000
N2069 G3 X28.885 Y661.091 Z0.500 I-1.492 J-0.154 F1000
N2070 G3 X31.869 Y661.399 Z0.000 I1.492 J0.154 F1000
N2071 G3 X28.885 Y661.091 Z-0.500 I-1.492 J-0.154 F1000
N2072 G3 X31.869 Y661.399 Z-1.000 I1.492 J0.154 F1000
N2073 G3 X28.885 Y661.091 Z-1.500 I-1.492 J-0.154 F1000
N2074 G3 X31.869 Y661.399 Z-2.000 I1.492 J0.154 F1000
N2075 G3 X28.885 Y661.091 Z-2.500 I-1.492 J-0.154 F1000
N2076 G3 X31.869 Y661.399 Z-3.000 I1.492 J0.154 F1000
N2077 G3 X28.885 Y661.091 Z-3.500 I-1.492 J-0.154 F1000
N2078 G3 X31.869 Y661.399 Z-4.000 I1.492 J0.154 F1000
N2079 G3 X28.885 Y661.091 Z-4.500 I-1.492 J-0.154 F1000
N2080 G3 X31.869 Y661.399 Z-5.000 I1.492 J0.154 F1000
N2081 G3 X28.885 Y661.091 Z-5.500 I-1.492 J-0.154 F1000
N2082 G3 X31.869 Y661.399 Z-6.000 I1.492 J0.154 F1000
N2083 G3 X28.885 Y661.091 Z-6.500 I-1.492 J-0.154 F1000
N2084 G3 X31.869 Y661.399 Z-6.500 I1.492 J0.154 F1000
N2085 G3 X28.885 Y661.091 Z-6.500 I-1.492 J-0.154 F1000
N2086 G3 X29.433 Y660.645 Z-6.500 I0.497 J0.051 F1000
N2087 G1 X29.682 Y660.671 Z-6.500 F1000
N2088 G1 X29.769 Y660.680 Z-6.492 F1000
N2089 G1 X29.852 Y660.688 Z-6.470 F1000
N2090 G1 X29.931 Y660.697 Z-6.433 F1000
N2091 G1 X30.002 Y660.704 Z-6.383 F1000
N2092 G1 X30.063 Y660.710 Z-6.321 F1000
N2093 G1 X30.113 Y660.715 Z-6.250 F1000
N2094 G1 X30.149 Y660.719 Z-6.171 F1000
N2095 G1 X30.172 Y660.721 Z-6.087 F1000
N2096 G1 X30.179 Y660.722 Z-6.000 F1000
N2097 G0 X30.179 Y660.722 Z14.500
N2098 G0 X78.835 Y676.306 Z14.500
N2099 G0 X78.835 Y676.306 Z9.500
N2100 G1 X78.835 Y676.306 Z8.000 F1000
N2101 G1 X78.843 Y676.307 Z7.913 F1000
N2102 G1 X78.865 Y676.309 Z7.829 F1000
N2103 G1 X78.902 Y676.313 Z7.750 F1000
N2104 G1 X78.952 Y676.318 Z7.679 F1000
N2105 G1 X79.013 Y676.325 Z7.617 F1000
N2106 G1 X79.084 Y676.332 Z7.567 F1000
N2107 G1 X79.163 Y676.340 Z7.530 F1000
N2108 G1 X79.246 Y676.349 Z7.508 F1000
N2109 G1 X79.333 Y676.358 Z7.500 F1000
N2110 G1 X79.581 Y676.383 Z7.500 F1000
N2111 G3 X80.027 Y676.932 Z7.500 I-0.051 J0.497 F1000
N2112 G3 X77.043 Y676.624 Z7.000 I-1.492 J-0.154 F1000
N2113 G3 X80.027 Y676.932 Z6.500 I1.492 J0.154 F1000
N2114 G3 X77.043 Y676.624 Z6.000 I-1.492 J-0.154 F1000
N2115 G3 X80.027 Y676.932 Z5.500 I1.492 J0.154 F1000
N2116 G3 X77.043 Y676.624 Z5.000 I-1.492 J-0.154 F1000
N2117 G3 X80.027 Y676.932 Z4.500 I1.492 J0.154 F1000
N2118 G3 X77.043 Y676.624 Z4.000 I-1.492 J-0.154 F1000
N2119 G3 X80.027 Y676.932 Z3.500 I1.492 J0.154 F1000
N2120 G3 X77.043 Y676.624 Z3.000 I-1.492 J-0.154 F1000
N2121 G3 X80.027 Y676.932 Z2.500 I1.492 J0.154 F1000
N2122 G3 X77.043 Y676.624 Z2.000 I-1.492 J-0.154 F1000
N2123 G3 X80.027 Y676.932 Z1.500 I1.492 J0.154 F1000
N2124 G3 X77.043 Y676.624 Z1.000 I-1.492 J-0.154 F1000
N2125 G3 X80.027 Y676.932 Z0.500 I1.492 J0.154 F1000
N2126 G3 X77.043 Y676.624 Z0.000 I-1.492 J-0.154 F1000
N2127 G3 X80.027 Y676.932 Z-0.500 I1.492 J0.154 F1000
N2128 G3 X77.043 Y676.624 Z-1.000 I-1.492 J-0.154 F1000
N2129 G3 X80.027 Y676.932 Z-1.500 I1.492 J0.154 F1000
N2130 G3 X77.043 Y676.624 Z-2.000 I-1.492 J-0.154 F1000
N2131 G3 X80.027 Y676.932 Z-2.500 I1.492 J0.154 F1000
N2132 G3 X77.043 Y676.624 Z-3.000 I-1.492 J-0.154 F1000
N2133 G3 X80.027 Y676.932 Z-3.500 I1.492 J0.154 F1000
N2134 G3 X77.043 Y676.624 Z-4.000 I-1.492 J-0.154 F1000
N2135 G3 X80.027 Y676.932 Z-4.500 I1.492 J0.154 F1000
N2136 G3 X77.043 Y676.624 Z-5.000 I-1.492 J-0.154 F1000
N2137 G3 X80.027 Y676.932 Z-5.500 I1.492 J0.154 F1000
N2138 G3 X77.043 Y676.624 Z-6.000 I-1.492 J-0.154 F1000
N2139 G3 X80.027 Y676.932 Z-6.500 I1.492 J0.154 F1000
N2140 G3 X77.043 Y676.624 Z-6.500 I-1.492 J-0.154 F1000
N2141 G3 X80.027 Y676.932 Z-6.500 I1.492 J0.154 F1000
N2142 G3 X79.479 Y677.378 Z-6.500 I-0.497 J-0.051 F1000
N2143 G1 X79.230 Y677.352 Z-6.500 F1000
N2144 G1 X79.144 Y677.343 Z-6.492 F1000
N2145 G1 X79.060 Y677.335 Z-6.470 F1000
N2146 G1 X78.981 Y677.327 Z-6.433 F1000
N2147 G1 X78.910 Y677.319 Z-6.383 F1000
N2148 G1 X78.849 Y677.313 Z-6.321 F1000
N2149 G1 X78.799 Y677.308 Z-6.250 F1000
N2150 G1 X78.763 Y677.304 Z-6.171 F1000
N2151 G1 X78.740 Y677.302 Z-6.087 F1000
N2152 G1 X78.733 Y677.301 Z-6.000 F1000
N2153 G0 X78.733 Y677.301 Z14.500
N2154 G0 X110.066 Y680.539 Z14.500
N2155 G0 X110.066 Y680.539 Z11.500
N2156 G1 X110.066 Y680.539 Z10.000 F1000
N2157 G1 X110.058 Y680.538 Z9.913 F1000
N2158 G1 X110.036 Y680.536 Z9.829 F1000
N2159 G1 X109.999 Y680.532 Z9.750 F1000
N2160 G1 X109.949 Y680.527 Z9.679 F1000
N2161 G1 X109.888 Y680.521 Z9.617 F1000
N2162 G1 X109.817 Y680.513 Z9.567 F1000
N2163 G1 X109.738 Y680.505 Z9.530 F1000
N2164 G1 X109.655 Y680.496 Z9.508 F1000
N2165 G1 X109.568 Y680.488 Z9.500 F1000
N2166 G1 X109.320 Y680.462 Z9.500 F1000
N2167 G3 X108.874 Y679.913 Z9.500 I0.051 J-0.497 F1000
N2168 G3 X111.858 Y680.221 Z9.000 I1.492 J0.154 F1000
N2169 G3 X108.874 Y679.913 Z8.500 I-1.492 J-0.154 F1000
N2170 G3 X111.858 Y680.221 Z8.000 I1.492 J0.154 F1000
N2171 G3 X108.874 Y679.913 Z7.500 I-1.492 J-0.154 F1000
N2172 G3 X111.858 Y680.221 Z7.000 I1.492 J0.154 F1000
N2173 G3 X108.874 Y679.913 Z6.500 I-1.492 J-0.154 F1000
N2174 G3 X111.858 Y680.221 Z6.000 I1.492 J0.154 F1000
N2175 G3 X108.874 Y679.913 Z5.500 I-1.492 J-0.154 F1000
N2176 G3 X111.858 Y680.221 Z5.000 I1.492 J0.154 F1000
N2177 G3 X108.874 Y679.913 Z4.500 I-1.492 J-0.154 F1000
N2178 G3 X111.858 Y680.221 Z4.000 I1.492 J0.154 F1000
N2179 G3 X108.874 Y679.913 Z3.500 I-1.492 J-0.154 F1000
N2180 G3 X111.858 Y680.221 Z3.000 I1.492 J0.154 F1000
N2181 G3 X108.874 Y679.913 Z2.500 I-1.492 J-0.154 F1000
N2182 G3 X111.858 Y680.221 Z2.000 I1.492 J0.154 F1000
N2183 G3 X108.874 Y679.913 Z1.500 I-1.492 J-0.154 F1000
N2184 G3 X111.858 Y680.221 Z1.000 I1.492 J0.154 F1000
N2185 G3 X108.874 Y679.913 Z0.500 I-1.492 J-0.154 F1000
N2186 G3 X111.858 Y680.221 Z0.000 I1.492 J0.154 F1000
N2187 G3 X108.874 Y679.913 Z-0.500 I-1.492 J-0.154 F1000
N2188 G3 X111.858 Y680.221 Z-1.000 I1.492 J0.154 F1000
N2189 G3 X108.874 Y679.913 Z-1.500 I-1.492 J-0.154 F1000
N2190 G3 X111.858 Y680.221 Z-2.000 I1.492 J0.154 F1000
N2191 G3 X108.874 Y679.913 Z-2.500 I-1.492 J-0.154 F1000
N2192 G3 X111.858 Y680.221 Z-3.000 I1.492 J0.154 F1000
N2193 G3 X108.874 Y679.913 Z-3.500 I-1.492 J-0.154 F1000
N2194 G3 X111.858 Y680.221 Z-4.000 I1.492 J0.154 F1000
N2195 G3 X108.874 Y679.913 Z-4.500 I-1.492 J-0.154 F1000
N2196 G3 X111.858 Y680.221 Z-5.000 I1.492 J0.154 F1000
N2197 G3 X108.874 Y679.913 Z-5.500 I-1.492 J-0.154 F1000
N2198 G3 X111.858 Y680.221 Z-6.000 I1.492 J0.154 F1000
N2199 G3 X108.874 Y679.913 Z-6.500 I-1.492 J-0.154 F1000
N2200 G3 X111.858 Y680.221 Z-6.500 I1.492 J0.154 F1000
N2201 G3 X108.874 Y679.913 Z-6.500 I-1.492 J-0.154 F1000
N2202 G3 X109.422 Y679.467 Z-6.500 I0.497 J0.051 F1000
N2203 G1 X109.671 Y679.493 Z-6.500 F1000
N2204 G1 X109.757 Y679.502 Z-6.492 F1000
N2205 G1 X109.841 Y679.510 Z-6.470 F1000
N2206 G1 X109.920 Y679.519 Z-6.433 F1000
N2207 G1 X109.991 Y679.526 Z-6.383 F1000
N2208 G1 X110.052 Y679.532 Z-6.321 F1000
N2209 G1 X110.102 Y679.537 Z-6.250 F1000
N2210 G1 X110.138 Y679.541 Z-6.171 F1000
N2211 G1 X110.161 Y679.543 Z-6.087 F1000
N2212 G1 X110.168 Y679.544 Z-6.000 F1000
N2213 G0 X110.168 Y679.544 Z14.500
N2214 G0 X402.406 Y669.963 Z14.500
N2215 G0 X402.406 Y669.963 Z11.500
N2216 G1 X402.406 Y669.963 Z10.000 F1000
N2217 G1 X402.398 Y669.962 Z9.913 F1000
N2218 G1 X402.376 Y669.960 Z9.829 F1000
N2219 G1 X402.339 Y669.956 Z9.750 F1000
N2220 G1 X402.289 Y669.951 Z9.679 F1000
