(Made in : Autodesk CAM Post Processor)
(G Code optimized for controller)
(OpenBuilds CNC : GRBL BlackBox)
(Post Processor : OpenbuildsFusion360PostGrbl.cps V1.0.27)
(Units = mm)

(Drawing name : Ilharga Esq v5)
(Program Name : 1001)
(Program Comments : Ilharga Esq)

(13 Operations in 5 files.)
(File List:)
( 1001 Ilharga.gcode)
( 1001 Ilharga.02of5.gcode)
( 1001 Ilharga.03of5.gcode)
( 1001 Ilharga.04of5.gcode)
( 1001 Ilharga.05of5.gcode)

(This is file: 4 of 5)

(This file contains the following operations: )
(12 : Slot3)
( Work Coordinate System : G54)
( Tool 4: Flat End Mill 3 Flutes, Diam = 3mm, Len = 15.00mm)
( Spindle : RPM = 15000, set router dial to 2.6)
( Machining time : 9 min 16 sec)

(Remaining operations located in additional files.)

G90 G94 G17
G21


(Operation 12 of 13 : Slot3)
G54
G53 G0 Z-10
S15000 M3
G4 P1.8
G0 X307.991 Y319.426
Z15
Z5.5
G1 X307.991 Y319.426 Z2.5 F800
X370.159 Y432.301 Z-2 F333
X218.674 Y157.258 F800
X370.159 Y432.301 Z-4 F333
X218.674 Y157.258 F800
X370.159 Y432.301 Z-6 F333
X218.674 Y157.258 F800
G0 Z5
X197.785 Y259.79
G1 X197.785 Y259.79 Z2.5 F800
X166.105 Y191.685 Z0.25 F333
X197.785 Y259.79 Z-2
X166.105 Y191.685 F800
X197.785 Y259.79 Z-4 F333
X166.105 Y191.685 F800
X197.785 Y259.79 Z-6 F333
X166.105 Y191.685 F800
G0 Z5.5
X189.864 Y474.38
G1 X189.864 Y474.38 Z2.5 F800
X252.032 Y587.255 Z-2 F333
X100.547 Y312.212 F800
X252.032 Y587.255 Z-4 F333
X100.547 Y312.212 F800
X252.032 Y587.255 Z-6 F333
X100.547 Y312.212 F800
G0 Z5
X304.6 Y552.827
G1 X304.6 Y552.827 Z2.5 F800
X272.92 Y484.723 Z0.25 F333
X304.6 Y552.827 Z-2
X272.92 Y484.723 F800
X304.6 Y552.827 Z-4 F333
X272.92 Y484.723 F800
X304.6 Y552.827 Z-6 F333
X272.92 Y484.723 F800
G0 Z15


G53 G0 Z-10
M5
G0 X-10 Y-10
M30
