(Made in : Autodesk CAM Post Processor)
(G Code optimized for controller)
(OpenBuilds CNC : GRBL BlackBox)
(Post Processor : OpenbuildsFusion360PostGrbl.cps V1.0.27)
(Units = mm)

(Drawing name : Ilharga Esq v5)
(Program Name : 1001)
(Program Comments : Ilharga Esq)

(13 Operations in 5 files.)
(File List:)
( 1001 Ilharga.gcode)
( 1001 Ilharga.02of5.gcode)
( 1001 Ilharga.03of5.gcode)
( 1001 Ilharga.04of5.gcode)
( 1001 Ilharga.05of5.gcode)

(This is file: 5 of 5)

(This file contains the following operations: )
(13 : Drill2)
( Work Coordinate System : G54)
( Tool 5: Spot Drill 3 Flutes, Diam = 5mm, Len = 20.00mm)
( Spindle : RPM = 10000, set router dial to 1.0)
( Machining time : 4 sec)

G90 G94 G17
G21


(Operation 13 of 13 : Drill2)
G54
G53 G0 Z-10
S10000 M3
G4 P1.8
G0 X63.034 Y318.037
Z15
Z5
G1 X63.034 Y318.037 Z-1 F333
G0 Z5
X63.047 Y350.037
G1 X63.047 Y350.037 Z-1 F333
G0 Z5
X407.659 Y394.476
G1 X407.659 Y394.476 Z-1 F333
G0 Z5
X407.672 Y426.476
G1 X407.672 Y426.476 Z-1 F333
G0 Z5
Z15


G53 G0 Z-10
M5
G0 X-10 Y-10
M30
